; generated by PrusaSlicer 2.9.3 on 2025-10-07 at 16:27:54 UTC


;
;
; 

; external perimeters extrusion width = 0.45mm
; perimeters extrusion width = 0.45mm
; infill extrusion width = 0.45mm
; solid infill extrusion width = 0.45mm
; top infill extrusion width = 0.40mm
; first layer extrusion width = 0.42mm

M73 P0 R151
M73 C143
M73 Q0 S151
M73 D143
M201 X1000 Y1000 Z200 E5000 ; sets maximum accelerations, mm/sec^2
M203 X200 Y200 Z12 E120 ; sets maximum feedrates, mm / sec
M204 S1250 T1250 ; sets acceleration (S) and retract acceleration (R), mm/sec^2
M205 X8.00 Y8.00 Z0.40 E4.50 ; sets the jerk limits, mm/sec
M205 S0 T0 ; sets the minimum extruding and travel feed rate, mm/sec

; printing object base 01-02_fast id:0 copy 0
; stop printing object base 01-02_fast id:0 copy 0

;TYPE:Custom
M862.3 P "MK3" ; printer model check
M862.1 P0.4 ; nozzle diameter check
M115 U3.14.1 ; tell printer latest fw version
G90 ; use absolute coordinates
M83 ; extruder relative mode
M104 S250 ; set extruder temp
M140 S85 ; set bed temp
M190 S85 ; wait for bed temp
M109 S250 ; wait for extruder temp
G28 W ; home all without mesh bed level
G80 X60.1229 Y40.1229 W129.754 H129.754 ; mesh bed levelling

G1 Z0.2 F720
G1 Y-3 F1000 ; go outside print area
G92 E0
G1 X60 E9 F1000 ; intro line
G1 X100 E12.5 F1000 ; intro line

G92 E0
M221 S95

; Don't change E values below. Excessive value can damage the printer.

M907 E538 ; set extruder motor current
G21 ; set units to millimeters
G90 ; use absolute coordinates
M83 ; use relative distances for extrusion

M900 K0.08 ; Filament gcode LA 1.5
M900 K45 ; Filament gcode LA 1.0




M107
;LAYER_CHANGE
;Z:0.2
;HEIGHT:0.2
G1 E-1 F2100
G1 Z.4 F720
G1 X61.078 Y42.431 F10800
G1 Z.2 F720
G1 E1 F2100
M204 S800
;TYPE:Skirt/Brim
;WIDTH:0.42
G1 F1200
G1 X61.655 Y41.715 E.02883
G1 X62.36 Y41.126 E.0288
G1 X63.166 Y40.685 E.02881
G1 X64.043 Y40.41 E.02882
G1 X64.957 Y40.312 E.02882
G1 X185.043 Y40.312 E3.76521
G1 X185.873 Y40.394 E.02615
G1 X186.754 Y40.652 E.02878
G1 X187.569 Y41.078 E.02883
G1 X188.285 Y41.655 E.02883
G1 X188.874 Y42.36 E.0288
G1 X189.275 Y43.076 E.02573
G1 X189.569 Y43.947 E.02882
G1 X189.686 Y44.859 E.02883
G1 X189.688 Y165.043 E3.76828
G1 X189.606 Y165.873 E.02615
G1 X189.348 Y166.754 E.02878
G1 X188.922 Y167.569 E.02883
G1 X188.345 Y168.285 E.02883
G1 X187.64 Y168.874 E.0288
G1 X186.834 Y169.315 E.02881
G1 X185.957 Y169.59 E.02882
G1 X185 Y169.689 E.03017
G1 X64.957 Y169.688 E3.76386
G1 X64.043 Y169.59 E.02882
G1 X63.166 Y169.315 E.02882
G1 X62.431 Y168.922 E.02613
G1 X61.715 Y168.345 E.02883
G1 X61.126 Y167.64 E.0288
G1 X60.685 Y166.834 E.02881
G1 X60.41 Y165.957 E.02882
G1 X60.311 Y165 E.03017
G1 X60.312 Y44.957 E3.76386
G1 X60.41 Y44.043 E.02882
M73 P0 R150
M73 C142
G1 X60.685 Y43.166 E.02882
G1 X61.05 Y42.484 E.02425
M204 S1000
;WIPE_START
G1 F8640
G1 X61.078 Y42.431 E-.01384
G1 X61.655 Y41.715 E-.21233
G1 X62.36 Y41.126 E-.21212
G1 X63.166 Y40.685 E-.21214
G1 X64.043 Y40.41 E-.21222
G1 X64.634 Y40.347 E-.13735
;WIPE_END
G1 Z.4 F720
; printing object base 01-02_fast id:0 copy 0
G1 X142.492 Y110.321 F10800
G1 Z.2 F720
G1 E1 F2100
M204 S800
;TYPE:Perimeter
;WIDTH:0.419999
G1 F1200
G1 X142.406 Y110.37 E.0031
G1 X141.317 Y110.735 E.03601
G1 X140.178 Y110.882 E.03601
G1 X139.032 Y110.805 E.03601
G1 X137.923 Y110.506 E.03601
G1 X136.893 Y109.998 E.03601
G1 X136.175 Y109.45 E.02832
G1 X135.902 Y109.223 E.01113
G1 X135.223 Y108.437 E.03257
G1 X134.647 Y107.444 E.03599
G1 X134.399 Y106.81 E.02135
G1 X134.177 Y105.855 E.03074
G1 X134.117 Y105.196 E.02075
G1 X134.122 Y104.684 E.01605
G1 X134.191 Y104.049 E.02003
G1 X134.295 Y103.548 E.01604
G1 X134.486 Y102.939 E.02001
G1 X134.686 Y102.468 E.01604
G1 X134.992 Y101.907 E.02004
G1 X135.394 Y101.334 E.02195
G1 X136.085 Y100.604 E.03152
G1 X136.548 Y100.232 E.01862
G1 X136.975 Y99.95 E.01604
G1 X138.055 Y99.444 E.03739
G1 X138.625 Y99.276 E.01863
G1 X139.272 Y99.159 E.02062
G1 X139.782 Y99.118 E.01604
G1 X140.421 Y99.129 E.02004
G1 X141.072 Y99.212 E.02058
G1 X142.153 Y99.523 E.03527
G1 X143.268 Y100.106 E.03945
G1 X144.078 Y100.757 E.03258
G1 X144.541 Y101.255 E.02132
G1 X145.094 Y102.052 E.03042
G1 X145.566 Y103.09 E.03575
G1 X145.751 Y103.745 E.02134
G1 X145.839 Y104.25 E.01607
G1 X145.885 Y104.973 E.02271
G1 X145.778 Y106.117 E.03603
G1 X145.491 Y107.115 E.03256
G1 X145.212 Y107.735 E.02132
G1 X144.685 Y108.562 E.03075
G1 X144.195 Y109.127 E.02345
G1 X143.404 Y109.801 E.03258
G1 X142.544 Y110.291 E.03103
M204 S1000
G1 X142.336 Y109.977 F10800
M204 S800
;TYPE:External perimeter
G1 F1200
G1 X142.22 Y110.042 E.00417
G1 X141.201 Y110.377 E.03363
G1 X140.134 Y110.508 E.03371
G1 X139.061 Y110.429 E.03373
G1 X138.025 Y110.143 E.0337
G1 X137.061 Y109.66 E.03381
G1 X136.407 Y109.153 E.02595
G1 X136.062 Y108.831 E.0148
G1 X135.509 Y108.191 E.02652
G1 X134.975 Y107.257 E.03373
G1 X134.751 Y106.676 E.01952
G1 X134.545 Y105.772 E.02907
G1 X134.493 Y105.164 E.01913
G1 X134.5 Y104.671 E.01546
G1 X134.566 Y104.092 E.01827
G1 X134.669 Y103.609 E.01548
G1 X134.846 Y103.053 E.0183
G1 X135.04 Y102.6 E.01545
G1 X135.322 Y102.089 E.0183
G1 X135.684 Y101.575 E.01971
G1 X136.149 Y101.079 E.02132
G1 X136.784 Y100.526 E.0264
G1 X137.204 Y100.253 E.01571
G1 X138.135 Y99.816 E.03225
G1 X138.732 Y99.638 E.01953
G1 X139.337 Y99.53 E.01927
G1 X139.829 Y99.493 E.01547
G1 X140.412 Y99.506 E.01828
G1 X141.022 Y99.586 E.01929
G1 X142.047 Y99.885 E.03348
G1 X143.032 Y100.4 E.03485
G1 X143.842 Y101.051 E.03258
G1 X144.263 Y101.509 E.01951
G1 X144.783 Y102.265 E.02877
G1 X145.222 Y103.244 E.03364
G1 X145.387 Y103.844 E.01951
G1 X145.469 Y104.33 E.01545
G1 X145.509 Y104.941 E.0192
G1 X145.415 Y106.013 E.03374
G1 X145.129 Y107.011 E.03255
G1 X144.87 Y107.577 E.01952
G1 X144.368 Y108.357 E.02908
G1 X143.95 Y108.84 E.02003
G1 X143.159 Y109.513 E.03256
G1 X142.388 Y109.948 E.02776
M204 S1000
;WIPE_START
G1 F8640
G1 X142.336 Y109.977 E-.01375
G1 X142.22 Y110.042 E-.0307
G1 X141.201 Y110.377 E-.24768
G1 X140.134 Y110.508 E-.24822
G1 X139.061 Y110.429 E-.24843
G1 X138.179 Y110.185 E-.21122
;WIPE_END
G1 Z.4 F720
G1 X120.203 Y86.603 F10800
G1 Z.2 F720
G1 E1 F2100
M204 S800
;TYPE:Perimeter
G1 F1200
G1 X120.259 Y86.512 E.00335
G1 X121.022 Y85.664 E.03577
G1 X121.548 Y85.232 E.02134
G1 X121.975 Y84.95 E.01604
G1 X122.619 Y84.618 E.02272
G1 X123.603 Y84.284 E.03258
G1 X124.272 Y84.159 E.02134
G1 X124.782 Y84.118 E.01604
G1 X125.421 Y84.129 E.02004
G1 X126.072 Y84.212 E.02058
G1 X127.153 Y84.523 E.03527
G1 X128.176 Y85.046 E.03602
G1 X128.728 Y85.444 E.02134
G1 X129.491 Y86.197 E.03361
G1 X130.089 Y87.046 E.03256
G1 X130.398 Y87.652 E.02133
G1 X130.744 Y88.723 E.03529
G1 X130.883 Y89.863 E.03601
G1 X130.784 Y91.094 E.03872
G1 X130.644 Y91.671 E.01862
G1 X130.258 Y92.646 E.03288
G1 X129.965 Y93.162 E.01861
G1 X129.364 Y93.93 E.03058
G1 X128.776 Y94.515 E.02601
G1 X127.894 Y95.124 E.03361
G1 X126.948 Y95.553 E.03257
G1 X125.806 Y95.831 E.03685
G1 X124.619 Y95.875 E.03724
G1 X124.009 Y95.802 E.01926
G1 X123.508 Y95.694 E.01607
G1 X122.9 Y95.499 E.02002
G1 X121.893 Y94.998 E.03527
G1 X120.918 Y94.241 E.0387
G1 X120.511 Y93.808 E.01863
G1 X119.891 Y92.921 E.03393
G1 X119.461 Y91.987 E.03224
G1 X119.167 Y90.788 E.03871
G1 X119.117 Y90.196 E.01863
G1 X119.207 Y88.964 E.03873
G1 X119.48 Y87.962 E.03256
G1 X119.75 Y87.338 E.02132
G1 X120.172 Y86.654 E.0252
M204 S1000
G1 X120.509 Y86.825 F10800
M204 S800
;TYPE:External perimeter
G1 F1200
G1 X120.579 Y86.712 E.00417
G1 X121.3 Y85.918 E.03363
G1 X121.784 Y85.526 E.01953
G1 X122.197 Y85.257 E.01545
G1 X122.741 Y84.975 E.01921
G1 X123.724 Y84.641 E.03255
G1 X124.337 Y84.53 E.01953
G1 X124.829 Y84.493 E.01547
G1 X125.412 Y84.506 E.01828
G1 X126.022 Y84.586 E.01929
G1 X127.047 Y84.885 E.03348
G1 X128.001 Y85.38 E.0337
G1 X128.504 Y85.748 E.01954
G1 X129.183 Y86.414 E.02982
G1 X129.781 Y87.263 E.03256
G1 X130.06 Y87.82 E.01953
G1 X130.385 Y88.837 E.03348
G1 X130.508 Y89.905 E.03371
G1 X130.417 Y91.005 E.03461
G1 X130.278 Y91.582 E.01861
G1 X129.93 Y92.459 E.02958
G1 X129.637 Y92.976 E.01863
G1 X129.069 Y93.696 E.02875
G1 X128.52 Y94.239 E.02421
G1 X127.738 Y94.78 E.02981
G1 X126.793 Y95.209 E.03254
G1 X125.729 Y95.462 E.03429
G1 X124.643 Y95.498 E.03407
G1 X124.05 Y95.427 E.01873
G1 X123.572 Y95.321 E.01535
G1 X123.017 Y95.141 E.01829
G1 X122.063 Y94.661 E.03348
G1 X121.193 Y93.983 E.03458
G1 X120.786 Y93.55 E.01863
G1 X120.234 Y92.763 E.03014
G1 X119.803 Y91.829 E.03225
G1 X119.542 Y90.756 E.03462
G1 X119.493 Y90.164 E.01863
G1 X119.571 Y89.063 E.03461
G1 X119.844 Y88.059 E.03262
G1 X120.095 Y87.491 E.01947
G1 X120.477 Y86.876 E.0227
M204 S1000
;WIPE_START
G1 F8640
G1 X120.509 Y86.825 E-.0139
G1 X120.579 Y86.712 E-.03069
G1 X121.3 Y85.918 E-.24765
G1 X121.784 Y85.526 E-.14381
G1 X122.197 Y85.257 E-.11381
G1 X122.741 Y84.975 E-.14149
G1 X123.724 Y84.641 E-.23972
G1 X124.018 Y84.588 E-.06893
;WIPE_END
G1 Z.4 F720
G1 X104.156 Y105.645 F10800
G1 Z.2 F720
G1 E1 F2100
M204 S800
;TYPE:Perimeter
G1 F1200
G1 X104.117 Y105.195 E.01416
G1 X104.189 Y104.073 E.03525
G1 X104.48 Y102.962 E.03601
G1 X104.981 Y101.928 E.03603
G1 X105.673 Y101.012 E.03599
G1 X106.53 Y100.247 E.03602
G1 X107.519 Y99.664 E.036
G1 X108.603 Y99.284 E.03602
G1 X109.272 Y99.159 E.02134
G1 X109.782 Y99.118 E.01604
G1 X110.421 Y99.129 E.02004
G1 X111.072 Y99.212 E.02058
G1 X111.71 Y99.368 E.02059
G1 X112.682 Y99.76 E.03286
G1 X113.197 Y100.057 E.01864
G1 X113.663 Y100.396 E.01807
G1 X114.483 Y101.186 E.0357
G1 X114.839 Y101.649 E.01831
G1 X115.182 Y102.209 E.02059
G1 X115.569 Y103.098 E.0304
G1 X115.751 Y103.745 E.02107
G1 X115.885 Y104.973 E.03873
G1 X115.798 Y106.008 E.03257
G1 X115.491 Y107.115 E.03602
G1 X115.212 Y107.735 E.02132
G1 X114.692 Y108.553 E.03039
G1 X113.917 Y109.391 E.03579
G1 X113.385 Y109.815 E.02133
G1 X112.828 Y110.163 E.02059
G1 X111.941 Y110.556 E.03042
G1 X111.295 Y110.742 E.02108
G1 X110.178 Y110.882 E.0353
G1 X109.498 Y110.865 E.02133
G1 X108.542 Y110.702 E.03041
G1 X107.901 Y110.499 E.02108
G1 X107.301 Y110.231 E.0206
G1 X106.479 Y109.716 E.03041
G1 X105.964 Y109.284 E.02108
G1 X105.223 Y108.437 E.03529
G1 X104.857 Y107.864 E.02132
G1 X104.454 Y106.97 E.03075
G1 X104.267 Y106.335 E.02076
G1 X104.173 Y105.832 E.01604
G1 X104.161 Y105.704 E.00403
M204 S1000
G1 X104.53 Y105.608 F10800
M204 S800
;TYPE:External perimeter
G1 F1200
G1 X104.493 Y105.164 E.01397
G1 X104.565 Y104.099 E.03347
G1 X104.843 Y103.061 E.03369
G1 X105.318 Y102.096 E.03372
G1 X105.972 Y101.242 E.03373
G1 X106.778 Y100.531 E.0337
G1 X107.708 Y99.99 E.03373
G1 X108.726 Y99.64 E.03375
G1 X109.337 Y99.53 E.01947
G1 X109.829 Y99.493 E.01547
G1 X110.412 Y99.506 E.01828
G1 X111.022 Y99.586 E.01929
G1 X111.619 Y99.733 E.01928
G1 X112.494 Y100.087 E.0296
G1 X113.008 Y100.384 E.01861
G1 X113.439 Y100.7 E.01676
G1 X114.185 Y101.416 E.03242
G1 X114.54 Y101.879 E.01829
G1 X114.86 Y102.404 E.01928
G1 X115.223 Y103.246 E.02875
G1 X115.387 Y103.844 E.01944
G1 X115.509 Y104.942 E.03464
G1 X115.422 Y105.977 E.03257
G1 X115.129 Y107.011 E.0337
G1 X114.87 Y107.577 E.01952
G1 X114.375 Y108.349 E.02875
G1 X113.643 Y109.133 E.03363
G1 X113.153 Y109.518 E.01954
G1 X112.63 Y109.842 E.01929
G1 X111.79 Y110.21 E.02875
G1 X111.193 Y110.379 E.01945
G1 X110.134 Y110.508 E.03345
G1 X109.511 Y110.488 E.01954
G1 X108.608 Y110.331 E.02874
G1 X108.017 Y110.141 E.01946
G1 X107.457 Y109.888 E.01927
G1 X106.681 Y109.398 E.02878
G1 X106.208 Y108.997 E.01944
G1 X105.509 Y108.191 E.03345
G1 X105.177 Y107.664 E.01953
G1 X104.799 Y106.817 E.02908
G1 X104.63 Y106.231 E.01912
G1 X104.541 Y105.746 E.01546
G1 X104.535 Y105.668 E.00245
M204 S1000
;WIPE_START
G1 F8640
G1 X104.53 Y105.608 E-.0139
G1 X104.493 Y105.164 E-.10288
G1 X104.565 Y104.099 E-.24647
G1 X104.843 Y103.061 E-.24812
G1 X105.318 Y102.096 E-.24835
G1 X105.687 Y101.614 E-.14028
;WIPE_END
G1 Z.4 F720
G1 X185.267 Y43.318 F10800
G1 Z.2 F720
G1 E1 F2100
M73 D142
M204 S800
;TYPE:Perimeter
G1 F1200
G1 X185.334 Y43.323 E.00211
G1 X185.802 Y43.499 E.01568
G1 X186.209 Y43.791 E.01571
G1 X186.501 Y44.198 E.01571
G1 X186.677 Y44.666 E.01568
G1 X186.713 Y45.12 E.01428
G1 X186.713 Y164.88 E3.75498
G1 X186.694 Y165.167 E.00902
M73 Q0 S150
G1 X186.58 Y165.654 E.01568
G1 X186.315 Y166.08 E.01573
G1 X185.95 Y166.422 E.01568
G1 X185.494 Y166.628 E.01569
G1 X184.969 Y166.713 E.01668
G1 X65.12 Y166.713 E3.75777
G1 X64.833 Y166.694 E.00902
G1 X64.346 Y166.58 E.01568
G1 X63.92 Y166.315 E.01573
G1 X63.578 Y165.95 E.01568
G1 X63.372 Y165.494 E.01569
G1 X63.287 Y164.969 E.01668
G1 X63.287 Y45.513 E3.74545
G1 X63.322 Y44.671 E.02642
G1 X63.448 Y44.285 E.01273
G1 X63.661 Y43.938 E.01277
G1 X64.023 Y43.612 E.01527
G1 X64.389 Y43.411 E.01309
G1 X64.875 Y43.294 E.01567
G1 X65.501 Y43.287 E.01963
G1 X184.88 Y43.287 E3.74304
G1 X185.207 Y43.313 E.01029
M204 S1000
G1 X185.326 Y42.945 F10800
M204 S800
;TYPE:External perimeter
G1 F1200
G1 X185.408 Y42.951 E.00258
G1 X185.799 Y43.07 E.01281
G1 X186.161 Y43.263 E.01286
G1 X186.477 Y43.523 E.01283
G1 X186.737 Y43.839 E.01283
G1 X186.93 Y44.201 E.01286
G1 X187.049 Y44.592 E.01281
G1 X187.09 Y45.12 E.0166
G1 X187.09 Y164.88 E3.75498
G1 X187.049 Y165.408 E.0166
G1 X186.93 Y165.799 E.01281
G1 X186.737 Y166.161 E.01286
G1 X186.477 Y166.477 E.01283
G1 X186.161 Y166.737 E.01283
G1 X185.799 Y166.93 E.01286
G1 X185.408 Y167.049 E.01281
G1 X184.988 Y167.09 E.01323
G1 X65.12 Y167.09 E3.75837
G1 X64.592 Y167.049 E.0166
G1 X64.201 Y166.93 E.01281
G1 X63.839 Y166.737 E.01286
G1 X63.523 Y166.477 E.01283
G1 X63.263 Y166.161 E.01283
G1 X63.07 Y165.799 E.01286
G1 X62.951 Y165.408 E.01281
G1 X62.91 Y164.988 E.01323
G1 X62.91 Y45.12 E3.75837
G1 X62.951 Y44.594 E.01654
M73 C141
G1 X63.103 Y44.126 E.01543
G1 X63.361 Y43.706 E.01545
G1 X63.644 Y43.411 E.01282
G1 X64.053 Y43.138 E.01542
G1 X64.433 Y42.989 E.0128
G1 X64.839 Y42.917 E.01293
G1 X65.499 Y42.91 E.02069
G1 X184.881 Y42.91 E3.74313
G1 X185.266 Y42.94 E.01211
M73 P1 R149
M73 Q1 S150
M204 S1000
;WIPE_START
G1 F8640
G1 X185.326 Y42.945 E-.0139
G1 X185.408 Y42.951 E-.01898
G1 X185.799 Y43.07 E-.09437
G1 X186.161 Y43.263 E-.09472
G1 X186.477 Y43.523 E-.09449
G1 X186.737 Y43.839 E-.09449
G1 X186.93 Y44.201 E-.09472
G1 X187.049 Y44.592 E-.09437
G1 X187.09 Y45.12 E-.12228
G1 X187.09 Y46.323 E-.27768
;WIPE_END
G1 Z.4 F720
G1 X186.562 Y45.132 F10800
G1 Z.2 F720
G1 E1 F2100
M204 S800
;TYPE:Solid infill
;WIDTH:0.420344
G1 F1200
G1 X185.047 Y43.617 E.06724
G1 X184.504 Y43.608 E.01704
G1 X186.392 Y45.496 E.08379
G1 X186.392 Y46.03 E.01676
G1 X183.97 Y43.608 E.10749
G1 X183.436 Y43.608 E.01676
G1 X186.392 Y46.564 E.13119
G1 X186.392 Y47.097 E.01673
G1 X182.903 Y43.608 E.15485
G1 X182.369 Y43.608 E.01676
G1 X186.392 Y47.631 E.17855
G1 X186.392 Y48.165 E.01676
G1 X181.835 Y43.608 E.20225
G1 X181.301 Y43.608 E.01676
G1 X186.392 Y48.699 E.22595
G1 X186.392 Y49.232 E.01673
G1 X180.768 Y43.608 E.24961
G1 X180.234 Y43.608 E.01676
G1 X186.392 Y49.766 E.27331
G1 X186.392 Y50.3 E.01676
G1 X179.7 Y43.608 E.29701
G1 X179.166 Y43.608 E.01676
G1 X186.392 Y50.834 E.32071
G1 X186.392 Y51.367 E.01673
G1 X178.633 Y43.608 E.34436
G1 X178.099 Y43.608 E.01676
G1 X186.392 Y51.901 E.36806
G1 X186.392 Y52.435 E.01676
G1 X177.565 Y43.608 E.39176
G1 X177.031 Y43.608 E.01676
G1 X186.392 Y52.969 E.41546
G1 X186.392 Y53.502 E.01673
G1 X176.498 Y43.608 E.43912
G1 X175.964 Y43.608 E.01676
G1 X186.392 Y54.036 E.46282
G1 X186.392 Y54.57 E.01676
G1 X175.43 Y43.608 E.48652
G1 X174.896 Y43.608 E.01676
G1 X186.392 Y55.104 E.51022
G1 X186.392 Y55.637 E.01673
G1 X174.363 Y43.608 E.53387
G1 X173.829 Y43.608 E.01676
M73 D141
G1 X186.392 Y56.171 E.55757
G1 X186.392 Y56.705 E.01676
G1 X173.295 Y43.608 E.58127
G1 X172.761 Y43.608 E.01676
G1 X186.392 Y57.239 E.60497
G1 X186.392 Y57.772 E.01673
G1 X172.228 Y43.608 E.62863
G1 X171.694 Y43.608 E.01676
G1 X186.392 Y58.306 E.65233
G1 X186.392 Y58.84 E.01676
G1 X171.16 Y43.608 E.67603
G1 X170.626 Y43.608 E.01676
M73 Q1 S149
G1 X186.392 Y59.374 E.69973
G1 X186.392 Y59.908 E.01676
G1 X170.093 Y43.608 E.72341
G1 X169.559 Y43.608 E.01676
G1 X186.392 Y60.441 E.74709
G1 X186.392 Y60.975 E.01676
G1 X169.025 Y43.608 E.77079
