; generated by PrusaSlicer 2.9.3 on 2025-09-24 at 12:08:27 UTC


;
;
; 

; external perimeters extrusion width = 0.45mm
; perimeters extrusion width = 0.45mm
; infill extrusion width = 0.45mm
; solid infill extrusion width = 0.45mm
; top infill extrusion width = 0.40mm
; first layer extrusion width = 0.42mm

M73 P0 R183
M73 C174
M73 Q0 S184
M73 D175
M201 X1000 Y1000 Z200 E5000 ; sets maximum accelerations, mm/sec^2
M203 X200 Y200 Z12 E120 ; sets maximum feedrates, mm / sec
M204 S1250 T1250 ; sets acceleration (S) and retract acceleration (R), mm/sec^2
M205 X8.00 Y8.00 Z0.40 E4.50 ; sets the jerk limits, mm/sec
M205 S0 T0 ; sets the minimum extruding and travel feed rate, mm/sec

; printing object base 01-02 id:0 copy 0
; stop printing object base 01-02 id:0 copy 0

;TYPE:Custom
M862.3 P "MK3" ; printer model check
M862.1 P0.4 ; nozzle diameter check
M115 U3.14.1 ; tell printer latest fw version
G90 ; use absolute coordinates
M83 ; extruder relative mode
M104 S250 ; set extruder temp
M140 S85 ; set bed temp
M190 S85 ; wait for bed temp
M109 S250 ; wait for extruder temp
G28 W ; home all without mesh bed level
G80 X60.1229 Y40.1229 W129.754 H129.754 ; mesh bed levelling

G1 Z0.2 F720
G1 Y-3 F1000 ; go outside print area
G92 E0
G1 X60 E9 F1000 ; intro line
G1 X100 E12.5 F1000 ; intro line

G92 E0
M221 S95

; Don't change E values below. Excessive value can damage the printer.
M907 E430 ; set extruder motor current
G21 ; set units to millimeters
G90 ; use absolute coordinates
M83 ; use relative distances for extrusion

M900 K0.08 ; Filament gcode LA 1.5
M900 K45 ; Filament gcode LA 1.0




M107
;LAYER_CHANGE
;Z:0.2
;HEIGHT:0.2
G1 E-1 F2100
G1 Z.4 F720
G1 X61.078 Y42.431 F10800
G1 Z.2 F720
G1 E1 F2100
M204 S800
;TYPE:Skirt/Brim
;WIDTH:0.42
G1 F1200
G1 X61.655 Y41.715 E.02883
G1 X62.36 Y41.126 E.0288
G1 X63.166 Y40.685 E.02881
G1 X64.043 Y40.41 E.02882
G1 X64.957 Y40.312 E.02882
G1 X185.043 Y40.312 E3.76521
G1 X185.957 Y40.41 E.02882
M73 Q0 S183
M73 D174
G1 X186.754 Y40.652 E.02612
G1 X187.569 Y41.078 E.02883
G1 X188.285 Y41.655 E.02883
G1 X188.874 Y42.36 E.0288
G1 X189.275 Y43.076 E.02573
G1 X189.569 Y43.947 E.02882
G1 X189.686 Y44.859 E.02883
G1 X189.688 Y165.043 E3.76828
G1 X189.606 Y165.873 E.02615
G1 X189.348 Y166.754 E.02878
G1 X188.922 Y167.569 E.02883
G1 X188.345 Y168.285 E.02883
G1 X187.64 Y168.874 E.0288
G1 X186.834 Y169.315 E.02881
G1 X185.957 Y169.59 E.02882
G1 X185 Y169.689 E.03017
G1 X64.957 Y169.688 E3.76386
G1 X64.043 Y169.59 E.02882
G1 X63.166 Y169.315 E.02882
G1 X62.431 Y168.922 E.02613
G1 X61.715 Y168.345 E.02883
G1 X61.126 Y167.64 E.0288
G1 X60.685 Y166.834 E.02881
G1 X60.41 Y165.957 E.02882
G1 X60.311 Y165 E.03017
G1 X60.312 Y44.957 E3.76386
G1 X60.394 Y44.127 E.02615
M73 P0 R182
M73 C173
G1 X60.652 Y43.246 E.02878
G1 X61.05 Y42.484 E.02695
M204 S1000
;WIPE_START
G1 F8640
G1 X61.078 Y42.431 E-.01384
G1 X61.655 Y41.715 E-.21233
G1 X62.36 Y41.126 E-.21212
G1 X63.166 Y40.685 E-.21214
G1 X64.043 Y40.41 E-.21222
G1 X64.634 Y40.347 E-.13735
;WIPE_END
G1 Z.4 F720
; printing object base 01-02 id:0 copy 0
G1 X121.073 Y85.622 F10800
G1 Z.2 F720
G1 E1 F2100
M204 S800
;TYPE:Perimeter
;WIDTH:0.419999
G1 F1200
G1 X121.548 Y85.232 E.01927
G1 X121.975 Y84.95 E.01604
G1 X122.54 Y84.652 E.02003
G1 X123.603 Y84.284 E.03527
G1 X124.272 Y84.159 E.02134
G1 X124.782 Y84.118 E.01604
G1 X125.421 Y84.129 E.02004
G1 X126.072 Y84.212 E.02058
G1 X127.153 Y84.523 E.03527
G1 X128.176 Y85.046 E.03602
G1 X128.728 Y85.444 E.02134
G1 X129.424 Y86.119 E.0304
G1 X130.089 Y87.046 E.03577
G1 X130.398 Y87.652 E.02133
G1 X130.744 Y88.723 E.03529
G1 X130.883 Y89.863 E.03601
G1 X130.784 Y91.094 E.03872
G1 X130.644 Y91.671 E.01862
G1 X130.385 Y92.341 E.02252
G1 X130.258 Y92.646 E.01036
G1 X129.965 Y93.162 E.01861
G1 X129.364 Y93.93 E.03058
G1 X128.776 Y94.515 E.02601
G1 X128.166 Y94.947 E.02344
G1 X127.894 Y95.124 E.01018
G1 X126.948 Y95.553 E.03257
G1 X125.806 Y95.831 E.03685
G1 X124.619 Y95.875 E.03724
G1 X124.009 Y95.802 E.01926
G1 X123.508 Y95.694 E.01607
G1 X122.9 Y95.499 E.02002
G1 X121.893 Y94.998 E.03527
G1 X120.918 Y94.241 E.0387
G1 X120.511 Y93.808 E.01863
G1 X120.166 Y93.327 E.01856
G1 X119.891 Y92.921 E.01538
G1 X119.461 Y91.987 E.03224
G1 X119.167 Y90.788 E.03871
G1 X119.117 Y90.196 E.01863
G1 X119.207 Y88.964 E.03873
G1 X119.48 Y87.962 E.03256
G1 X119.75 Y87.338 E.02132
G1 X120.259 Y86.512 E.03042
G1 X121.022 Y85.664 E.03577
G1 X121.026 Y85.66 E.00018
M204 S1000
G1 X121.319 Y85.903 F10800
M204 S800
;TYPE:External perimeter
G1 F1200
G1 X121.784 Y85.526 E.01877
G1 X122.197 Y85.257 E.01545
G1 X122.714 Y84.987 E.01829
G1 X123.724 Y84.641 E.03347
G1 X124.337 Y84.53 E.01953
G1 X124.829 Y84.493 E.01547
G1 X125.412 Y84.506 E.01828
G1 X126.022 Y84.586 E.01929
G1 X127.047 Y84.885 E.03348
G1 X128.001 Y85.38 E.0337
G1 X128.504 Y85.748 E.01954
G1 X129.16 Y86.388 E.02874
G1 X129.781 Y87.263 E.03364
G1 X130.06 Y87.82 E.01953
G1 X130.385 Y88.837 E.03348
G1 X130.508 Y89.905 E.03371
G1 X130.417 Y91.005 E.03461
G1 X130.278 Y91.582 E.01861
G1 X130.034 Y92.202 E.02089
G1 X129.93 Y92.459 E.00869
G1 X129.637 Y92.976 E.01863
G1 X129.069 Y93.696 E.02875
G1 X128.52 Y94.239 E.02421
G1 X127.95 Y94.637 E.0218
G1 X127.738 Y94.78 E.00802
G1 X126.793 Y95.209 E.03254
G1 X125.729 Y95.462 E.03429
G1 X124.643 Y95.498 E.03407
G1 X124.054 Y95.428 E.0186
G1 X123.572 Y95.321 E.01548
G1 X123.017 Y95.141 E.01829
G1 X122.063 Y94.661 E.03348
G1 X121.193 Y93.983 E.03458
G1 X120.786 Y93.55 E.01863
G1 X120.474 Y93.11 E.01691
G1 X120.234 Y92.763 E.01323
G1 X119.803 Y91.829 E.03225
G1 X119.542 Y90.756 E.03462
G1 X119.493 Y90.164 E.01863
G1 X119.571 Y89.063 E.03461
G1 X119.844 Y88.059 E.03262
G1 X120.095 Y87.491 E.01947
G1 X120.579 Y86.712 E.02876
G1 X121.276 Y85.945 E.0325
M204 S1000
;WIPE_START
G1 F8640
G1 X121.319 Y85.903 E-.01388
G1 X121.784 Y85.526 E-.13822
G1 X122.197 Y85.257 E-.11381
G1 X122.714 Y84.987 E-.13468
G1 X123.724 Y84.641 E-.24652
G1 X124.337 Y84.53 E-.14385
G1 X124.829 Y84.493 E-.11392
G1 X125.241 Y84.502 E-.09512
;WIPE_END
G1 Z.4 F720
G1 X143.088 Y100.001 F10800
G1 Z.2 F720
G1 E1 F2100
M204 S800
;TYPE:Perimeter
G1 F1200
G1 X143.176 Y100.046 E.0031
G1 X144.078 Y100.757 E.03601
G1 X144.541 Y101.255 E.02132
G1 X145.094 Y102.052 E.03042
G1 X145.566 Y103.09 E.03575
G1 X145.751 Y103.745 E.02134
G1 X145.839 Y104.25 E.01607
G1 X145.885 Y104.973 E.02271
G1 X145.798 Y106.008 E.03257
G1 X145.491 Y107.115 E.03602
G1 X145.212 Y107.735 E.02132
G1 X144.685 Y108.562 E.03075
G1 X144.256 Y109.067 E.02078
G1 X143.313 Y109.864 E.03871
G1 X142.305 Y110.414 E.036
G1 X141.317 Y110.735 E.03257
G1 X140.068 Y110.884 E.03944
G1 X138.924 Y110.785 E.036
G1 X137.82 Y110.466 E.03603
G1 X136.893 Y109.998 E.03256
G1 X135.902 Y109.223 E.03945
G1 X135.16 Y108.347 E.036
G1 X134.615 Y107.378 E.03486
G1 X134.399 Y106.81 E.01905
G1 X134.177 Y105.855 E.03074
G1 X134.117 Y105.196 E.02075
G1 X134.122 Y104.684 E.01605
G1 X134.191 Y104.049 E.02003
G1 X134.295 Y103.548 E.01604
G1 X134.486 Y102.939 E.02001
G1 X134.686 Y102.468 E.01604
G1 X134.992 Y101.907 E.02004
G1 X135.367 Y101.369 E.02056
G1 X136.085 Y100.604 E.0329
G1 X136.548 Y100.232 E.01862
G1 X136.975 Y99.95 E.01604
G1 X138.055 Y99.444 E.03739
G1 X138.625 Y99.276 E.01863
G1 X139.272 Y99.159 E.02062
G1 X139.782 Y99.118 E.01604
G1 X140.421 Y99.129 E.02004
G1 X141.072 Y99.212 E.02058
G1 X142.153 Y99.523 E.03527
G1 X143.034 Y99.974 E.03103
M204 S1000
G1 X142.886 Y100.32 F10800
M204 S800
;TYPE:External perimeter
G1 F1200
G1 X143.001 Y100.38 E.00407
G1 X143.842 Y101.051 E.03373
G1 X144.263 Y101.509 E.01951
G1 X144.783 Y102.265 E.02877
G1 X145.222 Y103.244 E.03364
G1 X145.387 Y103.844 E.01951
G1 X145.469 Y104.33 E.01545
G1 X145.509 Y104.941 E.0192
G1 X145.422 Y105.977 E.0326
G1 X145.129 Y107.011 E.0337
G1 X144.87 Y107.577 E.01952
G1 X144.368 Y108.357 E.02908
G1 X143.971 Y108.82 E.01912
G1 X143.129 Y109.534 E.03461
G1 X142.189 Y110.056 E.03371
G1 X141.201 Y110.377 E.03257
G1 X140.097 Y110.508 E.03486
G1 X139.025 Y110.422 E.03372
G1 X137.99 Y110.13 E.03372
G1 X137.061 Y109.66 E.03264
G1 X136.407 Y109.153 E.02595
G1 X136.062 Y108.831 E.0148
G1 X135.488 Y108.16 E.02769
G1 X134.964 Y107.236 E.03331
G1 X134.751 Y106.676 E.01879
G1 X134.545 Y105.772 E.02907
G1 X134.493 Y105.164 E.01913
G1 X134.5 Y104.671 E.01546
G1 X134.566 Y104.092 E.01827
G1 X134.669 Y103.609 E.01548
G1 X134.846 Y103.053 E.0183
G1 X135.04 Y102.6 E.01545
G1 X135.322 Y102.089 E.0183
G1 X135.675 Y101.586 E.01927
G1 X136.149 Y101.079 E.02176
G1 X136.784 Y100.526 E.0264
G1 X137.204 Y100.253 E.01571
G1 X138.135 Y99.816 E.03225
G1 X138.732 Y99.638 E.01953
G1 X139.337 Y99.53 E.01927
G1 X139.829 Y99.493 E.01547
G1 X140.412 Y99.506 E.01828
G1 X141.022 Y99.586 E.01929
G1 X142.047 Y99.885 E.03348
G1 X142.832 Y100.292 E.02772
M204 S1000
;WIPE_START
G1 F8640
G1 X142.886 Y100.32 E-.01405
G1 X143.001 Y100.38 E-.02995
G1 X143.842 Y101.051 E-.24842
G1 X144.263 Y101.509 E-.14364
G1 X144.783 Y102.265 E-.21187
G1 X145.222 Y103.244 E-.24774
G1 X145.342 Y103.68 E-.10433
;WIPE_END
G1 Z.4 F720
G1 X109.62 Y110.868 F10800
G1 Z.2 F720
G1 E1 F2100
M204 S800
;TYPE:Perimeter
G1 F1200
G1 X109.498 Y110.865 E.00383
G1 X108.542 Y110.702 E.03041
G1 X107.901 Y110.499 E.02108
G1 X107.301 Y110.231 E.0206
G1 X106.479 Y109.716 E.03041
G1 X105.902 Y109.223 E.0238
G1 X105.172 Y108.367 E.03527
G1 X104.857 Y107.864 E.01861
G1 X104.454 Y106.97 E.03075
G1 X104.267 Y106.335 E.02076
G1 X104.173 Y105.832 E.01604
G1 X104.117 Y105.195 E.02005
G1 X104.189 Y104.073 E.03525
G1 X104.48 Y102.962 E.03601
G1 X105.039 Y101.835 E.03944
G1 X105.748 Y100.931 E.03602
G1 X106.62 Y100.183 E.03602
G1 X107.62 Y99.618 E.03601
G1 X108.603 Y99.284 E.03255
G1 X109.272 Y99.159 E.02134
G1 X109.782 Y99.118 E.01604
G1 X110.421 Y99.129 E.02004
G1 X111.072 Y99.212 E.02058
G1 X111.71 Y99.368 E.02059
G1 X112.231 Y99.572 E.01754
G1 X112.682 Y99.76 E.01532
G1 X113.197 Y100.057 E.01864
G1 X113.663 Y100.396 E.01807
G1 X114.155 Y100.856 E.02112
G1 X114.483 Y101.186 E.01459
G1 X114.839 Y101.649 E.01831
G1 X115.182 Y102.209 E.02059
G1 X115.569 Y103.098 E.0304
G1 X115.751 Y103.745 E.02107
G1 X115.885 Y104.973 E.03873
G1 X115.798 Y106.008 E.03257
G1 X115.491 Y107.115 E.03602
G1 X115.212 Y107.735 E.02132
G1 X114.692 Y108.553 E.03039
G1 X113.917 Y109.391 E.03579
G1 X113.385 Y109.815 E.02133
G1 X112.828 Y110.163 E.02059
G1 X111.941 Y110.556 E.03042
G1 X111.21 Y110.759 E.02379
G1 X110.178 Y110.882 E.03259
G1 X109.68 Y110.869 E.01562
M204 S1000
G1 X109.649 Y110.492 F10800
M204 S800
;TYPE:External perimeter
G1 F1200
G1 X109.511 Y110.488 E.00433
G1 X108.608 Y110.331 E.02874
G1 X108.017 Y110.141 E.01946
G1 X107.457 Y109.888 E.01927
G1 X106.681 Y109.398 E.02878
G1 X106.187 Y108.977 E.02035
G1 X105.492 Y108.167 E.03346
G1 X105.177 Y107.664 E.01861
G1 X104.799 Y106.817 E.02908
G1 X104.63 Y106.231 E.01912
G1 X104.541 Y105.746 E.01546
G1 X104.493 Y105.164 E.01831
G1 X104.565 Y104.099 E.03347
G1 X104.843 Y103.061 E.03369
G1 X105.318 Y102.096 E.03372
G1 X105.997 Y101.215 E.03488
G1 X106.808 Y100.51 E.03369
G1 X107.741 Y99.975 E.03372
G1 X108.726 Y99.64 E.03262
G1 X109.337 Y99.53 E.01947
G1 X109.829 Y99.493 E.01547
G1 X110.412 Y99.506 E.01828
G1 X111.022 Y99.586 E.01929
G1 X111.619 Y99.733 E.01928
G1 X112.09 Y99.922 E.01591
G1 X112.494 Y100.087 E.01368
G1 X113.008 Y100.384 E.01861
G1 X113.439 Y100.7 E.01676
G1 X113.891 Y101.125 E.01945
G1 X114.185 Y101.416 E.01297
G1 X114.54 Y101.879 E.01829
G1 X114.86 Y102.404 E.01928
G1 X115.223 Y103.246 E.02875
G1 X115.387 Y103.844 E.01944
G1 X115.509 Y104.942 E.03464
G1 X115.422 Y105.977 E.03257
G1 X115.129 Y107.011 E.0337
G1 X114.87 Y107.577 E.01952
G1 X114.375 Y108.349 E.02875
G1 X113.643 Y109.133 E.03363
G1 X113.153 Y109.518 E.01954
G1 X112.63 Y109.842 E.01929
G1 X111.79 Y110.21 E.02875
G1 X111.165 Y110.385 E.02035
G1 X110.134 Y110.508 E.03256
G1 X109.709 Y110.494 E.01333
M204 S1000
;WIPE_START
G1 F8640
G1 X109.649 Y110.492 E-.01386
G1 X109.511 Y110.488 E-.03188
G1 X108.608 Y110.331 E-.21163
G1 X108.017 Y110.141 E-.14334
G1 X107.457 Y109.888 E-.14189
G1 X106.681 Y109.398 E-.21191
G1 X106.187 Y108.977 E-.14987
G1 X105.917 Y108.663 E-.09562
;WIPE_END
G1 Z.4 F720
G1 X99.992 Y158.11 F10800
G1 Z.2 F720
G1 E1 F2100
M204 S800
;TYPE:Perimeter
G1 F1200
G1 X99.936 Y158.174 E.00267
G1 X99.69 Y158.279 E.00839
G1 X99.596 Y158.287 E.00296
G1 X74.892 Y158.285 E.77458
G1 X74.287 Y158.207 E.01913
G1 X73.675 Y158.006 E.0202
G1 X73.211 Y157.756 E.01653
G1 X72.717 Y157.362 E.01981
G1 X72.3 Y156.871 E.0202
G1 X71.987 Y156.308 E.0202
G1 X71.814 Y155.801 E.0168
G1 X71.715 Y155.108 E.02195
G1 X71.713 Y130.404 E.77458
G1 X71.779 Y130.137 E.00862
G1 X71.939 Y129.951 E.00769
G1 X72.177 Y129.847 E.00814
G1 X73.971 Y129.838 E.05625
G1 X74.251 Y129.912 E.00908
G1 X74.452 Y130.106 E.00876
G1 X74.536 Y130.376 E.00887
G1 X74.537 Y131.348 E.03048
G1 X74.539 Y153.8 E.70397
G1 X74.628 Y154.277 E.01521
G1 X74.828 Y154.7 E.01467
G1 X75.17 Y155.066 E.01571
G1 X75.529 Y155.301 E.01345
G1 X76.017 Y155.436 E.01588
G1 X76.323 Y155.461 E.00963
G1 X99.597 Y155.463 E.72974
G1 X99.866 Y155.531 E.0087
G1 X100.069 Y155.718 E.00865
G1 X100.161 Y155.99 E.009
G1 X100.162 Y157.721 E.05427
G1 X100.089 Y158 E.00904
G1 X100.032 Y158.065 E.00271
M204 S1000
G1 X99.697 Y157.868 F10800
M204 S800
;TYPE:External perimeter
G1 F1200
G1 X99.596 Y157.91 E.00343
G1 X74.892 Y157.908 E.77458
G1 X74.339 Y157.833 E.0175
G1 X73.799 Y157.65 E.01788
G1 X73.368 Y157.409 E.01548
G1 X72.956 Y157.07 E.01673
G1 X72.591 Y156.632 E.01788
G1 X72.319 Y156.131 E.01787
G1 X72.165 Y155.653 E.01575
G1 X72.092 Y155.107 E.01727
G1 X72.09 Y130.404 E.77454
G1 X72.146 Y130.27 E.00455
G1 X72.279 Y130.215 E.00451
G1 X73.971 Y130.215 E.05305
G1 X74.116 Y130.282 E.00501
G1 X74.16 Y130.404 E.00407
G1 X74.16 Y131.348 E.0296
G1 X74.162 Y153.826 E.70478
G1 X74.269 Y154.394 E.01812
G1 X74.513 Y154.911 E.01792
G1 X74.773 Y155.227 E.01283
G1 X75.232 Y155.567 E.01791
G1 X75.762 Y155.781 E.01792
G1 X76.323 Y155.838 E.01768
G1 X99.596 Y155.84 E.72971
G1 X99.742 Y155.909 E.00506
G1 X99.785 Y156.029 E.004
G1 X99.785 Y157.721 E.05305
G1 X99.74 Y157.832 E.00376
M204 S1000
;WIPE_START
G1 F8640
G1 X99.697 Y157.868 E-.01295
G1 X99.596 Y157.91 E-.02526
G1 X95.431 Y157.91 E-.96179
;WIPE_END
G1 Z.4 F720
G1 X71.89 Y79.992 F10800
G1 Z.2 F720
G1 E1 F2100
M204 S800
;TYPE:Perimeter
G1 F1200
G1 X71.826 Y79.936 E.00267
G1 X71.721 Y79.694 E.00827
G1 X71.713 Y54.997 E.77436
G1 X71.82 Y54.183 E.02574
G1 X72.048 Y53.558 E.02086
G1 X72.316 Y53.105 E.0165
G1 X72.73 Y52.626 E.01985
G1 X73.138 Y52.293 E.01651
G1 X73.692 Y51.987 E.01984
G1 X74.305 Y51.789 E.0202
G1 X74.997 Y51.713 E.02183
G1 X99.596 Y51.713 E.77128
G1 X99.863 Y51.779 E.00862
G1 X100.049 Y51.939 E.00769
G1 X100.153 Y52.177 E.00814
G1 X100.162 Y52.279 E.00321
G1 X100.162 Y53.971 E.05305
G1 X100.094 Y54.24 E.0087
G1 X99.915 Y54.439 E.00839
G1 X99.648 Y54.535 E.0089
G1 X76.2 Y54.539 E.73519
G1 X75.723 Y54.628 E.01521
G1 X75.295 Y54.831 E.01485
G1 X74.978 Y55.12 E.01345
G1 X74.697 Y55.534 E.01569
G1 X74.564 Y56.017 E.01571
G1 X74.539 Y56.323 E.00963
G1 X74.537 Y79.597 E.72974
G1 X74.468 Y79.868 E.00877
G1 X74.277 Y80.072 E.00876
G1 X73.971 Y80.162 E.01
G1 X72.279 Y80.162 E.05305
G1 X72 Y80.089 E.00904
G1 X71.935 Y80.032 E.00271
M204 S1000
G1 X72.178 Y79.743 F10800
M204 S800
;TYPE:External perimeter
G1 F1200
G1 X72.146 Y79.73 E.00108
G1 X72.093 Y79.629 E.00358
G1 X72.09 Y54.997 E.77232
G1 X72.194 Y54.235 E.02411
G1 X72.399 Y53.696 E.01808
G1 X72.657 Y53.275 E.01548
G1 X73.011 Y52.876 E.01672
G1 X73.399 Y52.571 E.01547
G1 X73.87 Y52.319 E.01675
G1 X74.414 Y52.15 E.01786
G1 X74.997 Y52.09 E.01838
G1 X99.596 Y52.09 E.77128
G1 X99.73 Y52.146 E.00455
G1 X99.785 Y52.279 E.00451
G1 X99.785 Y53.971 E.05305
G1 X99.721 Y54.113 E.00488
G1 X99.596 Y54.16 E.00419
G1 X76.174 Y54.162 E.73438
G1 X75.606 Y54.269 E.01812
G1 X75.088 Y54.514 E.01797
G1 X74.696 Y54.869 E.01658
G1 X74.456 Y55.199 E.01279
G1 X74.286 Y55.569 E.01277
G1 X74.182 Y56.027 E.01473
G1 X74.162 Y56.323 E.0093
G1 X74.16 Y79.596 E.72971
G1 X74.093 Y79.74 E.00498
G1 X73.971 Y79.785 E.00408
G1 X72.279 Y79.785 E.05305
G1 X72.233 Y79.766 E.00156
