; generated by PrusaSlicer 2.9.3 on 2025-09-16 at 15:43:02 UTC


;
;
; 

; external perimeters extrusion width = 0.45mm
; perimeters extrusion width = 0.45mm
; infill extrusion width = 0.45mm
; solid infill extrusion width = 0.45mm
; top infill extrusion width = 0.40mm
; first layer extrusion width = 0.42mm

M73 P0 R61
M73 C10
M73 Q0 S63
M73 D10
M201 X1000 Y1000 Z200 E5000 ; sets maximum accelerations, mm/sec^2
M203 X200 Y200 Z12 E120 ; sets maximum feedrates, mm / sec
M204 S1250 T1250 ; sets acceleration (S) and retract acceleration (R), mm/sec^2
M205 X8.00 Y8.00 Z0.40 E4.50 ; sets the jerk limits, mm/sec
M205 S0 T0 ; sets the minimum extruding and travel feed rate, mm/sec

; printing object hoop_dualcolor_v2 id:0 copy 0
; stop printing object hoop_dualcolor_v2 id:0 copy 0

;TYPE:Custom
M862.3 P "MK3" ; printer model check
M862.1 P0.4 ; nozzle diameter check
M115 U3.14.1 ; tell printer latest fw version
G90 ; use absolute coordinates
M83 ; extruder relative mode
M104 S250 ; set extruder temp
M140 S85 ; set bed temp
M190 S85 ; wait for bed temp
M109 S250 ; wait for extruder temp
G28 W ; home all without mesh bed level
G80 X87.8867 Y7.80684 W74.3509 H194.454 ; mesh bed levelling

G1 Z0.2 F720
G1 Y-3 F1000 ; go outside print area
G92 E0
G1 X60 E9 F1000 ; intro line
G1 X100 E12.5 F1000 ; intro line
M73 Q0 S62

G92 E0
M221 S95

; Don't change E values below. Excessive value can damage the printer.

M907 E538 ; set extruder motor current
G21 ; set units to millimeters
G90 ; use absolute coordinates
M83 ; use relative distances for extrusion

M900 K0.08 ; Filament gcode LA 1.5
M900 K45 ; Filament gcode LA 1.0




M107
;LAYER_CHANGE
;Z:0.2
;HEIGHT:0.2
G1 E-1 F2100
G1 Z.4 F720
G1 X114.15 Y21.186 F10800
G1 Z.2 F720
G1 E1 F2100
M204 S800
;TYPE:Skirt/Brim
;WIDTH:0.42
G1 F1200
G1 X115.583 Y13.463 E.24628
G1 X116.088 Y12.061 E.04672
G1 X116.98 Y10.655 E.05221
G1 X117.592 Y9.992 E.02829
G1 X118.282 Y9.41 E.0283
G1 X119.564 Y8.651 E.04671
G1 X120.841 Y8.205 E.04241
G1 X122.042 Y8.015 E.03812
G1 X127.631 Y7.996 E.17524
G1 X128.977 Y8.137 E.04243
G1 X130.144 Y8.476 E.0381
G1 X131.085 Y8.919 E.03261
G1 X132.091 Y9.602 E.03813
G1 X133.056 Y10.549 E.04239
G1 X133.668 Y11.391 E.03264
G1 X134.22 Y12.474 E.03811
G1 X134.609 Y13.77 E.04243
G1 X161.469 Y158.548 E4.61687
G1 X161.93 Y162.099 E.11227
G1 X162.046 Y165.639 E.11105
G1 X161.824 Y169.173 E.11102
G1 X161.264 Y172.67 E.11104
G1 X160.373 Y176.098 E.11105
G1 X159.51 Y178.555 E.08165
G1 X158.826 Y180.189 E.05554
G1 X157.226 Y183.349 E.11106
G1 X155.332 Y186.341 E.11103
G1 X153.16 Y189.139 E.11106
G1 X150.731 Y191.716 E.11104
G1 X148.066 Y194.049 E.11105
G1 X145.191 Y196.116 E.11102
G1 X142.131 Y197.899 E.11104
G1 X138.865 Y199.4 E.1127
G1 X136.417 Y200.286 E.08163
G1 X134.718 Y200.79 E.05557
G1 X131.259 Y201.55 E.11104
G1 X127.743 Y201.975 E.11104
G1 X124.203 Y202.062 E.11103
G1 X120.67 Y201.811 E.11105
G1 X117.178 Y201.222 E.11104
G1 X113.758 Y200.303 E.11104
G1 X110.441 Y199.06 E.11106
G1 X107.259 Y197.506 E.11103
G1 X104.24 Y195.655 E.11103
G1 X101.411 Y193.523 E.11107
G1 X98.763 Y191.094 E.11267
G1 X96.396 Y188.459 E.11106
G1 X94.292 Y185.61 E.11105
G1 X92.47 Y182.573 E.11104
G1 X91.32 Y180.237 E.08164
G1 X90.633 Y178.604 E.05555
G1 X89.498 Y175.249 E.11105
G1 X88.689 Y171.801 E.11105
G1 X88.213 Y168.292 E.11103
G1 X88.076 Y164.701 E.11268
G1 X88.276 Y161.217 E.10942
G1 X88.656 Y158.548 E.08453
G1 X114.139 Y21.245 E4.37856
M204 S1000
;WIPE_START
G1 F8640
M73 C9
G1 X114.15 Y21.186 E-.01386
G1 X114.929 Y16.987 E-.98614
;WIPE_END
G1 Z.4 F720
; printing object hoop_dualcolor_v2 id:0 copy 0
G1 X128.734 Y130.991 F10800
G1 Z.2 F720
G1 E1 F2100
M204 S800
;TYPE:External perimeter
;WIDTH:0.419999
G1 F1200
G1 X128.654 Y131.08 E.00375
;WIDTH:0.418316
G1 X128.621 Y131.079 E.00103
;WIDTH:0.417842
G1 X127.152 Y130.963 E.04594
;WIDTH:0.419037
G1 X126.317 Y130.92 E.02615
;WIDTH:0.420935
G1 X126.188 Y130.915 E.00406
;WIDTH:0.42269
G1 X125.062 Y130.899 E.03556
;WIDTH:0.424524
G1 X123.138 Y130.951 E.06107
;WIDTH:0.421163
G1 X122.973 Y130.963 E.0052
;WIDTH:0.417844
G1 X121.503 Y131.079 E.04597
;WIDTH:0.417005
G1 X121.437 Y131.073 E.00206
;WIDTH:0.419999
G1 X121.3 Y130.89 E.00717
G1 X121.31 Y130.36 E.01662
G1 X121.523 Y129.371 E.03172
G1 X124.678 Y118.502 E.35486
G1 X124.761 Y118.394 E.00427
G1 X125.265 Y118.366 E.01583
G1 X125.413 Y118.437 E.00515
G1 X127.488 Y125.532 E.23178
G1 X128.599 Y129.359 E.12495
G1 X128.737 Y129.99 E.02025
G1 X128.815 Y130.36 E.01186
G1 X128.824 Y130.89 E.01662
G1 X128.774 Y130.947 E.00238
M204 S1000
;WIPE_START
G1 F8640
G1 X128.734 Y130.991 E-.01373
G1 X128.654 Y131.08 E-.02763
G1 X128.621 Y131.079 E-.00762
G1 X127.152 Y130.963 E-.34025
G1 X126.317 Y130.92 E-.19306
G1 X126.188 Y130.915 E-.02981
G1 X125.062 Y130.899 E-.26002
G1 X124.508 Y130.914 E-.12788
;WIPE_END
G1 Z.4 F720
G1 X123.833 Y131.306 F10800
G1 Z.2 F720
G1 E1 F2100
M204 S800
;WIDTH:0.424524
G1 F1200
G1 X124.646 Y131.277 E.02581
;WIDTH:0.42269
G1 X126.183 Y131.293 E.04854
;WIDTH:0.420935
G1 X126.969 Y131.328 E.02473
;WIDTH:0.420274
G1 X127.122 Y131.336 E.00481
;WIDTH:0.417842
G1 X128.593 Y131.451 E.046
;WIDTH:0.419999
G1 X129.397 Y131.418 E.02523
G1 X130.076 Y131.461 E.02133
G1 X130.582 Y131.529 E.01601
G1 X132.048 Y131.799 E.04674
G1 X133.66 Y132.179 E.05193
G1 X135.252 Y132.636 E.05193
G1 X136.048 Y132.897 E.02627
G1 X137.593 Y133.467 E.05163
;WIDTH:0.449231
G1 X137.983 Y133.612 E.01406
;WIDTH:0.478462
G1 X138.373 Y133.757 E.01507
G1 X139.116 Y134.146 E.03037
;WIDTH:0.429799
G1 X139.276 Y134.243 E.00602
;WIDTH:0.424056
G1 X142.672 Y136.223 E.12458
;WIDTH:0.42305
G1 X143.918 Y137.023 E.0468
;WIDTH:0.421293
G1 X144.063 Y137.119 E.00547
;WIDTH:0.425031
G1 X145.395 Y138.071 E.05202
;WIDTH:0.42214
G1 X146.369 Y138.835 E.03903
;WIDTH:0.42168
G1 X147.314 Y139.629 E.03887
M73 D9
;WIDTH:0.422216
G1 X148.41 Y140.633 E.04688
;WIDTH:0.425069
G1 X149.682 Y141.913 E.05734
;WIDTH:0.423962
G1 X150.783 Y143.139 E.05221
;WIDTH:0.421422
G1 X150.856 Y143.226 E.00357
;WIDTH:0.421534
G1 X151.681 Y144.242 E.0412
;WIDTH:0.425042
G1 X152.794 Y145.744 E.0594
;WIDTH:0.42352
G1 X153.705 Y147.118 E.05217
;WIDTH:0.424059
G1 X154.543 Y148.533 E.05212
;WIDTH:0.424964
G1 X155.317 Y149.99 E.05241
;WIDTH:0.421129
G1 X156.013 Y151.474 E.05155
;WIDTH:0.424246
G1 X156.639 Y153.002 E.05236
;WIDTH:0.424962
G1 X157.192 Y154.556 E.0524
;WIDTH:0.420682
G1 X157.222 Y154.653 E.00319
;WIDTH:0.420882
G1 X157.646 Y156.063 E.04627
;WIDTH:0.424625
G1 X158.061 Y157.728 E.05446
;WIDTH:0.424948
G1 X158.382 Y159.346 E.0524
;WIDTH:0.420234
G1 X158.388 Y159.383 E.00118
;WIDTH:0.421622
G1 X158.603 Y160.839 E.04635
;WIDTH:0.424936
G1 X158.781 Y162.611 E.05657
;WIDTH:0.420937
G1 X158.823 Y163.264 E.02057
;WIDTH:0.423221
G1 X158.867 Y164.675 E.04464
;WIDTH:0.42185
G1 X158.865 Y165.7 E.0323
G1 X158.831 Y166.728 E.03241
;WIDTH:0.424705
G1 X158.711 Y168.371 E.0523
G1 X158.511 Y170.005 E.05226
;WIDTH:0.424576
G1 X158.231 Y171.628 E.05227
G1 X157.873 Y173.235 E.05225
;WIDTH:0.424427
G1 X157.438 Y174.822 E.0522
G1 X156.925 Y176.387 E.05224
;WIDTH:0.424246
G1 X156.336 Y177.925 E.05222
;WIDTH:0.424619
G1 X155.675 Y179.433 E.05226
;WIDTH:0.424061
G1 X154.94 Y180.906 E.05217
;WIDTH:0.423951
G1 X154.135 Y182.342 E.05216
;WIDTH:0.42383
G1 X153.259 Y183.736 E.05215
;WIDTH:0.424415
G1 X152.319 Y185.088 E.05223
;WIDTH:0.423579
G1 X151.312 Y186.39 E.0521
;WIDTH:0.424203
G1 X150.243 Y187.644 E.05224
;WIDTH:0.423635
G1 X149.376 Y188.571 E.04018
;WIDTH:0.424717
G1 X147.93 Y189.987 E.06425
;WIDTH:0.424824
G1 X146.692 Y191.068 E.05219
;WIDTH:0.415762
G1 X146.685 Y191.074 E.00029
;WIDTH:0.424819
G1 X145.401 Y192.09 E.05199
;WIDTH:0.415646
G1 X145.394 Y192.095 E.00027
;WIDTH:0.424843
G1 X144.062 Y193.048 E.05201
G1 X142.678 Y193.94 E.05229
G1 X141.252 Y194.764 E.0523
G1 X139.788 Y195.517 E.05228
G1 X138.939 Y195.908 E.02968
G1 X138.289 Y196.198 E.0226
G1 X136.758 Y196.805 E.0523
G1 X135.2 Y197.337 E.05228
G1 X133.618 Y197.792 E.05228
M73 P1 R61
G1 X132.015 Y198.17 E.0523
;WIDTH:0.424944
G1 X130.396 Y198.469 E.0523
M73 Q1 S62
G1 X128.764 Y198.689 E.05231
;WIDTH:0.424817
G1 X127.124 Y198.83 E.05227
G1 X125.478 Y198.889 E.0523
;WIDTH:0.424696
G1 X123.832 Y198.87 E.05226
G1 X122.188 Y198.77 E.05228
;WIDTH:0.424848
G1 X120.552 Y198.59 E.05227
G1 X118.926 Y198.331 E.05229
G1 X118.124 Y198.168 E.02599
G1 X117.314 Y197.993 E.02632
G1 X115.721 Y197.577 E.05229
G1 X114.203 Y197.103 E.0505
;WIDTH:0.42067
G1 X114.141 Y197.082 E.00206
;WIDTH:0.423723
G1 X112.605 Y196.515 E.05184
;WIDTH:0.424311
G1 X111.333 Y195.977 E.0438
;WIDTH:0.422568
G1 X111.081 Y195.867 E.00868
;WIDTH:0.421406
G1 X109.599 Y195.151 E.0518
;WIDTH:0.421675
G1 X108.153 Y194.362 E.05188
;WIDTH:0.421929
G1 X106.748 Y193.504 E.05188
;WIDTH:0.42217
G1 X105.386 Y192.578 E.05194
;WIDTH:0.422412
G1 X104.071 Y191.588 E.05194
;WIDTH:0.422643
G1 X102.805 Y190.534 E.05201
;WIDTH:0.422867
G1 X101.593 Y189.42 E.05201
;WIDTH:0.423088
G1 X100.436 Y188.249 E.05204
;WIDTH:0.4233
G1 X99.337 Y187.022 E.0521
;WIDTH:0.423505
G1 X98.3 Y185.743 E.05211
;WIDTH:0.423659
G1 X97.326 Y184.416 E.05211
;WIDTH:0.423781
G1 X96.417 Y183.043 E.05215
;WIDTH:0.423899
G1 X95.577 Y181.627 E.05216
;WIDTH:0.42401
G1 X94.807 Y180.171 E.05219
;WIDTH:0.424128
G1 X94.287 Y179.072 E.03854
G1 X93.963 Y178.336 E.02549
;WIDTH:0.423825
G1 X93.529 Y177.277 E.03625
;WIDTH:0.421018
G1 X93.482 Y177.158 E.00402
;WIDTH:0.424701
G1 X92.933 Y175.611 E.05211
;WIDTH:0.421788
G1 X92.459 Y174.037 E.05179
;WIDTH:0.421532
G1 X92.063 Y172.438 E.05186
;WIDTH:0.423089
G1 X91.743 Y170.823 E.05204
;WIDTH:0.421043
G1 X91.504 Y169.194 E.05177
;WIDTH:0.422691
G1 X91.343 Y167.555 E.05201
G1 X91.26 Y165.808 E.05523
;WIDTH:0.421392
G1 X91.261 Y164.265 E.04856
;WIDTH:0.419655
G1 X91.294 Y163.44 E.02586
;WIDTH:0.424848
G1 X91.413 Y161.8 E.05222
G1 X91.612 Y160.163 E.05237
;WIDTH:0.421505
G1 X91.883 Y158.583 E.05046
;WIDTH:0.424955
G1 X92.25 Y156.936 E.0536
;WIDTH:0.42457
G1 X92.684 Y155.345 E.05233
;WIDTH:0.420751
G1 X93.162 Y153.883 E.04832
;WIDTH:0.424957
G1 X93.786 Y152.245 E.05568
;WIDTH:0.424182
G1 X94.446 Y150.735 E.05224
;WIDTH:0.419961
G1 X94.45 Y150.728 E.00025
;WIDTH:0.421248
G1 X95.104 Y149.416 E.04612
;WIDTH:0.42498
G1 X95.988 Y147.828 E.05774
;WIDTH:0.424042
G1 X96.833 Y146.476 E.05053
;WIDTH:0.420738
G1 X96.867 Y146.424 E.00195
;WIDTH:0.423597
G1 X97.804 Y145.082 E.05181
;WIDTH:0.425066
G1 X98.75 Y143.854 E.04926
;WIDTH:0.42132
G1 X98.815 Y143.771 E.00332
;WIDTH:0.423893
G1 X99.879 Y142.526 E.05188
;WIDTH:0.425088
G1 X100.909 Y141.427 E.04786
;WIDTH:0.424164
G1 X102.193 Y140.184 E.05665
;WIDTH:0.416755
G1 X102.199 Y140.178 E.00026
;WIDTH:0.423677
G1 X103.12 Y139.363 E.03894
;WIDTH:0.422842
G1 X104.072 Y138.578 E.03898
;WIDTH:0.420873
G1 X104.169 Y138.505 E.00382
;WIDTH:0.422704
G1 X105.215 Y137.716 E.04138
;WIDTH:0.425029
G1 X106.55 Y136.796 E.05151
;WIDTH:0.423488
G1 X108.152 Y135.805 E.05961
;WIDTH:0.416985
G1 X108.156 Y135.802 E.00016
;WIDTH:0.426825
G1 X110.998 Y134.154 E.10487
;WIDTH:0.457676
G1 X111.367 Y133.956 E.01444
;WIDTH:0.488526
G1 X111.737 Y133.758 E.01555
G1 X111.895 Y133.711 E.00611
;WIDTH:0.458789
G1 X112.052 Y133.664 E.00567
;WIDTH:0.429052
G1 X113.296 Y133.174 E.04293
;WIDTH:0.419999
G1 X114.873 Y132.636 E.05224
G1 X116.455 Y132.181 E.05161
G1 X118.068 Y131.801 E.05196
G1 X119.513 Y131.532 E.04609
G1 X120.564 Y131.407 E.03319
G1 X121.37 Y131.461 E.02533
;WIDTH:0.417005
G1 X121.533 Y131.451 E.00508
;WIDTH:0.417844
G1 X123.002 Y131.336 E.04594
;WIDTH:0.424524
G1 X123.773 Y131.308 E.02448
M204 S1000
;WIPE_START
G1 F8640
G1 X123.833 Y131.306 E-.01386
G1 X124.646 Y131.277 E-.18784
G1 X126.183 Y131.293 E-.35492
G1 X126.969 Y131.328 E-.18167
G1 X127.122 Y131.336 E-.03538
G1 X128.099 Y131.412 E-.22633
;WIPE_END
G1 Z.4 F720
G1 X129.356 Y24.294 F10800
G1 Z.2 F720
G1 E1 F2100
M204 S800
;WIDTH:0.419999
G1 F1200
G1 X129.372 Y24.295 E.0005
G1 X129.789 Y24.413 E.01359
G1 X130.226 Y24.667 E.01585
G1 X130.587 Y25.051 E.01653
G1 X130.813 Y25.497 E.01568
G1 X130.909 Y26.157 E.02091
G1 X130.871 Y26.468 E.00982
G1 X130.689 Y26.953 E.01624
G1 X126.625 Y33.997 E.25498
G1 X126.5 Y34.183 E.00703
G1 X126.084 Y34.575 E.01792
G1 X125.553 Y34.824 E.01839
G1 X124.97 Y34.89 E.0184
G1 X124.396 Y34.765 E.01842
G1 X123.892 Y34.462 E.01844
G1 X123.499 Y33.997 E.01909
G1 X119.449 Y26.981 E.254
G1 X119.338 Y26.745 E.00818
G1 X119.231 Y26.326 E.01356
G1 X119.232 Y25.82 E.01587
G1 X119.384 Y25.316 E.01651
G1 X119.657 Y24.897 E.01568
G1 X120.181 Y24.484 E.02092
G1 X120.47 Y24.362 E.00984
G1 X121.012 Y24.274 E.01722
G1 X129.112 Y24.274 E.25397
G1 X129.297 Y24.289 E.00582
M204 S1000
;WIPE_START
G1 F8640
G1 X129.356 Y24.294 E-.01367
G1 X129.372 Y24.295 E-.0037
G1 X129.789 Y24.413 E-.10007
G1 X130.226 Y24.667 E-.11671
G1 X130.587 Y25.051 E-.1217
G1 X130.813 Y25.497 E-.11545
G1 X130.909 Y26.157 E-.154
G1 X130.871 Y26.468 E-.07234
G1 X130.689 Y26.953 E-.11961
G1 X130.294 Y27.638 E-.18275
;WIPE_END
G1 Z.4 F720
G1 X118.806 Y26.431 F10800
G1 Z.2 F720
G1 E1 F2100
M204 S800
;TYPE:Perimeter
;WIDTH:0.533874
G1 F1200
G1 X118.798 Y25.884 E.02233
;WIDTH:0.544356
G1 X118.811 Y25.693 E.00798
M204 S1000
;WIPE_START
G1 F8640
G1 X118.798 Y25.884 E-.0442
G1 X118.806 Y26.431 E-.12632
;WIPE_END
G1 E-.82948 F2100
G1 Z.4 F720
G1 X129.463 Y23.556 F10800
G1 Z.2 F720
G1 E1 F2100
M204 S800
;WIDTH:0.419999
G1 F1200
G1 X129.112 Y23.52 E.01106
G1 X121.012 Y23.52 E.25397
G1 X120.856 Y23.533 E.00491
G1 X120.136 Y23.678 E.02303
G1 X119.723 Y23.885 E.01448
G1 X119.126 Y24.375 E.02422
G1 X119.126 Y15.233 E.28664
G1 X119.192 Y14.537 E.02192
G1 X119.395 Y13.872 E.0218
G1 X119.638 Y13.403 E.01656
G1 X119.954 Y12.951 E.01729
G1 X120.322 Y12.583 E.01632
G1 X120.733 Y12.281 E.01599
G1 X121.194 Y12.037 E.01635
G1 X121.666 Y11.871 E.01569
G1 X122.314 Y11.761 E.02061
G1 X127.66 Y11.755 E.16762
G1 X128.324 Y11.84 E.02099
G1 X128.933 Y12.039 E.02009
G1 X129.495 Y12.349 E.02012
G1 X129.989 Y12.757 E.02009
G1 X130.194 Y13.006 E.01011
G1 X130.522 Y13.455 E.01743
G1 X130.75 Y13.913 E.01604
G1 X130.934 Y14.546 E.02067
G1 X130.998 Y15.233 E.02163
G1 X130.995 Y24.384 E.28692
G1 X130.548 Y23.972 E.01906
G1 X130.156 Y23.754 E.01406
G1 X129.567 Y23.567 E.01938
G1 X129.523 Y23.562 E.00139
M204 S1000
G1 X129.41 Y23.925 F10800
M204 S800
G1 F1200
G1 X129.112 Y23.897 E.00938
G1 X121.012 Y23.897 E.25397
G1 X120.408 Y23.99 E.01916
G1 X119.952 Y24.185 E.01555
G1 X119.345 Y24.685 E.02466
G1 X119.023 Y25.207 E.01923
;WIDTH:0.461452
G1 X118.952 Y25.369 E.00616
;WIDTH:0.502904
G1 X118.882 Y25.531 E.00675
;WIDTH:0.544356
G1 X118.811 Y25.693 E.00737
G1 X118.791 Y25.518 E.00734
;WIDTH:0.502904
G1 X118.77 Y25.342 E.00678
;WIDTH:0.461452
G1 X118.749 Y25.167 E.00613
;WIDTH:0.419999
G1 X118.749 Y15.215 E.31204
G1 X118.819 Y14.47 E.02346
G1 X119.046 Y13.728 E.02433
G1 X119.311 Y13.214 E.01813
G1 X119.67 Y12.701 E.01963
G1 X120.075 Y12.296 E.01796
G1 X120.532 Y11.961 E.01777
G1 X121.042 Y11.69 E.01811
G1 X121.571 Y11.504 E.01758
G1 X122.282 Y11.384 E.02261
G1 X127.684 Y11.378 E.16938
G1 X128.407 Y11.471 E.02286
G1 X129.084 Y11.692 E.02233
G1 X129.708 Y12.036 E.02234
G1 X130.256 Y12.49 E.02231
G1 X130.557 Y12.853 E.01479
G1 X130.846 Y13.262 E.0157
G1 X131.105 Y13.781 E.01819
G1 X131.306 Y14.475 E.02265
G1 X131.375 Y15.215 E.0233
G1 X131.372 Y24.838 E.30172
;WIDTH:0.462064
G1 X131.351 Y25.002 E.00576
;WIDTH:0.504128
G1 X131.33 Y25.166 E.00634
;WIDTH:0.546192
G1 X131.309 Y25.331 E.00696
;WIDTH:0.588256
G1 X131.288 Y25.495 E.0075
G1 X131.238 Y25.405 E.00467
;WIDTH:0.542926
G1 X131.187 Y25.315 E.0043
;WIDTH:0.497596
G1 X131.025 Y25.054 E.01161
;WIDTH:0.458798
G1 X130.862 Y24.792 E.01067
;WIDTH:0.419999
G1 X130.501 Y24.408 E.01653
G1 X129.973 Y24.083 E.01944
G1 X129.47 Y23.931 E.01648
M204 S1000
;WIPE_START
G1 F8640
G1 X129.41 Y23.925 E-.01392
G1 X129.112 Y23.897 E-.06911
G1 X125.141 Y23.897 E-.91697
;WIPE_END
G1 Z.4 F720
G1 X131.288 Y25.495 F10800
G1 Z.2 F720
G1 E1 F2100
M204 S800
;WIDTH:0.588256
G1 F1200
G1 X131.308 Y25.799 E.01381
;WIDTH:0.548699
G1 X131.327 Y26.102 E.01277
;WIDTH:0.541472
G1 X131.311 Y26.51 E.01693
M204 S1000
;WIPE_START
G1 F8640
G1 X131.327 Y26.102 E-.09428
