; generated by PrusaSlicer 2.9.3 on 2025-09-30 at 16:00:54 UTC


;
;
; 

; external perimeters extrusion width = 0.45mm
; perimeters extrusion width = 0.45mm
; infill extrusion width = 0.45mm
; solid infill extrusion width = 0.45mm
; top infill extrusion width = 0.40mm
; support material extrusion width = 0.35mm
; first layer extrusion width = 0.42mm

M73 P0 R135
M73 Q0 S139
M201 X1000 Y1000 Z200 E5000 ; sets maximum accelerations, mm/sec^2
M203 X200 Y200 Z12 E120 ; sets maximum feedrates, mm / sec
M204 S1250 T1250 ; sets acceleration (S) and retract acceleration (R), mm/sec^2
M205 X8.00 Y8.00 Z0.40 E4.50 ; sets the jerk limits, mm/sec
M205 S0 T0 ; sets the minimum extruding and travel feed rate, mm/sec

; printing object C id:0 copy 0
; stop printing object C id:0 copy 0

;TYPE:Custom
M862.3 P "MK3" ; printer model check
M862.1 P0.4 ; nozzle diameter check
M115 U3.14.1 ; tell printer latest fw version
G90 ; use absolute coordinates
M83 ; extruder relative mode
M104 S250 ; set extruder temp
M140 S85 ; set bed temp
M190 S85 ; wait for bed temp
M109 S250 ; wait for extruder temp
G28 W ; home all without mesh bed level
G80 X85.866 Y19.1583 W83.8933 H189.469 ; mesh bed levelling

G1 Z0.2 F720
G1 Y-3 F1000 ; go outside print area
G92 E0
G1 X60 E9 F1000 ; intro line
G1 X100 E12.5 F1000 ; intro line

G92 E0
M221 S95

; Don't change E values below. Excessive value can damage the printer.
M907 E430 ; set extruder motor current
G21 ; set units to millimeters
G90 ; use absolute coordinates
M83 ; use relative distances for extrusion

M900 K0.08 ; Filament gcode LA 1.5
M900 K45 ; Filament gcode LA 1.0




M107
;LAYER_CHANGE
;Z:0.2
;HEIGHT:0.2
G1 E-1 F2100
G1 Z.4 F720
G1 X139.754 Y57.255 F10800
G1 Z.2 F720
G1 E1 F2100
M204 S800
;TYPE:Skirt/Brim
;WIDTH:0.42
G1 F1200
G1 X153.255 Y24.302 E1.11657
G1 X153.987 Y23.029 E.04604
M73 Q0 S138
G1 X154.968 Y21.852 E.04804
G1 X156.472 Y20.653 E.06031
G1 X157.477 Y20.112 E.03579
G1 X158.924 Y19.605 E.04807
G1 X160.438 Y19.364 E.04807
G1 X161.487 Y19.376 E.03289
G1 X162.359 Y19.451 E.02744
G1 X163.472 Y19.705 E.03579
G1 X164.895 Y20.275 E.04806
G1 X166.193 Y21.089 E.04804
G1 X167.325 Y22.123 E.04807
G1 X168.254 Y23.342 E.04806
G1 X168.951 Y24.708 E.04808
G1 X169.393 Y26.175 E.04804
G1 X169.565 Y27.699 E.04809
G1 X165.621 Y105.932 E2.45606
G1 X165.503 Y106.538 E.01936
G1 X130.696 Y206.967 E3.33264
G1 X129.918 Y208.018 E.041
G1 X128.628 Y208.439 E.04255
G1 X88.243 Y208.439 E1.26624
G1 X86.995 Y208.048 E.04101
G1 X86.193 Y207.015 E.041
G1 X86.055 Y206.25 E.02437
G1 X86.055 Y203.75 E.07839
G1 X86.142 Y203.137 E.01941
G1 X101.41 Y150.849 E1.70792
G1 X139.732 Y57.31 E3.16944
M204 S1000
;WIPE_START
G1 F8640
M73 P0 R134
G1 X139.754 Y57.255 E-.01368
G1 X141.373 Y53.302 E-.98632
;WIPE_END
G1 Z.4 F720
; printing object C id:0 copy 0
G1 X161.389 Y21.563 F10800
G1 Z.2 F720
G1 E1 F2100
M204 S800
;TYPE:Support material
G1 F1200
G1 X161.872 Y21.584 E.01516
G1 X162.985 Y21.838 E.03579
G1 X164.035 Y22.287 E.03581
G1 X164.988 Y22.916 E.0358
G1 X165.813 Y23.705 E.03579
G1 X166.484 Y24.628 E.03578
G1 X166.979 Y25.657 E.0358
G1 X167.283 Y26.758 E.03581
G1 X167.385 Y27.895 E.03579
G1 X167.283 Y29.032 E.03579
G1 X166.979 Y30.132 E.03578
G1 X166.484 Y31.161 E.0358
G1 X165.813 Y32.084 E.03578
G1 X164.988 Y32.873 E.03579
G1 X164.035 Y33.502 E.0358
G1 X162.985 Y33.951 E.03581
G1 X161.872 Y34.205 E.03579
G1 X160.731 Y34.256 E.03581
G1 X159.6 Y34.103 E.03578
G1 X158.514 Y33.75 E.0358
G1 X157.509 Y33.209 E.03579
G1 X156.616 Y32.497 E.03581
G1 X155.865 Y31.638 E.03578
G1 X155.28 Y30.658 E.03579
G1 X154.879 Y29.589 E.0358
G1 X154.675 Y28.465 E.03582
G1 X154.675 Y27.324 E.03578
G1 X154.879 Y26.201 E.03579
G1 X155.28 Y25.132 E.0358
G1 X155.865 Y24.152 E.03579
G1 X156.616 Y23.292 E.0358
G1 X157.509 Y22.58 E.03581
G1 X158.514 Y22.039 E.03579
G1 X159.6 Y21.686 E.0358
G1 X160.731 Y21.533 E.03578
G1 X161.332 Y21.56 E.01886
M204 S1000
G1 X166.898 Y29.79 F10800
M204 S800
G1 F1200
G1 X166.898 Y26.637 E.09886
G1 X166.66 Y25.777 E.02798
G1 X166.479 Y25.4 E.01311
G1 X166.479 Y30.389 E.15643
G1 X166.06 Y31.167 E.02771
G1 X166.06 Y24.622 E.20521
G1 X165.641 Y24.045 E.02236
G1 X165.641 Y31.744 E.2414
G1 X165.222 Y32.18 E.01896
G1 X165.222 Y23.609 E.26874
G1 X164.803 Y23.209 E.01816
G1 X164.803 Y32.581 E.29385
G1 X164.384 Y32.865 E.01587
G1 X164.384 Y22.924 E.31169
G1 X163.965 Y22.647 E.01575
G1 X163.965 Y33.142 E.32906
G1 X163.546 Y33.342 E.01456
G1 X163.546 Y22.447 E.34161
G1 X163.127 Y22.268 E.01429
G1 X163.127 Y33.521 E.35283
G1 X162.708 Y33.666 E.0139
G1 X162.708 Y22.123 E.36192
G1 X162.289 Y22.027 E.01348
G1 X162.289 Y33.762 E.36794
G1 X161.87 Y33.857 E.01347
G1 X161.87 Y21.932 E.3739
G1 X161.451 Y21.905 E.01316
G1 X161.451 Y33.884 E.37559
G1 X161.032 Y33.903 E.01315
G1 X161.032 Y21.886 E.37678
G1 X160.613 Y21.892 E.01314
G1 X160.613 Y33.898 E.37644
G1 X160.194 Y33.841 E.01326
G1 X160.194 Y21.948 E.3729
G1 X159.775 Y22.005 E.01326
G1 X159.775 Y33.784 E.36932
G1 X159.356 Y33.667 E.01364
G1 X159.356 Y22.122 E.36199
G1 X158.937 Y22.259 E.01382
G1 X158.937 Y33.531 E.35343
G1 X158.648 Y33.437 E.00953
G1 X158.518 Y33.367 E.00463
G1 X158.518 Y22.422 E.34317
G1 X158.099 Y22.648 E.01493
G1 X158.099 Y33.141 E.329
G1 X157.68 Y32.912 E.01497
G1 X157.68 Y22.878 E.31461
G1 X157.261 Y23.212 E.0168
G1 X157.261 Y32.578 E.29366
G1 X156.842 Y32.24 E.01688
G1 X156.842 Y23.549 E.2725
G1 X156.423 Y24.029 E.01998
G1 X156.423 Y31.761 E.24243
G1 X156.004 Y31.209 E.02173
G1 X156.004 Y24.581 E.20782
G1 X155.585 Y25.283 E.02563
G1 X155.585 Y30.506 E.16376
G1 X155.166 Y29.274 E.0408
G1 X155.166 Y25.917 E.10526
M204 S1000
;WIPE_START
G1 F8640
G1 X155.166 Y29.274 E-.77514
G1 X155.48 Y30.196 E-.22486
;WIPE_END
G1 Z.4 F720
G1 X89.868 Y205 F10800
G1 Z.2 F720
G1 E1 F2100
M204 S800
;TYPE:Perimeter
;WIDTH:0.591684
G1 F1200
G1 X90.772 Y205 E.04125
M204 S1000
G1 X91.476 Y205.463 F10800
M204 S800
;WIDTH:0.419999
G1 F1200
G1 X89.405 Y205.463 E.06493
G1 X89.405 Y204.537 E.02903
G1 X91.234 Y204.537 E.05735
G1 X91.234 Y205.221 E.02145
G1 X91.434 Y205.42 E.00885
M204 S1000
;WIPE_START
G1 F8640
G1 X91.476 Y205.463 E-.01388
G1 X89.405 Y205.463 E-.4782
G1 X89.405 Y204.537 E-.21382
G1 X90.679 Y204.537 E-.2941
;WIPE_END
G1 Z.4 F720
G1 X127.003 Y205 F10800
G1 Z.2 F720
G1 E1 F2100
M204 S800
;WIDTH:0.591684
G1 F1200
G1 X126.099 Y205 E.04125
M204 S1000
G1 X125.434 Y205.463 F10800
M204 S800
;WIDTH:0.419999
G1 F1200
G1 X125.637 Y205.221 E.0099
G1 X125.637 Y204.537 E.02145
G1 X127.466 Y204.537 E.05735
G1 X127.466 Y205.463 E.02903
G1 X125.494 Y205.463 E.06183
M204 S1000
;WIPE_START
G1 F8640
G1 X125.434 Y205.463 E-.01385
G1 X125.637 Y205.221 E-.07293
G1 X125.637 Y204.537 E-.15794
G1 X127.466 Y204.537 E-.42232
G1 X127.466 Y205.463 E-.21382
G1 X126.95 Y205.463 E-.11914
;WIPE_END
G1 Z.4 F720
G1 X99.786 Y205 F10800
G1 Z.2 F720
G1 E1 F2100
M204 S800
;WIDTH:0.591684
G1 F1200
G1 X103.657 Y205 E.17663
;WIDTH:0.60727
G1 X103.836 Y204.992 E.00841
M204 S1000
;WIPE_START
G1 F8640
G1 X103.657 Y205 E-.04137
G1 X99.786 Y205 E-.89382
;WIPE_END
G1 E-.06481 F2100
G1 Z.4 F720
G1 X117.086 Y205 F10800
G1 Z.2 F720
G1 E1 F2100
M204 S800
;WIDTH:0.591684
G1 F1200
G1 X113.214 Y205 E.17668
M204 S1000
G1 X112.561 Y204.613 F10800
M204 S800
;WIDTH:0.419999
G1 F1200
G1 X112.648 Y204.726 E.00447
;WIDTH:0.462921
G1 X112.79 Y204.794 E.0055
;WIDTH:0.505842
G1 X112.931 Y204.863 E.00604
;WIDTH:0.548763
G1 X113.073 Y204.931 E.00662
;WIDTH:0.591684
G1 X113.214 Y205 E.00716
G1 X113.043 Y205.021 E.00786
;WIDTH:0.548763
G1 X112.871 Y205.043 E.00729
;WIDTH:0.505842
G1 X112.7 Y205.064 E.00663
;WIDTH:0.462921
G1 X112.528 Y205.086 E.00606
;WIDTH:0.419999
G1 X104.343 Y205.086 E.25663
;WIDTH:0.466817
G1 X104.216 Y205.062 E.00456
;WIDTH:0.513635
G1 X104.089 Y205.039 E.00505
;WIDTH:0.560453
G1 X103.963 Y205.016 E.00551
;WIDTH:0.60727
G1 X103.836 Y204.992 E.00607
G1 X103.933 Y204.926 E.00551
;WIDTH:0.560453
G1 X104.029 Y204.859 E.00504
;WIDTH:0.513635
G1 X104.126 Y204.792 E.00461
;WIDTH:0.466817
G1 X104.223 Y204.726 E.00414
;WIDTH:0.419999
G1 X104.527 Y204.334 E.01555
G1 X104.6 Y203.971 E.01161
G1 X104.6 Y152.161 E1.62446
G1 X154.018 Y102.743 E2.19127
G1 X162.271 Y102.743 E.25877
G1 X162.271 Y104.579 E.05757
G1 X162.271 Y105.339 E.02383
G1 X112.547 Y155.063 E2.20484
G1 X112.343 Y155.369 E.01153
G1 X112.271 Y155.729 E.01151
G1 X112.271 Y203.971 E1.51259
G1 X112.344 Y204.334 E.01161
G1 X112.524 Y204.566 E.00921
M204 S1000
G1 X112.819 Y204.353 F10800
M204 S800
G1 F1200
G1 X112.875 Y204.424 E.00284
G1 X113.214 Y204.537 E.0112
G1 X117.548 Y204.537 E.13589
G1 X117.548 Y205.221 E.02145
G1 X117.79 Y205.463 E.01073
G1 X99.12 Y205.463 E.58538
G1 X99.323 Y205.221 E.0099
M73 Q0 S137
G1 X99.323 Y204.537 E.02145
G1 X103.657 Y204.537 E.13589
G1 X103.996 Y204.424 E.0112
G1 X104.179 Y204.189 E.00934
G1 X104.223 Y203.971 E.00697
G1 X104.223 Y152.005 E1.62935
G1 X153.862 Y102.366 E2.20107
G1 X162.648 Y102.366 E.27548
G1 X162.648 Y104.579 E.06939
G1 X162.648 Y105.495 E.02872
G1 X112.814 Y155.329 E2.20972
G1 X112.692 Y155.513 E.00692
G1 X112.648 Y155.729 E.00691
G1 X112.648 Y203.971 E1.51259
G1 X112.692 Y204.189 E.00697
G1 X112.783 Y204.306 E.00465
M204 S1000
G1 X113.077 Y204.074 F10800
M204 S800
;TYPE:External perimeter
G1 F1200
G1 X113.101 Y204.122 E.00168
G1 X113.214 Y204.16 E.00374
G1 X117.926 Y204.16 E.14774
G1 X117.926 Y205.221 E.03327
;WIDTH:0.44646
G1 X118.114 Y205.423 E.00926
G1 X125.071 Y205.423 E.23344
G1 X125.259 Y205.221 E.00926
;WIDTH:0.419999
G1 X125.259 Y204.16 E.03327
G1 X127.843 Y204.16 E.08102
G1 X127.843 Y205.84 E.05268
G1 X125.878 Y205.84 E.06161
;WIDTH:0.44646
G1 X125.071 Y205.827 E.02708
G1 X117.307 Y205.84 E.26052
;WIDTH:0.419999
G1 X99.564 Y205.84 E.55632
;WIDTH:0.44646
G1 X98.757 Y205.827 E.02708
M73 P1 R134
G1 X90.993 Y205.84 E.26052
;WIDTH:0.419999
G1 X89.028 Y205.84 E.06161
G1 X89.028 Y204.16 E.05268
G1 X91.612 Y204.16 E.08102
M73 Q1 S137
G1 X91.612 Y205.221 E.03327
;WIDTH:0.44646
G1 X91.8 Y205.423 E.00926
G1 X98.757 Y205.423 E.23344
G1 X98.946 Y205.221 E.00928
;WIDTH:0.419999
G1 X98.946 Y204.16 E.03327
G1 X103.657 Y204.16 E.14771
G1 X103.77 Y204.122 E.00374
G1 X103.846 Y203.971 E.0053
G1 X103.846 Y151.849 E1.63425
G1 X153.705 Y101.989 E2.21085
G1 X163.026 Y101.989 E.29225
M73 P1 R133
G1 X163.026 Y104.579 E.08121
G1 X163.026 Y105.651 E.03361
G1 X113.081 Y155.596 E2.21464
G1 X113.026 Y155.729 E.00451
G1 X113.026 Y203.971 E1.51259
G1 X113.05 Y204.021 E.00174
M204 S1000
;WIPE_START
G1 F8640
G1 X113.077 Y204.074 E-.01373
G1 X113.101 Y204.122 E-.01239
G1 X113.214 Y204.16 E-.02753
G1 X117.312 Y204.16 E-.94635
;WIPE_END
G1 Z.4 F720
G1 X162.121 Y103.656 F10800
G1 Z.2 F720
G1 E1 F2100
M204 S800
;TYPE:Solid infill
;WIDTH:0.420077
G1 F1200
G1 X161.528 Y103.064 E.02628
G1 X160.994 Y103.064 E.01675
G1 X161.951 Y104.02 E.04242
G1 X161.951 Y104.553 E.01672
G1 X160.461 Y103.064 E.06606
G1 X159.928 Y103.064 E.01672
G1 X161.951 Y105.087 E.08972
G1 X161.951 Y105.206 E.00373
G1 X161.744 Y105.413 E.00918
G1 X159.394 Y103.064 E.1042
G1 X158.861 Y103.064 E.01672
G1 X161.477 Y105.68 E.11602
G1 X161.21 Y105.947 E.01184
G1 X158.328 Y103.064 E.12784
G1 X157.794 Y103.064 E.01675
G1 X160.944 Y106.213 E.13968
G1 X160.677 Y106.48 E.01184
G1 X157.261 Y103.064 E.1515
G1 X156.727 Y103.064 E.01675
G1 X160.41 Y106.747 E.16334
G1 X160.144 Y107.013 E.0118
G1 X156.194 Y103.064 E.17516
G1 X155.661 Y103.064 E.01672
G1 X159.877 Y107.28 E.18698
G1 X159.61 Y107.547 E.01184
G1 X155.127 Y103.064 E.19882
G1 X154.594 Y103.064 E.01672
G1 X159.344 Y107.813 E.21064
G1 X159.077 Y108.08 E.01184
G1 X154.105 Y103.109 E.22049
G1 X153.839 Y103.375 E.0118
G1 X158.81 Y108.347 E.22049
G1 X158.544 Y108.613 E.0118
G1 X153.572 Y103.642 E.22049
G1 X153.305 Y103.909 E.01184
G1 X158.277 Y108.88 E.22049
G1 X158.01 Y109.147 E.01184
G1 X153.039 Y104.175 E.22049
G1 X152.772 Y104.442 E.01184
G1 X157.743 Y109.414 E.22049
G1 X157.477 Y109.68 E.0118
G1 X152.505 Y104.709 E.22049
G1 X152.239 Y104.975 E.0118
G1 X157.21 Y109.947 E.22049
G1 X156.943 Y110.214 E.01184
G1 X151.972 Y105.242 E.22049
G1 X151.705 Y105.509 E.01184
G1 X156.677 Y110.48 E.22049
G1 X156.41 Y110.747 E.01184
G1 X151.439 Y105.776 E.22047
G1 X151.172 Y106.042 E.01182
G1 X156.143 Y111.014 E.22049
G1 X155.877 Y111.28 E.0118
G1 X150.905 Y106.309 E.22049
G1 X150.639 Y106.576 E.01182
G1 X155.61 Y111.547 E.22047
G1 X155.343 Y111.814 E.01184
G1 X150.372 Y106.842 E.22049
G1 X150.105 Y107.109 E.01184
G1 X155.077 Y112.08 E.22049
G1 X154.81 Y112.347 E.01184
G1 X149.838 Y107.376 E.22049
G1 X149.572 Y107.642 E.0118
G1 X154.543 Y112.614 E.22049
G1 X154.276 Y112.88 E.01182
G1 X149.305 Y107.909 E.22047
G1 X149.038 Y108.176 E.01184
G1 X154.01 Y113.147 E.22049
G1 X153.743 Y113.414 E.01184
G1 X148.772 Y108.442 E.22049
G1 X148.505 Y108.709 E.01184
G1 X153.476 Y113.681 E.22049
G1 X153.21 Y113.947 E.0118
G1 X148.238 Y108.976 E.22049
G1 X147.972 Y109.243 E.01182
G1 X152.943 Y114.214 E.22047
G1 X152.676 Y114.481 E.01184
G1 X147.705 Y109.509 E.22049
G1 X147.438 Y109.776 E.01184
G1 X152.41 Y114.747 E.22049
G1 X152.143 Y115.014 E.01184
G1 X147.172 Y110.043 E.22047
G1 X146.905 Y110.309 E.01182
G1 X151.876 Y115.281 E.22049
G1 X151.61 Y115.547 E.0118
G1 X146.638 Y110.576 E.22049
G1 X146.371 Y110.843 E.01184
G1 X151.343 Y115.814 E.22049
G1 X151.076 Y116.081 E.01184
G1 X146.105 Y111.109 E.22049
G1 X145.838 Y111.376 E.01184
G1 X150.81 Y116.347 E.22049
G1 X150.543 Y116.614 E.01184
G1 X145.571 Y111.643 E.22049
G1 X145.305 Y111.909 E.0118
G1 X150.276 Y116.881 E.22049
G1 X150.009 Y117.148 E.01184
G1 X145.038 Y112.176 E.22049
G1 X144.771 Y112.443 E.01184
G1 X149.743 Y117.414 E.22049
G1 X149.476 Y117.681 E.01184
G1 X144.505 Y112.709 E.22049
G1 X144.238 Y112.976 E.01184
G1 X149.209 Y117.948 E.22049
G1 X148.943 Y118.214 E.0118
G1 X143.971 Y113.243 E.22049
G1 X143.705 Y113.51 E.01182
G1 X148.676 Y118.481 E.22047
G1 X148.409 Y118.748 E.01184
G1 X143.438 Y113.776 E.22049
G1 X143.171 Y114.043 E.01184
G1 X148.143 Y119.014 E.22049
G1 X147.876 Y119.281 E.01184
G1 X142.904 Y114.31 E.22049
G1 X142.638 Y114.576 E.0118
G1 X147.609 Y119.548 E.22049
G1 X147.343 Y119.814 E.0118
G1 X142.371 Y114.843 E.22049
G1 X142.104 Y115.11 E.01184
G1 X147.076 Y120.081 E.22049
G1 X146.809 Y120.348 E.01184
G1 X141.838 Y115.376 E.22049
G1 X141.571 Y115.643 E.01184
G1 X146.542 Y120.614 E.22047
G1 X146.276 Y120.881 E.01182
G1 X141.304 Y115.91 E.22049
G1 X141.038 Y116.176 E.0118
G1 X146.009 Y121.148 E.22049
G1 X145.742 Y121.415 E.01184
G1 X140.771 Y116.443 E.22049
G1 X140.504 Y116.71 E.01184
G1 X145.476 Y121.681 E.22049
G1 X145.209 Y121.948 E.01184
G1 X140.238 Y116.977 E.22047
G1 X139.971 Y117.243 E.01182
G1 X144.942 Y122.215 E.22049
G1 X144.676 Y122.481 E.0118
G1 X139.704 Y117.51 E.22049
G1 X139.438 Y117.777 E.01182
G1 X144.409 Y122.748 E.22047
G1 X144.142 Y123.015 E.01184
G1 X139.171 Y118.043 E.22049
G1 X138.904 Y118.31 E.01184
G1 X143.876 Y123.281 E.22049
G1 X143.609 Y123.548 E.01184
G1 X138.637 Y118.577 E.22049
G1 X138.371 Y118.843 E.0118
G1 X143.342 Y123.815 E.22049
G1 X143.075 Y124.081 E.01182
G1 X138.104 Y119.11 E.22047
G1 X137.837 Y119.377 E.01184
G1 X142.809 Y124.348 E.22049
G1 X142.542 Y124.615 E.01184
G1 X137.571 Y119.643 E.22049
G1 X137.304 Y119.91 E.01184
G1 X142.275 Y124.882 E.22049
G1 X142.009 Y125.148 E.0118
G1 X137.037 Y120.177 E.22049
G1 X136.771 Y120.443 E.0118
G1 X141.742 Y125.415 E.22049
G1 X141.475 Y125.682 E.01184
G1 X136.504 Y120.71 E.22049
G1 X136.237 Y120.977 E.01184
M73 Q1 S136
G1 X141.209 Y125.948 E.22049
G1 X140.942 Y126.215 E.01184
G1 X135.971 Y121.244 E.22047
G1 X135.704 Y121.51 E.01182
G1 X140.675 Y126.482 E.22049
G1 X140.409 Y126.748 E.0118
G1 X135.437 Y121.777 E.22049
G1 X135.17 Y122.044 E.01184
G1 X140.142 Y127.015 E.22049
G1 X139.875 Y127.282 E.01184
G1 X134.904 Y122.31 E.22049
G1 X134.637 Y122.577 E.01184
G1 X139.609 Y127.548 E.22049
G1 X139.342 Y127.815 E.01184
G1 X134.37 Y122.844 E.22049
G1 X134.104 Y123.11 E.0118
G1 X139.075 Y128.082 E.22049
G1 X138.808 Y128.349 E.01184
G1 X133.837 Y123.377 E.22049
G1 X133.57 Y123.644 E.01184
G1 X138.542 Y128.615 E.22049
G1 X138.275 Y128.882 E.01184
G1 X133.304 Y123.91 E.22049
G1 X133.037 Y124.177 E.01184
