; generated by PrusaSlicer 2.9.3 on 2025-09-30 at 16:00:53 UTC


;
;
; 

; external perimeters extrusion width = 0.45mm
; perimeters extrusion width = 0.45mm
; infill extrusion width = 0.45mm
; solid infill extrusion width = 0.45mm
; top infill extrusion width = 0.40mm
; support material extrusion width = 0.35mm
; first layer extrusion width = 0.42mm

M73 P0 R82
M73 Q0 S83
M201 X1000 Y1000 Z200 E5000 ; sets maximum accelerations, mm/sec^2
M203 X200 Y200 Z12 E120 ; sets maximum feedrates, mm / sec
M204 S1250 T1250 ; sets acceleration (S) and retract acceleration (R), mm/sec^2
M205 X8.00 Y8.00 Z0.40 E4.50 ; sets the jerk limits, mm/sec
M205 S0 T0 ; sets the minimum extruding and travel feed rate, mm/sec

; printing object B id:0 copy 0
; stop printing object B id:0 copy 0

;TYPE:Custom
M862.3 P "MK3" ; printer model check
M862.1 P0.4 ; nozzle diameter check
M115 U3.14.1 ; tell printer latest fw version
G90 ; use absolute coordinates
M83 ; extruder relative mode
M104 S250 ; set extruder temp
M140 S85 ; set bed temp
M190 S85 ; wait for bed temp
M109 S250 ; wait for extruder temp
G28 W ; home all without mesh bed level
G80 X75.866 Y1.37292 W99.9466 H207.254 ; mesh bed levelling

G1 Z0.2 F720
G1 Y-3 F1000 ; go outside print area
G92 E0
G1 X60 E9 F1000 ; intro line
G1 X100 E12.5 F1000 ; intro line

G92 E0
M221 S95

; Don't change E values below. Excessive value can damage the printer.
M907 E430 ; set extruder motor current
G21 ; set units to millimeters
G90 ; use absolute coordinates
M83 ; use relative distances for extrusion

M900 K0.08 ; Filament gcode LA 1.5
M900 K45 ; Filament gcode LA 1.0




M107
;LAYER_CHANGE
;Z:0.2
;HEIGHT:0.2
G1 E-1 F2100
G1 Z.4 F720
G1 X76.055 Y3.75 F10800
G1 Z.2 F720
G1 E1 F2100
M204 S800
;TYPE:Skirt/Brim
;WIDTH:0.42
G1 F1200
G1 X76.445 Y2.502 E.041
G1 X77.478 Y1.699 E.04102
G1 X78.243 Y1.561 E.02437
G1 X118.628 Y1.561 E1.26624
G1 X119.876 Y1.952 E.04101
G1 X120.684 Y3.001 E.04152
G1 X175.492 Y153.43 E5.0199
G1 X175.624 Y154.179 E.02385
M73 Q0 S82
G1 X175.624 Y206.25 E1.63265
G1 X175.233 Y207.498 E.04101
G1 X174.2 Y208.301 E.04102
G1 X173.436 Y208.439 E.02434
G1 X163.436 Y208.439 E.31354
G1 X162.187 Y208.048 E.04104
G1 X161.554 Y207.367 E.02915
G1 X91.554 Y89.438 E4.29991
G1 X91.284 Y88.719 E.02408
G1 X76.091 Y6.648 E2.617
G1 X76.055 Y3.81 E.08899
M204 S1000
;WIPE_START
G1 F8640
M73 P0 R81
G1 X76.055 Y3.75 E-.01385
G1 X76.445 Y2.502 E-.30191
G1 X77.478 Y1.699 E-.30211
G1 X78.243 Y1.561 E-.17949
G1 X79.121 Y1.561 E-.20264
;WIPE_END
G1 Z.4 F720
; printing object B id:0 copy 0
G1 X79.868 Y5 F10800
G1 Z.2 F720
G1 E1 F2100
M204 S800
;TYPE:Perimeter
;WIDTH:0.591684
G1 F1200
G1 X80.772 Y5 E.04125
M204 S1000
G1 X81.437 Y4.537 F10800
M204 S800
;WIDTH:0.419999
G1 F1200
G1 X81.234 Y4.779 E.0099
G1 X81.234 Y5.463 E.02145
G1 X79.405 Y5.463 E.05735
G1 X79.405 Y4.537 E.02903
G1 X81.377 Y4.537 E.06183
M204 S1000
;WIPE_START
G1 F8640
G1 X81.437 Y4.537 E-.01385
G1 X81.234 Y4.779 E-.07293
G1 X81.234 Y5.463 E-.15794
G1 X79.405 Y5.463 E-.42232
G1 X79.405 Y4.537 E-.21382
G1 X79.921 Y4.537 E-.11914
;WIPE_END
G1 Z.4 F720
G1 X117.003 Y5 F10800
G1 Z.2 F720
G1 E1 F2100
M204 S800
;WIDTH:0.591684
G1 F1200
G1 X116.1 Y5 E.0412
M204 S1000
G1 X115.395 Y4.537 F10800
M204 S800
;WIDTH:0.419999
G1 F1200
G1 X117.466 Y4.537 E.06493
G1 X117.466 Y5.463 E.02903
G1 X115.637 Y5.463 E.05735
G1 X115.637 Y4.779 E.02145
G1 X115.438 Y4.58 E.00882
M204 S1000
;WIPE_START
G1 F8640
G1 X115.395 Y4.537 E-.01404
G1 X117.466 Y4.537 E-.4782
G1 X117.466 Y5.463 E-.21382
G1 X116.193 Y5.463 E-.29394
;WIPE_END
G1 Z.4 F720
G1 X89.786 Y5 F10800
G1 Z.2 F720
G1 E1 F2100
M204 S800
;WIDTH:0.591684
G1 F1200
G1 X93.657 Y5 E.17663
M204 S1000
;WIPE_START
G1 F8640
G1 X89.786 Y5 E-.89382
;WIPE_END
G1 E-.10618 F2100
G1 Z.4 F720
G1 X107.086 Y5 F10800
G1 Z.2 F720
G1 E1 F2100
M204 S800
G1 F1200
G1 X103.214 Y5 E.17668
;WIDTH:0.60727
G1 X103.035 Y5.008 E.00841
M204 S1000
G1 X102.561 Y5.387 F10800
M204 S800
;WIDTH:0.419999
G1 F1200
G1 X102.344 Y5.666 E.01108
G1 X102.271 Y6.029 E.01161
G1 X102.271 Y84.271 E2.45322
G1 X102.343 Y84.631 E.01151
G1 X102.547 Y84.937 E.01153
G1 X172.271 Y154.661 E3.09167
G1 X172.271 Y156.328 E.05227
G1 X172.271 Y205.086 E1.52877
G1 X164.6 Y205.086 E.24052
G1 X164.6 Y158.229 E1.46917
G1 X164.528 Y157.869 E.01151
M73 P1 R81
G1 X164.324 Y157.563 E.01153
G1 X94.6 Y87.839 E3.09167
G1 X94.6 Y6.029 E2.56509
M73 Q1 S82
G1 X94.527 Y5.666 E.01161
G1 X94.223 Y5.274 E.01555
;WIDTH:0.462921
G1 X94.081 Y5.206 E.0055
;WIDTH:0.505842
G1 X93.94 Y5.137 E.00604
;WIDTH:0.548763
G1 X93.798 Y5.069 E.00662
;WIDTH:0.591684
G1 X93.657 Y5 E.00716
G1 X93.828 Y4.979 E.00786
;WIDTH:0.548763
G1 X94 Y4.957 E.00729
;WIDTH:0.505842
G1 X94.171 Y4.936 E.00663
;WIDTH:0.462921
G1 X94.343 Y4.914 E.00606
;WIDTH:0.419999
G1 X102.528 Y4.914 E.25663
;WIDTH:0.466817
G1 X102.655 Y4.938 E.00456
;WIDTH:0.513635
G1 X102.782 Y4.961 E.00505
;WIDTH:0.560453
G1 X102.908 Y4.984 E.00551
;WIDTH:0.60727
G1 X103.035 Y5.008 E.00607
G1 X102.938 Y5.074 E.00551
;WIDTH:0.560453
G1 X102.842 Y5.141 E.00504
;WIDTH:0.513635
G1 X102.745 Y5.208 E.00461
;WIDTH:0.466817
G1 X102.648 Y5.274 E.00414
;WIDTH:0.419999
G1 X102.598 Y5.339 E.00257
M204 S1000
G1 X102.819 Y5.647 F10800
M204 S800
G1 F1200
G1 X102.692 Y5.811 E.0065
G1 X102.648 Y6.029 E.00697
G1 X102.648 Y84.271 E2.45322
G1 X102.692 Y84.487 E.00691
G1 X102.814 Y84.671 E.00692
G1 X172.648 Y154.505 E3.09655
G1 X172.648 Y156.328 E.05716
G1 X172.648 Y205.463 E1.54059
G1 X164.223 Y205.463 E.26416
G1 X164.223 Y158.229 E1.48099
G1 X164.18 Y158.013 E.00691
G1 X164.057 Y157.829 E.00694
G1 X94.223 Y87.995 E3.09655
G1 X94.223 Y6.029 E2.56998
M73 Q1 S81
G1 X94.179 Y5.811 E.00697
G1 X93.996 Y5.576 E.00934
G1 X93.657 Y5.463 E.0112
G1 X89.323 Y5.463 E.13589
G1 X89.323 Y4.779 E.02145
G1 X89.081 Y4.537 E.01073
G1 X107.751 Y4.537 E.58538
G1 X107.548 Y4.779 E.0099
G1 X107.548 Y5.463 E.02145
G1 X103.214 Y5.463 E.13589
G1 X102.875 Y5.576 E.0112
G1 X102.856 Y5.6 E.00096
M204 S1000
G1 X103.077 Y5.926 F10800
M204 S800
;TYPE:External perimeter
G1 F1200
G1 X103.026 Y6.029 E.0036
G1 X103.026 Y84.271 E2.45322
G1 X103.081 Y84.404 E.00451
G1 X173.026 Y154.349 E3.10147
G1 X173.026 Y156.328 E.06205
M73 P1 R80
G1 X173.026 Y205.84 E1.55241
G1 X163.846 Y205.84 E.28783
G1 X163.846 Y158.229 E1.49281
G1 X163.79 Y158.096 E.00452
G1 X93.846 Y88.151 E3.10145
G1 X93.846 Y6.029 E2.57487
M73 P2 R80
M73 Q2 S81
G1 X93.77 Y5.878 E.0053
G1 X93.657 Y5.84 E.00374
G1 X88.946 Y5.84 E.14771
G1 X88.946 Y4.779 E.03327
;WIDTH:0.446461
G1 X88.757 Y4.577 E.00928
G1 X81.8 Y4.577 E.23344
G1 X81.612 Y4.779 E.00926
;WIDTH:0.419999
G1 X81.612 Y5.84 E.03327
G1 X79.028 Y5.84 E.08102
G1 X79.028 Y4.16 E.05268
G1 X80.993 Y4.16 E.06161
;WIDTH:0.44646
G1 X81.8 Y4.173 E.02708
G1 X89.564 Y4.16 E.26052
;WIDTH:0.419999
G1 X107.307 Y4.16 E.55632
;WIDTH:0.44646
G1 X108.114 Y4.173 E.02708
G1 X115.878 Y4.16 E.26052
;WIDTH:0.419999
G1 X117.843 Y4.16 E.06161
G1 X117.843 Y5.84 E.05268
G1 X115.26 Y5.84 E.08099
G1 X115.26 Y4.779 E.03327
;WIDTH:0.44646
G1 X115.071 Y4.577 E.00928
G1 X108.114 Y4.577 E.23344
G1 X107.926 Y4.779 E.00926
;WIDTH:0.419999
G1 X107.926 Y5.84 E.03327
G1 X103.214 Y5.84 E.14774
G1 X103.107 Y5.876 E.00354
M204 S1000
;WIPE_START
G1 F8640
G1 X103.077 Y5.926 E-.01346
G1 X103.026 Y6.029 E-.02654
G1 X103.026 Y10.187 E-.96
;WIPE_END
G1 Z.4 F720
G1 X101.885 Y5.065 F10800
G1 Z.2 F720
G1 E1 F2100
M204 S800
;TYPE:Solid infill
;WIDTH:0.42071
G1 F1200
G1 X102.182 Y5.363 E.01322
G1 X102.047 Y5.537 E.00692
G1 X102.009 Y5.724 E.00599
G1 X101.52 Y5.235 E.02172
G1 X100.986 Y5.235 E.01677
G1 X101.951 Y6.2 E.04287
G1 X101.951 Y6.734 E.01677
G1 X100.451 Y5.235 E.06662
G1 X99.917 Y5.235 E.01677
G1 X101.951 Y7.268 E.09034
G1 X101.951 Y7.803 E.01681
G1 X99.383 Y5.235 E.11408
G1 X98.849 Y5.235 E.01677
G1 X101.951 Y8.337 E.13781
G1 X101.951 Y8.871 E.01677
G1 X98.314 Y5.235 E.16155
G1 X97.78 Y5.235 E.01677
G1 X101.951 Y9.405 E.18528
G1 X101.951 Y9.94 E.01681
G1 X97.246 Y5.235 E.20902
G1 X96.712 Y5.235 E.01677
G1 X101.951 Y10.474 E.23274
G1 X101.951 Y11.008 E.01677
G1 X96.177 Y5.235 E.25649
G1 X95.643 Y5.235 E.01677
G1 X101.951 Y11.543 E.28023
G1 X101.951 Y12.077 E.01677
G1 X95.109 Y5.235 E.30396
G1 X94.589 Y5.235 E.01633
G1 X101.951 Y12.611 E.32737
G1 X101.951 Y13.145 E.01677
G1 X94.92 Y6.115 E.31233
G1 X94.92 Y6.649 E.01677
G1 X101.951 Y13.68 E.31235
G1 X101.951 Y14.214 E.01677
G1 X94.92 Y7.183 E.31235
G1 X94.92 Y7.718 E.01681
G1 X101.951 Y14.748 E.31233
G1 X101.951 Y15.283 E.01681
G1 X94.92 Y8.252 E.31235
G1 X94.92 Y8.786 E.01677
G1 X101.951 Y15.817 E.31235
G1 X101.951 Y16.351 E.01677
G1 X94.92 Y9.32 E.31235
G1 X94.92 Y9.855 E.01681
G1 X101.951 Y16.885 E.31233
G1 X101.951 Y17.42 E.01681
G1 X94.92 Y10.389 E.31235
G1 X94.92 Y10.923 E.01677
G1 X101.951 Y17.954 E.31235
G1 X101.951 Y18.488 E.01677
G1 X94.92 Y11.458 E.31233
G1 X94.92 Y11.992 E.01677
G1 X101.951 Y19.022 E.31233
G1 X101.951 Y19.557 E.01681
G1 X94.92 Y12.526 E.31235
G1 X94.92 Y13.06 E.01677
G1 X101.951 Y20.091 E.31235
G1 X101.951 Y20.625 E.01677
G1 X94.92 Y13.595 E.31233
G1 X94.92 Y14.129 E.01677
G1 X101.951 Y21.16 E.31235
G1 X101.951 Y21.694 E.01677
G1 X94.92 Y14.663 E.31235
G1 X94.92 Y15.197 E.01677
G1 X101.951 Y22.228 E.31235
G1 X101.951 Y22.762 E.01677
G1 X94.92 Y15.732 E.31233
G1 X94.92 Y16.266 E.01677
G1 X101.951 Y23.297 E.31235
G1 X101.951 Y23.831 E.01677
G1 X94.92 Y16.8 E.31235
G1 X94.92 Y17.335 E.01681
G1 X101.951 Y24.365 E.31233
G1 X101.951 Y24.899 E.01677
G1 X94.92 Y17.869 E.31233
G1 X94.92 Y18.403 E.01677
G1 X101.951 Y25.434 E.31235
G1 X101.951 Y25.968 E.01677
G1 X94.92 Y18.937 E.31235
G1 X94.92 Y19.472 E.01681
G1 X101.951 Y26.502 E.31233
G1 X101.951 Y27.037 E.01681
G1 X94.92 Y20.006 E.31235
G1 X94.92 Y20.54 E.01677
G1 X101.951 Y27.571 E.31235
G1 X101.951 Y28.105 E.01677
G1 X94.92 Y21.074 E.31235
G1 X94.92 Y21.609 E.01681
G1 X101.951 Y28.639 E.31233
G1 X101.951 Y29.174 E.01681
G1 X94.92 Y22.143 E.31235
G1 X94.92 Y22.677 E.01677
G1 X101.951 Y29.708 E.31235
G1 X101.951 Y30.242 E.01677
G1 X94.92 Y23.212 E.31233
G1 X94.92 Y23.746 E.01677
G1 X101.951 Y30.777 E.31235
G1 X101.951 Y31.311 E.01677
G1 X94.92 Y24.28 E.31235
G1 X94.92 Y24.814 E.01677
G1 X101.951 Y31.845 E.31235
G1 X101.951 Y32.379 E.01677
G1 X94.92 Y25.349 E.31233
G1 X94.92 Y25.883 E.01677
G1 X101.951 Y32.914 E.31235
G1 X101.951 Y33.448 E.01677
G1 X94.92 Y26.417 E.31235
G1 X94.92 Y26.952 E.01681
M73 Q2 S80
G1 X101.951 Y33.982 E.31233
G1 X101.951 Y34.516 E.01677
G1 X94.92 Y27.486 E.31233
G1 X94.92 Y28.02 E.01677
G1 X101.951 Y35.051 E.31235
G1 X101.951 Y35.585 E.01677
G1 X94.92 Y28.554 E.31235
G1 X94.92 Y29.089 E.01681
G1 X101.951 Y36.119 E.31233
G1 X101.951 Y36.654 E.01681
G1 X94.92 Y29.623 E.31235
G1 X94.92 Y30.157 E.01677
G1 X101.951 Y37.188 E.31235
G1 X101.951 Y37.722 E.01677
G1 X94.92 Y30.691 E.31235
G1 X94.92 Y31.226 E.01681
G1 X101.951 Y38.256 E.31233
G1 X101.951 Y38.791 E.01681
G1 X94.92 Y31.76 E.31235
G1 X94.92 Y32.294 E.01677
G1 X101.951 Y39.325 E.31235
G1 X101.951 Y39.859 E.01677
G1 X94.92 Y32.829 E.31233
G1 X94.92 Y33.363 E.01677
G1 X101.951 Y40.393 E.31233
G1 X101.951 Y40.928 E.01681
G1 X94.92 Y33.897 E.31235
G1 X94.92 Y34.431 E.01677
G1 X101.951 Y41.462 E.31235
G1 X101.951 Y41.996 E.01677
G1 X94.92 Y34.966 E.31233
G1 X94.92 Y35.5 E.01677
G1 X101.951 Y42.531 E.31235
G1 X101.951 Y43.065 E.01677
G1 X94.92 Y36.034 E.31235
G1 X94.92 Y36.568 E.01677
G1 X101.951 Y43.599 E.31235
G1 X101.951 Y44.133 E.01677
G1 X94.92 Y37.103 E.31233
G1 X94.92 Y37.637 E.01677
G1 X101.951 Y44.668 E.31235
G1 X101.951 Y45.202 E.01677
M73 P3 R80
G1 X94.92 Y38.171 E.31235
G1 X94.92 Y38.706 E.01681
G1 X101.951 Y45.736 E.31233
G1 X101.951 Y46.271 E.01681
G1 X94.92 Y39.24 E.31235
G1 X94.92 Y39.774 E.01677
M73 Q3 S80
G1 X101.951 Y46.805 E.31235
G1 X101.951 Y47.339 E.01677
G1 X94.92 Y40.308 E.31235
G1 X94.92 Y40.843 E.01681
G1 X101.951 Y47.873 E.31233
G1 X101.951 Y48.408 E.01681
M73 P3 R79
G1 X94.92 Y41.377 E.31235
G1 X94.92 Y41.911 E.01677
G1 X101.951 Y48.942 E.31235
G1 X101.951 Y49.476 E.01677
G1 X94.92 Y42.446 E.31233
G1 X94.92 Y42.98 E.01677
G1 X101.951 Y50.01 E.31233
G1 X101.951 Y50.545 E.01681
G1 X94.92 Y43.514 E.31235
G1 X94.92 Y44.048 E.01677
G1 X101.951 Y51.079 E.31235
G1 X101.951 Y51.613 E.01677
G1 X94.92 Y44.583 E.31233
G1 X94.92 Y45.117 E.01677
G1 X101.951 Y52.148 E.31235
G1 X101.951 Y52.682 E.01677
G1 X94.92 Y45.651 E.31235
G1 X94.92 Y46.185 E.01677
G1 X101.951 Y53.216 E.31235
G1 X101.951 Y53.75 E.01677
G1 X94.92 Y46.72 E.31233
G1 X94.92 Y47.254 E.01677
G1 X101.951 Y54.285 E.31235
G1 X101.951 Y54.819 E.01677
G1 X94.92 Y47.788 E.31235
G1 X94.92 Y48.323 E.01681
G1 X101.951 Y55.353 E.31233
G1 X101.951 Y55.887 E.01677
G1 X94.92 Y48.857 E.31233
G1 X94.92 Y49.391 E.01677
G1 X101.951 Y56.422 E.31235
G1 X101.951 Y56.956 E.01677
G1 X94.92 Y49.925 E.31235
G1 X94.92 Y50.46 E.01681
G1 X101.951 Y57.49 E.31233
G1 X101.951 Y58.025 E.01681
G1 X94.92 Y50.994 E.31235
G1 X94.92 Y51.528 E.01677
G1 X101.951 Y58.559 E.31235
G1 X101.951 Y59.093 E.01677
G1 X94.92 Y52.062 E.31235
G1 X94.92 Y52.597 E.01681
G1 X101.951 Y59.627 E.31233
G1 X101.951 Y60.162 E.01681
G1 X94.92 Y53.131 E.31235
G1 X94.92 Y53.665 E.01677
G1 X101.951 Y60.696 E.31235
G1 X101.951 Y61.23 E.01677
G1 X94.92 Y54.2 E.31233
G1 X94.92 Y54.734 E.01677
G1 X101.951 Y61.765 E.31235
G1 X101.951 Y62.299 E.01677
G1 X94.92 Y55.268 E.31235
G1 X94.92 Y55.802 E.01677
G1 X101.951 Y62.833 E.31235
G1 X101.951 Y63.367 E.01677
G1 X94.92 Y56.337 E.31233
G1 X94.92 Y56.871 E.01677
G1 X101.951 Y63.902 E.31235
G1 X101.951 Y64.436 E.01677
G1 X94.92 Y57.405 E.31235
G1 X94.92 Y57.94 E.01681
G1 X101.951 Y64.97 E.31233
G1 X101.951 Y65.504 E.01677
G1 X94.92 Y58.474 E.31233
G1 X94.92 Y59.008 E.01677
G1 X101.951 Y66.039 E.31235
G1 X101.951 Y66.573 E.01677
G1 X94.92 Y59.542 E.31235
G1 X94.92 Y60.077 E.01681
G1 X101.951 Y67.107 E.31233
G1 X101.951 Y67.642 E.01681
G1 X94.92 Y60.611 E.31235
G1 X94.92 Y61.145 E.01677
G1 X101.951 Y68.176 E.31235
G1 X101.951 Y68.71 E.01677
G1 X94.92 Y61.679 E.31235
G1 X94.92 Y62.214 E.01681
G1 X101.951 Y69.244 E.31233
G1 X101.951 Y69.779 E.01681
G1 X94.92 Y62.748 E.31235
G1 X94.92 Y63.282 E.01677
G1 X101.951 Y70.313 E.31235
G1 X101.951 Y70.847 E.01677
G1 X94.92 Y63.817 E.31233
G1 X94.92 Y64.351 E.01677
G1 X101.951 Y71.381 E.31233
G1 X101.951 Y71.916 E.01681
G1 X94.92 Y64.885 E.31235
G1 X94.92 Y65.419 E.01677
G1 X101.951 Y72.45 E.31235
G1 X101.951 Y72.984 E.01677
G1 X94.92 Y65.954 E.31233
G1 X94.92 Y66.488 E.01677
G1 X101.951 Y73.519 E.31235
G1 X101.951 Y74.053 E.01677
G1 X94.92 Y67.022 E.31235
G1 X94.92 Y67.556 E.01677
G1 X101.951 Y74.587 E.31235
G1 X101.951 Y75.121 E.01677
G1 X94.92 Y68.091 E.31233
G1 X94.92 Y68.625 E.01677
G1 X101.951 Y75.656 E.31235
G1 X101.951 Y76.19 E.01677
G1 X94.92 Y69.159 E.31235
G1 X94.92 Y69.694 E.01681
G1 X101.951 Y76.724 E.31233
G1 X101.951 Y77.259 E.01681
G1 X94.92 Y70.228 E.31235
G1 X94.92 Y70.762 E.01677
G1 X101.951 Y77.793 E.31235
G1 X101.951 Y78.327 E.01677
G1 X94.92 Y71.296 E.31235
G1 X94.92 Y71.831 E.01681
G1 X101.951 Y78.861 E.31233
G1 X101.951 Y79.396 E.01681
G1 X94.92 Y72.365 E.31235
G1 X94.92 Y72.899 E.01677
G1 X101.951 Y79.93 E.31235
G1 X101.951 Y80.464 E.01677
G1 X94.92 Y73.434 E.31233
G1 X94.92 Y73.968 E.01677
G1 X101.951 Y80.998 E.31233
G1 X101.951 Y81.533 E.01681
G1 X94.92 Y74.502 E.31235
G1 X94.92 Y75.036 E.01677
G1 X101.951 Y82.067 E.31235
G1 X101.951 Y82.601 E.01677
G1 X94.92 Y75.571 E.31233
G1 X94.92 Y76.105 E.01677
G1 X101.951 Y83.136 E.31235
G1 X101.951 Y83.67 E.01677
G1 X94.92 Y76.639 E.31235
G1 X94.92 Y77.173 E.01677
G1 X101.951 Y84.204 E.31235
G1 X101.975 Y84.519 E.00992
G1 X102.046 Y84.754 E.00771
G1 X102.137 Y84.925 E.00608
G1 X94.92 Y77.708 E.32062
G1 X94.92 Y78.242 E.01677
G1 X171.951 Y155.273 E3.42212
G1 X171.951 Y155.807 E.01677
G1 X94.92 Y78.776 E3.42212
G1 X94.92 Y79.311 E.01681
M73 P4 R79
M73 Q4 S79
G1 X171.951 Y156.341 E3.4221
G1 X171.951 Y156.875 E.01677
G1 X94.92 Y79.845 E3.4221
G1 X94.92 Y80.379 E.01677
G1 X171.951 Y157.41 E3.42212
G1 X171.951 Y157.944 E.01677
M73 P4 R78
G1 X94.92 Y80.913 E3.42212
G1 X94.92 Y81.448 E.01681
G1 X171.951 Y158.478 E3.4221
G1 X171.951 Y159.013 E.01681
G1 X94.92 Y81.982 E3.42212
