; generated by PrusaSlicer 2.9.3 on 2025-09-30 at 16:00:53 UTC


;
;
; 

; external perimeters extrusion width = 0.45mm
; perimeters extrusion width = 0.45mm
; infill extrusion width = 0.45mm
; solid infill extrusion width = 0.45mm
; top infill extrusion width = 0.40mm
; support material extrusion width = 0.35mm
; first layer extrusion width = 0.42mm

M73 P0 R75
M73 Q0 S76
M201 X1000 Y1000 Z200 E5000 ; sets maximum accelerations, mm/sec^2
M203 X200 Y200 Z12 E120 ; sets maximum feedrates, mm / sec
M204 S1250 T1250 ; sets acceleration (S) and retract acceleration (R), mm/sec^2
M205 X8.00 Y8.00 Z0.40 E4.50 ; sets the jerk limits, mm/sec
M205 S0 T0 ; sets the minimum extruding and travel feed rate, mm/sec

; printing object A id:0 copy 0
; stop printing object A id:0 copy 0

;TYPE:Custom
M862.3 P "MK3" ; printer model check
M862.1 P0.4 ; nozzle diameter check
M115 U3.14.1 ; tell printer latest fw version
G90 ; use absolute coordinates
M83 ; extruder relative mode
M104 S250 ; set extruder temp
M140 S85 ; set bed temp
M190 S85 ; wait for bed temp
M109 S250 ; wait for extruder temp
G28 W ; home all without mesh bed level
G80 X102.43 Y1.37291 W45.139 H207.254 ; mesh bed levelling

G1 Z0.2 F720
G1 Y-3 F1000 ; go outside print area
G92 E0
G1 X60 E9 F1000 ; intro line
G1 X100 E12.5 F1000 ; intro line

G92 E0
M221 S95

; Don't change E values below. Excessive value can damage the printer.
M907 E430 ; set extruder motor current
G21 ; set units to millimeters
G90 ; use absolute coordinates
M83 ; use relative distances for extrusion

M900 K0.08 ; Filament gcode LA 1.5
M900 K45 ; Filament gcode LA 1.0




M107
;LAYER_CHANGE
;Z:0.2
;HEIGHT:0.2
G1 E-1 F2100
G1 Z.4 F720
G1 X102.619 Y3.75 F10800
G1 Z.2 F720
G1 E1 F2100
M204 S800
;TYPE:Skirt/Brim
;WIDTH:0.42
G1 F1200
G1 X103.01 Y2.502 E.04101
G1 X104.043 Y1.699 E.04102
G1 X104.808 Y1.561 E.02437
G1 X145.192 Y1.561 E1.26621
G1 X146.441 Y1.952 E.04104
G1 X147.243 Y2.985 E.041
M73 Q0 S75
G1 X147.381 Y3.75 E.02437
G1 X147.375 Y6.416 E.08359
G1 X132.182 Y206.416 E6.28893
G1 X131.698 Y207.631 E.04101
M73 P0 R74
G1 X130 Y208.439 E.05896
G1 X120 Y208.439 E.31354
G1 X118.752 Y208.048 E.04101
G1 X117.818 Y206.416 E.05896
G1 X102.625 Y6.416 E6.28893
G1 X102.619 Y3.81 E.08171
M204 S1000
;WIPE_START
G1 F8640
G1 X102.619 Y3.75 E-.01385
G1 X103.01 Y2.502 E-.30198
G1 X104.043 Y1.699 E-.30211
G1 X104.808 Y1.561 E-.17949
G1 X105.685 Y1.561 E-.20257
;WIPE_END
G1 Z.4 F720
; printing object A id:0 copy 0
G1 X106.433 Y5 F10800
G1 Z.2 F720
G1 E1 F2100
M204 S800
;TYPE:Perimeter
;WIDTH:0.591684
G1 F1200
G1 X107.336 Y5 E.0412
M204 S1000
G1 X108.002 Y4.537 F10800
M204 S800
;WIDTH:0.419999
G1 F1200
G1 X107.799 Y4.779 E.0099
G1 X107.799 Y5.463 E.02145
G1 X105.97 Y5.463 E.05735
G1 X105.97 Y4.537 E.02903
G1 X107.942 Y4.537 E.06183
M204 S1000
;WIPE_START
G1 F8640
G1 X108.002 Y4.537 E-.01385
G1 X107.799 Y4.779 E-.07293
G1 X107.799 Y5.463 E-.15794
G1 X105.97 Y5.463 E-.42232
G1 X105.97 Y4.537 E-.21382
G1 X106.486 Y4.537 E-.11914
;WIPE_END
G1 Z.4 F720
G1 X142.664 Y5 F10800
G1 Z.2 F720
G1 E1 F2100
M204 S800
;WIDTH:0.591684
G1 F1200
G1 X143.567 Y5 E.0412
M204 S1000
;WIPE_START
G1 F8640
G1 X142.664 Y5 E-.20851
;WIPE_END
G1 E-.79149 F2100
G1 Z.4 F720
G1 X141.96 Y4.537 F10800
G1 Z.2 F720
G1 E1 F2100
M204 S800
;WIDTH:0.419999
G1 F1200
G1 X144.03 Y4.537 E.0649
G1 X144.03 Y5 E.01452
G1 X144.03 Y5.463 E.01452
G1 X142.201 Y5.463 E.05735
G1 X142.201 Y4.779 E.02145
G1 X142.002 Y4.579 E.00885
M204 S1000
;WIPE_START
G1 F8640
G1 X141.96 Y4.537 E-.01371
G1 X144.03 Y4.537 E-.47797
G1 X144.03 Y5 E-.10691
G1 X144.03 Y5.463 E-.10691
G1 X142.755 Y5.463 E-.2945
;WIPE_END
G1 Z.4 F720
G1 X116.35 Y5 F10800
G1 Z.2 F720
G1 E1 F2100
M204 S800
;WIDTH:0.591684
G1 F1200
G1 X120.221 Y5 E.17663
M204 S1000
;WIPE_START
G1 F8640
G1 X116.35 Y5 E-.89382
;WIPE_END
G1 E-.10618 F2100
G1 Z.4 F720
G1 X129.125 Y5.387 F10800
G1 Z.2 F720
G1 E1 F2100
M204 S800
;WIDTH:0.419999
G1 F1200
G1 X128.908 Y5.666 E.01108
G1 X128.836 Y6.029 E.0116
G1 X128.836 Y205.086 E6.24128
G1 X121.164 Y205.086 E.24055
G1 X121.164 Y6.029 E6.24128
G1 X121.092 Y5.666 E.0116
M73 P1 R74
M73 Q1 S75
G1 X120.787 Y5.274 E.01557
;WIDTH:0.462921
G1 X120.646 Y5.206 E.00547
;WIDTH:0.505842
G1 X120.504 Y5.137 E.00608
;WIDTH:0.548763
G1 X120.363 Y5.069 E.00658
;WIDTH:0.591684
G1 X120.221 Y5 E.0072
G1 X120.393 Y4.979 E.00791
;WIDTH:0.548763
G1 X120.564 Y4.957 E.00725
;WIDTH:0.505842
G1 X120.736 Y4.936 E.00667
;WIDTH:0.462921
G1 X120.907 Y4.914 E.00602
;WIDTH:0.419999
G1 X129.093 Y4.914 E.25667
;WIDTH:0.466817
G1 X129.22 Y4.938 E.00456
;WIDTH:0.513635
G1 X129.346 Y4.961 E.00501
;WIDTH:0.560453
G1 X129.473 Y4.984 E.00555
;WIDTH:0.60727
G1 X129.599 Y5.008 E.00602
G1 X129.503 Y5.074 E.00547
;WIDTH:0.560453
G1 X129.406 Y5.141 E.00507
;WIDTH:0.513635
G1 X129.31 Y5.208 E.00458
;WIDTH:0.466817
G1 X129.213 Y5.274 E.00414
;WIDTH:0.419999
G1 X129.162 Y5.339 E.00259
M204 S1000
G1 X129.599 Y5.008 F10800
M204 S800
;WIDTH:0.60727
G1 F1200
G1 X129.779 Y5 E.00845
;WIDTH:0.591684
G1 X133.65 Y5 E.17663
M204 S1000
;WIPE_START
G1 F8640
G1 X129.779 Y5 E-.89382
G1 X129.599 Y5.008 E-.0416
;WIPE_END
G1 E-.06458 F2100
G1 Z.4 F720
G1 X129.384 Y5.647 F10800
G1 Z.2 F720
G1 E1 F2100
M204 S800
;WIDTH:0.419999
G1 F1200
G1 X129.256 Y5.811 E.00652
G1 X129.213 Y6.029 E.00697
G1 X129.213 Y205.463 E6.2531
G1 X120.787 Y205.463 E.26419
G1 X120.787 Y6.029 E6.2531
G1 X120.744 Y5.811 E.00697
M73 Q1 S74
G1 X120.561 Y5.576 E.00934
G1 X120.221 Y5.463 E.01123
G1 X115.887 Y5.463 E.13589
G1 X115.887 Y4.779 E.02145
G1 X115.646 Y4.537 E.01071
G1 X134.316 Y4.537 E.58538
G1 X134.113 Y4.779 E.0099
G1 X134.113 Y5.463 E.02145
G1 X129.779 Y5.463 E.13589
G1 X129.439 Y5.576 E.01123
G1 X129.421 Y5.6 E.00094
M204 S1000
G1 X129.641 Y5.926 F10800
M204 S800
;TYPE:External perimeter
G1 F1200
G1 X129.59 Y6.029 E.0036
G1 X129.59 Y205.84 E6.26492
G1 X120.41 Y205.84 E.28783
M73 P1 R73
G1 X120.41 Y6.029 E6.26492
G1 X120.335 Y5.878 E.00529
M73 P2 R73
M73 Q2 S74
G1 X120.221 Y5.84 E.00377
G1 X115.51 Y5.84 E.14771
G1 X115.51 Y4.779 E.03327
;WIDTH:0.44646
G1 X115.321 Y4.577 E.00928
G1 X108.365 Y4.577 E.23341
G1 X108.176 Y4.779 E.00928
;WIDTH:0.419999
G1 X108.176 Y5.84 E.03327
G1 X105.593 Y5.84 E.08099
G1 X105.593 Y4.16 E.05268
G1 X107.558 Y4.16 E.06161
;WIDTH:0.44646
G1 X108.365 Y4.173 E.02708
G1 X116.129 Y4.16 E.26052
;WIDTH:0.419999
G1 X133.871 Y4.16 E.55629
;WIDTH:0.44646
G1 X134.679 Y4.173 E.02712
G1 X142.443 Y4.16 E.26052
;WIDTH:0.419999
G1 X144.407 Y4.16 E.06158
G1 X144.407 Y5 E.02634
G1 X144.407 Y5.84 E.02634
G1 X141.824 Y5.84 E.08099
G1 X141.824 Y4.779 E.03327
;WIDTH:0.44646
G1 X141.635 Y4.577 E.00928
G1 X134.679 Y4.577 E.23341
G1 X134.49 Y4.779 E.00928
;WIDTH:0.419999
G1 X134.49 Y5.84 E.03327
G1 X129.779 Y5.84 E.14771
G1 X129.671 Y5.876 E.00357
M204 S1000
;WIPE_START
G1 F8640
G1 X129.641 Y5.926 E-.01346
G1 X129.59 Y6.029 E-.02654
G1 X129.59 Y10.187 E-.96
;WIPE_END
G1 Z.4 F720
G1 X128.449 Y5.065 F10800
G1 Z.2 F720
G1 E1 F2100
M204 S800
;TYPE:Solid infill
;WIDTH:0.420728
G1 F1200
G1 X128.747 Y5.363 E.01324
G1 X128.611 Y5.537 E.00694
G1 X128.574 Y5.724 E.00599
G1 X128.084 Y5.235 E.02175
G1 X127.55 Y5.235 E.01678
G1 X128.515 Y6.2 E.04287
G1 X128.515 Y6.734 E.01678
G1 X127.016 Y5.235 E.0666
G1 X126.481 Y5.235 E.01681
G1 X128.515 Y7.269 E.09037
G1 X128.515 Y7.803 E.01678
G1 X125.947 Y5.235 E.11409
G1 X125.413 Y5.235 E.01678
G1 X128.515 Y8.337 E.13781
G1 X128.515 Y8.871 E.01678
G1 X124.879 Y5.235 E.16154
G1 X124.344 Y5.235 E.01681
G1 X128.515 Y9.406 E.18531
G1 X128.515 Y9.94 E.01678
G1 X123.81 Y5.235 E.20903
G1 X123.276 Y5.235 E.01678
G1 X128.515 Y10.474 E.23275
G1 X128.515 Y11.009 E.01681
G1 X122.741 Y5.235 E.25652
G1 X122.207 Y5.235 E.01678
G1 X128.515 Y11.543 E.28025
G1 X128.515 Y12.077 E.01678
G1 X121.673 Y5.235 E.30397
G1 X121.154 Y5.235 E.0163
G1 X128.515 Y12.612 E.32739
G1 X128.515 Y13.146 E.01678
G1 X121.485 Y6.115 E.31235
G1 X121.485 Y6.649 E.01678
G1 X128.515 Y13.68 E.31235
G1 X128.515 Y14.214 E.01678
G1 X121.485 Y7.184 E.31232
G1 X121.485 Y7.718 E.01678
G1 X128.515 Y14.749 E.31235
G1 X128.515 Y15.283 E.01678
G1 X121.485 Y8.252 E.31235
G1 X121.485 Y8.787 E.01681
G1 X128.515 Y15.817 E.31232
G1 X128.515 Y16.352 E.01681
G1 X121.485 Y9.321 E.31235
G1 X121.485 Y9.855 E.01678
G1 X128.515 Y16.886 E.31235
G1 X128.515 Y17.42 E.01678
G1 X121.485 Y10.39 E.31232
G1 X121.485 Y10.924 E.01678
G1 X128.515 Y17.955 E.31235
G1 X128.515 Y18.489 E.01678
G1 X121.485 Y11.458 E.31235
G1 X121.485 Y11.992 E.01678
G1 X128.515 Y19.023 E.31235
G1 X128.515 Y19.557 E.01678
G1 X121.485 Y12.527 E.31232
G1 X121.485 Y13.061 E.01678
G1 X128.515 Y20.092 E.31235
G1 X128.515 Y20.626 E.01678
G1 X121.485 Y13.595 E.31235
G1 X121.485 Y14.13 E.01681
G1 X128.515 Y21.16 E.31232
G1 X128.515 Y21.695 E.01681
G1 X121.485 Y14.664 E.31235
G1 X121.485 Y15.198 E.01678
G1 X128.515 Y22.229 E.31235
G1 X128.515 Y22.763 E.01678
G1 X121.485 Y15.733 E.31232
G1 X121.485 Y16.267 E.01678
G1 X128.515 Y23.298 E.31235
G1 X128.515 Y23.832 E.01678
G1 X121.485 Y16.801 E.31235
G1 X121.485 Y17.336 E.01681
G1 X128.515 Y24.366 E.31232
G1 X128.515 Y24.9 E.01678
G1 X121.485 Y17.87 E.31232
G1 X121.485 Y18.404 E.01678
G1 X128.515 Y25.435 E.31235
G1 X128.515 Y25.969 E.01678
G1 X121.485 Y18.938 E.31235
G1 X121.485 Y19.473 E.01681
G1 X128.515 Y26.503 E.31232
G1 X128.515 Y27.038 E.01681
G1 X121.485 Y20.007 E.31235
G1 X121.485 Y20.541 E.01678
G1 X128.515 Y27.572 E.31235
G1 X128.515 Y28.106 E.01678
G1 X121.485 Y21.076 E.31232
G1 X121.485 Y21.61 E.01678
G1 X128.515 Y28.641 E.31235
G1 X128.515 Y29.175 E.01678
G1 X121.485 Y22.144 E.31235
G1 X121.485 Y22.679 E.01681
G1 X128.515 Y29.709 E.31232
G1 X128.515 Y30.243 E.01678
G1 X121.485 Y23.213 E.31232
G1 X121.485 Y23.747 E.01678
G1 X128.515 Y30.778 E.31235
G1 X128.515 Y31.312 E.01678
G1 X121.485 Y24.281 E.31235
G1 X121.485 Y24.816 E.01681
G1 X128.515 Y31.846 E.31232
G1 X128.515 Y32.381 E.01681
G1 X121.485 Y25.35 E.31235
G1 X121.485 Y25.884 E.01678
G1 X128.515 Y32.915 E.31235
G1 X128.515 Y33.449 E.01678
G1 X121.485 Y26.419 E.31232
G1 X121.485 Y26.953 E.01678
G1 X128.515 Y33.984 E.31235
G1 X128.515 Y34.518 E.01678
G1 X121.485 Y27.487 E.31235
G1 X121.485 Y28.022 E.01681
G1 X128.515 Y35.052 E.31232
G1 X128.515 Y35.586 E.01678
M73 Q2 S73
G1 X121.485 Y28.556 E.31232
G1 X121.485 Y29.09 E.01678
G1 X128.515 Y36.121 E.31235
G1 X128.515 Y36.655 E.01678
G1 X121.485 Y29.624 E.31235
G1 X121.485 Y30.159 E.01681
G1 X128.515 Y37.189 E.31232
G1 X128.515 Y37.724 E.01681
G1 X121.485 Y30.693 E.31235
G1 X121.485 Y31.227 E.01678
G1 X128.515 Y38.258 E.31235
G1 X128.515 Y38.792 E.01678
G1 X121.485 Y31.762 E.31232
G1 X121.485 Y32.296 E.01678
G1 X128.515 Y39.327 E.31235
G1 X128.515 Y39.861 E.01678
G1 X121.485 Y32.83 E.31235
G1 X121.485 Y33.365 E.01681
G1 X128.515 Y40.395 E.31232
G1 X128.515 Y40.929 E.01678
G1 X121.485 Y33.899 E.31232
G1 X121.485 Y34.433 E.01678
G1 X128.515 Y41.464 E.31235
G1 X128.515 Y41.998 E.01678
G1 X121.485 Y34.967 E.31235
M73 P3 R73
G1 X121.485 Y35.502 E.01681
G1 X128.515 Y42.532 E.31232
G1 X128.515 Y43.067 E.01681
G1 X121.485 Y36.036 E.31235
G1 X121.485 Y36.57 E.01678
M73 Q3 S73
G1 X128.515 Y43.601 E.31235
G1 X128.515 Y44.135 E.01678
G1 X121.485 Y37.105 E.31232
G1 X121.485 Y37.639 E.01678
M73 P3 R72
G1 X128.515 Y44.67 E.31235
G1 X128.515 Y45.204 E.01678
G1 X121.485 Y38.173 E.31235
G1 X121.485 Y38.708 E.01681
G1 X128.515 Y45.738 E.31232
G1 X128.515 Y46.273 E.01681
G1 X121.485 Y39.242 E.31235
G1 X121.485 Y39.776 E.01678
G1 X128.515 Y46.807 E.31235
G1 X128.515 Y47.341 E.01678
G1 X121.485 Y40.31 E.31235
G1 X121.485 Y40.845 E.01681
G1 X128.515 Y47.875 E.31232
G1 X128.515 Y48.41 E.01681
G1 X121.485 Y41.379 E.31235
G1 X121.485 Y41.913 E.01678
G1 X128.515 Y48.944 E.31235
G1 X128.515 Y49.478 E.01678
G1 X121.485 Y42.448 E.31232
G1 X121.485 Y42.982 E.01678
G1 X128.515 Y50.013 E.31235
G1 X128.515 Y50.547 E.01678
G1 X121.485 Y43.516 E.31235
G1 X121.485 Y44.051 E.01681
G1 X128.515 Y51.081 E.31232
G1 X128.515 Y51.616 E.01681
G1 X121.485 Y44.585 E.31235
G1 X121.485 Y45.119 E.01678
G1 X128.515 Y52.15 E.31235
G1 X128.515 Y52.684 E.01678
G1 X121.485 Y45.653 E.31235
G1 X121.485 Y46.188 E.01681
G1 X128.515 Y53.218 E.31232
G1 X128.515 Y53.753 E.01681
G1 X121.485 Y46.722 E.31235
G1 X121.485 Y47.256 E.01678
G1 X128.515 Y54.287 E.31235
G1 X128.515 Y54.821 E.01678
G1 X121.485 Y47.791 E.31232
G1 X121.485 Y48.325 E.01678
G1 X128.515 Y55.356 E.31235
G1 X128.515 Y55.89 E.01678
G1 X121.485 Y48.859 E.31235
G1 X121.485 Y49.394 E.01681
G1 X128.515 Y56.424 E.31232
G1 X128.515 Y56.959 E.01681
G1 X121.485 Y49.928 E.31235
G1 X121.485 Y50.462 E.01678
G1 X128.515 Y57.493 E.31235
G1 X128.515 Y58.027 E.01678
G1 X121.485 Y50.996 E.31235
G1 X121.485 Y51.531 E.01681
G1 X128.515 Y58.561 E.31232
G1 X128.515 Y59.096 E.01681
G1 X121.485 Y52.065 E.31235
G1 X121.485 Y52.599 E.01678
G1 X128.515 Y59.63 E.31235
G1 X128.515 Y60.164 E.01678
G1 X121.485 Y53.134 E.31232
G1 X121.485 Y53.668 E.01678
G1 X128.515 Y60.699 E.31235
G1 X128.515 Y61.233 E.01678
G1 X121.485 Y54.202 E.31235
G1 X121.485 Y54.737 E.01681
G1 X128.515 Y61.767 E.31232
G1 X128.515 Y62.302 E.01681
G1 X121.485 Y55.271 E.31235
G1 X121.485 Y55.805 E.01678
G1 X128.515 Y62.836 E.31235
G1 X128.515 Y63.37 E.01678
G1 X121.485 Y56.339 E.31235
G1 X121.485 Y56.874 E.01681
G1 X128.515 Y63.904 E.31232
G1 X128.515 Y64.439 E.01681
G1 X121.485 Y57.408 E.31235
G1 X121.485 Y57.942 E.01678
G1 X128.515 Y64.973 E.31235
G1 X128.515 Y65.507 E.01678
G1 X121.485 Y58.477 E.31232
G1 X121.485 Y59.011 E.01678
G1 X128.515 Y66.042 E.31235
G1 X128.515 Y66.576 E.01678
G1 X121.485 Y59.545 E.31235
G1 X121.485 Y60.08 E.01681
G1 X128.515 Y67.11 E.31232
G1 X128.515 Y67.645 E.01681
G1 X121.485 Y60.614 E.31235
G1 X121.485 Y61.148 E.01678
G1 X128.515 Y68.179 E.31235
G1 X128.515 Y68.713 E.01678
G1 X121.485 Y61.683 E.31232
G1 X121.485 Y62.217 E.01678
G1 X128.515 Y69.247 E.31232
G1 X128.515 Y69.782 E.01681
G1 X121.485 Y62.751 E.31235
G1 X121.485 Y63.285 E.01678
G1 X128.515 Y70.316 E.31235
G1 X128.515 Y70.85 E.01678
G1 X121.485 Y63.82 E.31232
G1 X121.485 Y64.354 E.01678
G1 X128.515 Y71.385 E.31235
G1 X128.515 Y71.919 E.01678
G1 X121.485 Y64.888 E.31235
G1 X121.485 Y65.423 E.01681
G1 X128.515 Y72.453 E.31232
G1 X128.515 Y72.988 E.01681
G1 X121.485 Y65.957 E.31235
G1 X121.485 Y66.491 E.01678
G1 X128.515 Y73.522 E.31235
G1 X128.515 Y74.056 E.01678
G1 X121.485 Y67.026 E.31232
G1 X121.485 Y67.56 E.01678
G1 X128.515 Y74.59 E.31232
G1 X128.515 Y75.125 E.01681
G1 X121.485 Y68.094 E.31235
G1 X121.485 Y68.628 E.01678
G1 X128.515 Y75.659 E.31235
G1 X128.515 Y76.193 E.01678
G1 X121.485 Y69.163 E.31232
G1 X121.485 Y69.697 E.01678
G1 X128.515 Y76.728 E.31235
G1 X128.515 Y77.262 E.01678
G1 X121.485 Y70.231 E.31235
G1 X121.485 Y70.766 E.01681
G1 X128.515 Y77.796 E.31232
G1 X128.515 Y78.331 E.01681
G1 X121.485 Y71.3 E.31235
G1 X121.485 Y71.834 E.01678
G1 X128.515 Y78.865 E.31235
G1 X128.515 Y79.399 E.01678
G1 X121.485 Y72.369 E.31232
G1 X121.485 Y72.903 E.01678
G1 X128.515 Y79.933 E.31232
G1 X128.515 Y80.468 E.01681
G1 X121.485 Y73.437 E.31235
G1 X121.485 Y73.971 E.01678
G1 X128.515 Y81.002 E.31235
G1 X128.515 Y81.536 E.01678
G1 X121.485 Y74.506 E.31232
G1 X121.485 Y75.04 E.01678
G1 X128.515 Y82.071 E.31235
G1 X128.515 Y82.605 E.01678
G1 X121.485 Y75.574 E.31235
G1 X121.485 Y76.109 E.01681
G1 X128.515 Y83.139 E.31232
G1 X128.515 Y83.674 E.01681
G1 X121.485 Y76.643 E.31235
G1 X121.485 Y77.177 E.01678
G1 X128.515 Y84.208 E.31235
G1 X128.515 Y84.742 E.01678
G1 X121.485 Y77.712 E.31232
G1 X121.485 Y78.246 E.01678
G1 X128.515 Y85.276 E.31232
G1 X128.515 Y85.811 E.01681
G1 X121.485 Y78.78 E.31235
G1 X121.485 Y79.314 E.01678
G1 X128.515 Y86.345 E.31235
G1 X128.515 Y86.879 E.01678
G1 X121.485 Y79.849 E.31232
M73 P4 R72
G1 X121.485 Y80.383 E.01678
G1 X128.515 Y87.414 E.31235
G1 X128.515 Y87.948 E.01678
G1 X121.485 Y80.917 E.31235
G1 X121.485 Y81.452 E.01681
G1 X128.515 Y88.482 E.31232
G1 X128.515 Y89.017 E.01681
M73 Q4 S73
G1 X121.485 Y81.986 E.31235
G1 X121.485 Y82.52 E.01678
G1 X128.515 Y89.551 E.31235
G1 X128.515 Y90.085 E.01678
G1 X121.485 Y83.055 E.31232
G1 X121.485 Y83.589 E.01678
G1 X128.515 Y90.62 E.31235
G1 X128.515 Y91.154 E.01678
