; generated by PrusaSlicer 2.9.3 on 2025-10-23 at 17:16:21 UTC


;
;
; 

; external perimeters extrusion width = 0.45mm
; perimeters extrusion width = 0.45mm
; infill extrusion width = 0.45mm
; solid infill extrusion width = 0.45mm
; top infill extrusion width = 0.40mm
; support material extrusion width = 0.35mm
; first layer extrusion width = 0.42mm

; external perimeters extrusion width = 0.45mm
; perimeters extrusion width = 0.45mm
; infill extrusion width = 0.45mm
; solid infill extrusion width = 0.45mm
; top infill extrusion width = 0.40mm
; support material extrusion width = 0.35mm
; first layer extrusion width = 0.42mm

M73 P0 R166
M73 Q0 S169
M201 X1000 Y1000 Z200 E5000 ; sets maximum accelerations, mm/sec^2
M203 X200 Y200 Z12 E120 ; sets maximum feedrates, mm / sec
M204 S1250 T1250 ; sets acceleration (S) and retract acceleration (R), mm/sec^2
M205 X8.00 Y8.00 Z0.40 E4.50 ; sets the jerk limits, mm/sec
M205 S0 T0 ; sets the minimum extruding and travel feed rate, mm/sec

; printing object E_2 id:1 copy 0
; stop printing object E_2 id:1 copy 0
; printing object E_1 id:0 copy 0
; stop printing object E_1 id:0 copy 0

;TYPE:Custom
M862.3 P "MK3" ; printer model check
M862.1 P0.4 ; nozzle diameter check
M115 U3.14.1 ; tell printer latest fw version
G90 ; use absolute coordinates
M83 ; extruder relative mode
M104 S250 ; set extruder temp
M140 S85 ; set bed temp
M190 S85 ; wait for bed temp
M109 S250 ; wait for extruder temp
G28 W ; home all without mesh bed level
G80 X77.8025 Y18.8729 W92.9599 H179.997 ; mesh bed levelling

G1 Z0.2 F720
G1 Y-3 F1000 ; go outside print area
G92 E0
G1 X60 E9 F1000 ; intro line
G1 X100 E12.5 F1000 ; intro line
M73 P0 R165

G92 E0
M221 S95

; Don't change E values below. Excessive value can damage the printer.
M907 E430 ; set extruder motor current
G21 ; set units to millimeters
G90 ; use absolute coordinates
M83 ; use relative distances for extrusion

M900 K0.08 ; Filament gcode LA 1.5
M900 K45 ; Filament gcode LA 1.0




M107
;LAYER_CHANGE
;Z:0.2
;HEIGHT:0.2
G1 E-1 F2100
G1 Z.4 F720
G1 X81.293 Y21.183 F10800
G1 Z.2 F720
G1 E1 F2100
M204 S800
;TYPE:Skirt/Brim
;WIDTH:0.42
G1 F1200
G1 X81.722 Y19.947 E.04102
G1 X82.779 Y19.177 E.041
G1 X83.481 Y19.061 E.02231
G1 X124.389 Y19.061 E1.28264
G1 X125.854 Y19.624 E.04921
G1 X169.85 Y59.25 E1.8565
G1 X170.574 Y60.876 E.05581
G1 X170.574 Y112.947 E1.63265
G1 X169.995 Y114.429 E.04989
G1 X100.196 Y190.233 E3.23088
G1 X99.811 Y190.564 E.01592
G1 X88.992 Y197.836 E.40873
G1 X87.456 Y198.44 E.05175
G1 X85.822 Y198.683 E.0518
G1 X84.175 Y198.55 E.05181
G1 X83.691 Y198.438 E.01558
G1 X82.156 Y197.831 E.05176
G1 X81.184 Y197.208 E.0362
G1 X79.994 Y196.072 E.05158
G1 X79.69 Y195.682 E.0155
G1 X78.884 Y194.254 E.05141
G1 X78.418 Y192.687 E.05126
G1 X78.296 Y191.352 E.04203
G1 X77.992 Y148.147 E1.3547
G1 X79.427 Y82.362 E2.06313
G1 X81.292 Y21.243 E1.91724
M204 S1000
;WIPE_START
G1 F8640
G1 X81.293 Y21.183 E-.01386
G1 X81.722 Y19.947 E-.3021
G1 X82.779 Y19.177 E-.30196
G1 X83.481 Y19.061 E-.16429
G1 X84.424 Y19.061 E-.21779
;WIPE_END
G1 Z.4 F720
; printing object E_1 id:0 copy 0
G1 X86.719 Y142.426 F10800
G1 Z.2 F720
G1 E1 F2100
M204 S800
;TYPE:Support material
G1 F1200
G1 X87.377 Y142.456 E.02065
G1 X88.49 Y142.71 E.03579
G1 X89.54 Y143.158 E.03579
G1 X90.492 Y143.787 E.03578
G1 X91.318 Y144.576 E.03582
G1 X91.989 Y145.5 E.0358
G1 X92.484 Y146.528 E.03577
G1 X92.788 Y147.629 E.03581
G1 X92.89 Y148.766 E.03579
G1 X92.788 Y149.903 E.03579
G1 X92.484 Y151.004 E.03581
G1 X91.989 Y152.032 E.03577
G1 X91.318 Y152.956 E.0358
G1 X90.492 Y153.745 E.03582
G1 X89.54 Y154.374 E.03578
G1 X88.49 Y154.822 E.03579
G1 X87.377 Y155.076 E.03579
G1 X86.236 Y155.128 E.03581
G1 X85.105 Y154.974 E.03579
G1 X84.019 Y154.622 E.03579
G1 X83.014 Y154.081 E.03579
G1 X82.121 Y153.369 E.03581
G1 X81.37 Y152.509 E.0358
G1 X80.785 Y151.529 E.03579
G1 X80.383 Y150.46 E.03581
G1 X80.18 Y149.337 E.03578
G1 X80.18 Y148.195 E.03581
G1 X80.383 Y147.072 E.03578
G1 X80.785 Y146.003 E.03581
G1 X81.37 Y145.023 E.03579
G1 X82.121 Y144.163 E.0358
G1 X83.014 Y143.451 E.03581
G1 X84.019 Y142.91 E.03579
G1 X85.105 Y142.558 E.03579
G1 X86.236 Y142.404 E.03579
G1 X86.663 Y142.423 E.0134
M204 S1000
G1 X92.498 Y150.316 F10800
M204 S800
G1 F1200
G1 X92.452 Y147.69 E.08235
G1 X92.079 Y146.469 E.04003
G1 X92.079 Y151.063 E.14404
G1 X91.66 Y151.907 E.02954
G1 X91.66 Y145.625 E.19697
G1 X91.241 Y145.048 E.02236
G1 X91.241 Y152.484 E.23315
G1 X90.822 Y152.96 E.01988
G1 X90.822 Y144.572 E.263
G1 X90.403 Y144.171 E.01818
G1 X90.403 Y153.361 E.28815
G1 X89.984 Y153.674 E.0164
M73 Q0 S168
G1 X89.984 Y143.858 E.30777
G1 X89.565 Y143.582 E.01573
G1 X89.565 Y153.95 E.32508
G1 X89.146 Y154.173 E.01488
G1 X89.146 Y143.359 E.33907
G1 X88.727 Y143.18 E.01429
G1 X88.727 Y154.352 E.35029
G1 X88.308 Y154.516 E.01411
G1 X88.308 Y143.016 E.36057
G1 X87.889 Y142.921 E.01347
G1 X87.889 Y154.611 E.36653
G1 X87.47 Y154.707 E.01348
G1 X87.47 Y142.825 E.37255
G1 X87.051 Y142.781 E.01321
G1 X87.051 Y154.751 E.37531
G1 X86.632 Y154.77 E.01315
G1 X86.632 Y142.762 E.3765
G1 X86.213 Y142.75 E.01314
G1 X86.213 Y154.782 E.37725
G1 X85.794 Y154.725 E.01326
G1 X85.794 Y142.807 E.37368
G1 X85.375 Y142.863 E.01325
G1 X85.375 Y154.669 E.37017
G1 X85.181 Y154.642 E.00614
G1 X84.956 Y154.569 E.00742
G1 X84.956 Y142.963 E.3639
G1 X84.537 Y143.099 E.01381
G1 X84.537 Y154.433 E.35537
G1 X84.118 Y154.29 E.01388
G1 X84.118 Y143.242 E.3464
G1 X83.699 Y143.468 E.01493
G1 X83.699 Y154.064 E.33223
G1 X83.28 Y153.839 E.01491
G1 X83.28 Y143.693 E.31812
G1 X82.861 Y144.007 E.01642
G1 X82.861 Y153.525 E.29843
G1 X82.442 Y153.191 E.0168
G1 X82.442 Y144.341 E.27749
G1 X82.023 Y144.791 E.01928
G1 X82.023 Y152.741 E.24927
G1 X81.604 Y152.239 E.0205
G1 X81.604 Y145.292 E.21782
G1 X81.185 Y145.994 E.02563
G1 X81.185 Y151.538 E.17383
G1 X80.766 Y150.515 E.03466
G1 X80.766 Y146.534 E.12482
M204 S1000
;WIPE_START
G1 F8640
G1 X80.766 Y150.515 E-.91922
G1 X80.899 Y150.839 E-.08078
;WIPE_END
G1 Z.4 F720
G1 X94.712 Y187.286 F10800
G1 Z.2 F720
G1 E1 F2100
M204 S800
G1 F1200
G1 X94.011 Y188.025 E.03194
G1 X93.155 Y188.609 E.03249
G1 X93.042 Y188.857 E.00855
G1 X92.259 Y189.768 E.03766
G1 X91.253 Y190.423 E.03764
G1 X90.582 Y190.627 E.02199
G1 X90.672 Y191.339 E.0225
G1 X90.56 Y192.477 E.03585
G1 X90.195 Y193.565 E.03598
G1 X89.595 Y194.546 E.03606
G1 X88.788 Y195.369 E.03614
G1 X87.814 Y195.991 E.03624
G1 X86.724 Y196.378 E.03627
G1 X85.575 Y196.508 E.03626
G1 X84.425 Y196.376 E.03629
G1 X83.336 Y195.988 E.03625
G1 X82.364 Y195.365 E.0362
G1 X81.558 Y194.542 E.03612
G1 X80.959 Y193.561 E.03604
G1 X80.596 Y192.474 E.03593
G1 X80.484 Y191.336 E.03585
G1 X80.628 Y190.206 E.03572
G1 X81.017 Y189.14 E.03558
G1 X81.631 Y188.188 E.03552
G1 X82.437 Y187.398 E.03539
G1 X83.964 Y186.453 E.0563
G1 X83.964 Y188.949 E.07826
G1 X84.245 Y189.23 E.01246
G1 X88.037 Y189.23 E.1189
G1 X88.318 Y188.949 E.01246
G1 X88.318 Y181.63 E.22948
G1 X94.712 Y181.63 E.20048
G1 X94.712 Y187.23 E.17558
M204 S1000
G1 X94.174 Y187.607 F10800
M204 S800
G1 F1200
G1 X94.174 Y181.969 E.17678
G1 X93.755 Y181.969 E.01314
G1 X93.755 Y187.789 E.18248
G1 X93.336 Y188.075 E.01591
G1 X93.336 Y181.969 E.19145
G1 X92.917 Y181.969 E.01314
G1 X92.917 Y188.361 E.20042
G1 X92.498 Y188.97 E.02318
G1 X92.498 Y181.969 E.21951
G1 X92.079 Y181.969 E.01314
G1 X92.079 Y189.457 E.23478
G1 X91.66 Y189.753 E.01608
G1 X91.66 Y181.969 E.24406
G1 X91.241 Y181.969 E.01314
G1 X91.241 Y190.026 E.25262
G1 X90.822 Y190.2 E.01423
G1 X90.822 Y181.969 E.25808
G1 X90.403 Y181.969 E.01314
G1 X90.403 Y190.327 E.26206
G1 X90.209 Y190.386 E.00636
G1 X90.331 Y191.343 E.03025
G1 X90.226 Y192.406 E.03349
G1 X89.984 Y193.128 E.02388
G1 X89.984 Y181.969 E.34988
G1 X89.565 Y181.969 E.01314
G1 X89.565 Y193.945 E.3755
G1 X89.146 Y194.519 E.02228
G1 X89.146 Y181.969 E.3935
G1 X88.727 Y181.969 E.01314
G1 X88.727 Y194.947 E.40692
G1 X88.308 Y195.273 E.01665
G1 X88.308 Y189.438 E.18295
G1 X88.177 Y189.569 E.00581
G1 X87.889 Y189.569 E.00903
G1 X87.889 Y195.541 E.18725
G1 X87.47 Y195.753 E.01472
G1 X87.47 Y189.569 E.19389
G1 X87.051 Y189.569 E.01314
G1 X87.051 Y195.902 E.19857
G1 X86.632 Y196.047 E.0139
G1 X86.632 Y189.569 E.20311
G1 X86.213 Y189.569 E.01314
G1 X86.213 Y196.094 E.20459
G1 X85.794 Y196.142 E.01322
G1 X85.794 Y189.569 E.20609
G1 X85.375 Y189.569 E.01314
G1 X85.375 Y196.144 E.20615
G1 X84.956 Y196.096 E.01322
G1 X84.956 Y189.569 E.20465
M73 P0 R164
G1 X84.537 Y189.569 E.01314
G1 X84.537 Y196.047 E.20311
G1 X84.118 Y195.907 E.01385
G1 X84.118 Y189.569 E.19872
G1 X83.699 Y189.165 E.01825
G1 X83.699 Y195.757 E.20669
G1 X83.28 Y195.549 E.01467
G1 X83.28 Y187.275 E.25943
G1 X82.861 Y187.534 E.01544
G1 X82.861 Y195.281 E.2429
G1 X82.442 Y194.96 E.01655
G1 X82.442 Y187.868 E.22236
G1 X82.023 Y188.279 E.0184
G1 X82.023 Y194.532 E.19606
G1 X81.604 Y193.966 E.02208
G1 X81.604 Y188.855 E.16025
G1 X81.323 Y189.292 E.01629
G1 X81.185 Y189.669 E.01259
G1 X81.185 Y193.605 E.12341
M204 S1000
;WIPE_START
G1 F8640
G1 X81.185 Y189.669 E-.90883
G1 X81.321 Y189.298 E-.09117
;WIPE_END
G1 Z.4 F720
G1 X86.955 Y180.287 F10800
G1 Z.2 F720
G1 E1 F2100
M204 S800
;TYPE:Perimeter
;WIDTH:0.419999
G1 F1200
G1 X86.716 Y180.649 E.0136
G1 X86.674 Y180.929 E.00888
G1 X86.674 Y187.586 E.20873
G1 X85.608 Y187.586 E.03342
G1 X85.608 Y179.914 E.24055
G1 X86.895 Y179.914 E.04035
;WIDTH:0.463261
G1 X87.171 Y179.936 E.00968
;WIDTH:0.506522
G1 X87.446 Y179.957 E.01063
G1 X87.225 Y180.084 E.00983
;WIDTH:0.463261
G1 X87.005 Y180.211 E.00888
;WIDTH:0.419999
G1 X86.988 Y180.237 E.00097
M204 S1000
G1 X87.446 Y179.957 F10800
M204 S800
;WIDTH:0.506522
G1 F1200
G1 X87.616 Y179.95 E.00656
;WIDTH:0.491692
G1 X95.413 Y179.95 E.29095
M204 S1000
M204 S800
G1 X95.773 Y179.932 E.01345
;WIDTH:0.455846
G1 X96.134 Y179.914 E.01241
;WIDTH:0.419999
G1 X97.422 Y179.914 E.04038
G1 X97.422 Y180.481 E.01778
G1 X97.422 Y187.586 E.22277
G1 X96.356 Y187.586 E.03342
G1 X96.356 Y180.929 E.20873
G1 X96.313 Y180.649 E.00888
G1 X96.025 Y180.211 E.01644
;WIDTH:0.455846
G1 X95.719 Y180.081 E.01142
;WIDTH:0.491692
G1 X95.468 Y179.974 E.01018
M204 S1000
;WIPE_START
G1 F8640
G1 X95.413 Y179.95 E-.01386
G1 X95.773 Y179.932 E-.08323
G1 X96.134 Y179.914 E-.08346
G1 X97.422 Y179.914 E-.2974
G1 X97.422 Y180.481 E-.13092
G1 X97.422 Y182.175 E-.39113
;WIPE_END
G1 Z.4 F720
G1 X87.215 Y180.55 F10800
G1 Z.2 F720
G1 E1 F2100
M204 S800
;WIDTH:0.419999
G1 F1200
G1 X87.076 Y180.761 E.00792
G1 X87.051 Y180.929 E.00533
G1 X87.051 Y187.963 E.22055
G1 X85.231 Y187.963 E.05706
G1 X85.231 Y179.537 E.26419
G1 X97.799 Y179.537 E.39406
G1 X97.799 Y180.481 E.0296
G1 X97.799 Y187.963 E.23459
G1 X95.979 Y187.963 E.05706
G1 X95.979 Y180.929 E.22055
G1 X95.953 Y180.761 E.00533
G1 X95.78 Y180.498 E.00987
G1 X95.413 Y180.363 E.01226
G1 X87.616 Y180.363 E.24447
G1 X87.518 Y180.371 E.00308
G1 X87.249 Y180.498 E.00933
G1 X87.248 Y180.5 E.00007
M204 S1000
G1 X87.475 Y180.826 F10800
M204 S800
;TYPE:External perimeter
G1 F1200
G1 X87.428 Y180.929 E.00355
G1 X87.428 Y188.34 E.23237
G1 X84.854 Y188.34 E.08071
G1 X84.854 Y179.16 E.28783
G1 X98.176 Y179.16 E.4177
G1 X98.176 Y180.481 E.04142
G1 X98.176 Y188.34 E.24641
G1 X95.602 Y188.34 E.08071
G1 X95.602 Y180.929 E.23237
G1 X95.535 Y180.785 E.00498
G1 X95.413 Y180.74 E.00408
G1 X87.616 Y180.74 E.24447
G1 X87.507 Y180.78 E.00364
M204 S1000
;WIPE_START
G1 F8640
G1 X87.475 Y180.826 E-.01294
G1 X87.428 Y180.929 E-.02614
G1 X87.428 Y185.091 E-.96092
;WIPE_END
G1 Z.4 F720
G1 X86.174 Y180.065 F10800
G1 Z.2 F720
G1 E1 F2100
M204 S800
;TYPE:Solid infill
;WIDTH:0.424422
G1 F1200
G1 X86.507 Y180.398 E.01494
G1 X86.41 Y180.545 E.00559
G1 X86.371 Y180.801 E.00821
G1 X85.928 Y180.359 E.01985
G1 X85.928 Y180.898 E.0171
G1 X86.353 Y181.323 E.01907
G1 X86.353 Y181.863 E.01713
G1 X85.928 Y181.438 E.01907
G1 X85.928 Y181.977 E.0171
G1 X86.353 Y182.402 E.01907
G1 X86.353 Y182.942 E.01713
G1 X85.928 Y182.517 E.01907
G1 X85.928 Y183.057 E.01713
G1 X86.353 Y183.481 E.01904
G1 X86.353 Y184.021 E.01713
G1 X85.928 Y183.596 E.01907
G1 X85.928 Y184.136 E.01713
G1 X86.353 Y184.56 E.01904
G1 X86.353 Y185.1 E.01713
G1 X85.928 Y184.675 E.01907
G1 X85.928 Y185.215 E.01713
G1 X86.353 Y185.639 E.01904
G1 X86.353 Y186.179 E.01713
G1 X85.928 Y185.754 E.01907
G1 X85.928 Y186.294 E.01713
G1 X86.353 Y186.718 E.01904
G1 X86.353 Y187.258 E.01713
G1 X85.759 Y186.664 E.02665
M204 S1000
;WIPE_START
G1 F8640
G1 X86.353 Y187.258 E-.19397
G1 X86.353 Y186.718 E-.12469
G1 X85.928 Y186.294 E-.13862
G1 X85.928 Y185.754 E-.12469
G1 X86.353 Y186.179 E-.13878
G1 X86.353 Y185.639 E-.12469
G1 X85.928 Y185.215 E-.13862
G1 X85.928 Y185.146 E-.01594
;WIPE_END
G1 Z.4 F720
G1 X96.487 Y180.065 F10800
G1 Z.2 F720
G1 E1 F2100
M204 S800
;WIDTH:0.429924
G1 F1200
G1 X97.101 Y180.679 E.02794
G1 X97.101 Y181.226 E.0176
G1 X96.655 Y180.78 E.0203
G1 X96.676 Y180.919 E.00452
G1 X96.676 Y181.348 E.01381
G1 X97.101 Y181.773 E.01934
G1 X97.101 Y182.321 E.01763
G1 X96.676 Y181.896 E.01934
G1 X96.676 Y182.443 E.0176
G1 X97.101 Y182.868 E.01934
G1 X97.101 Y183.415 E.0176
G1 X96.676 Y182.99 E.01934
G1 X96.676 Y183.538 E.01763
G1 X97.101 Y183.962 E.01932
G1 X97.101 Y184.51 E.01763
G1 X96.676 Y184.085 E.01934
G1 X96.676 Y184.632 E.0176
G1 X97.101 Y185.057 E.01934
G1 X97.101 Y185.604 E.0176
G1 X96.676 Y185.18 E.01932
G1 X96.676 Y185.727 E.0176
G1 X97.101 Y186.152 E.01934
G1 X97.101 Y186.699 E.0176
G1 X96.676 Y186.274 E.01934
G1 X96.676 Y186.822 E.01763
G1 X97.271 Y187.416 E.02705
M204 S1000
;WIPE_START
G1 F8640
G1 X96.676 Y186.822 E-.19413
G1 X96.676 Y186.274 E-.12653
G1 X97.101 Y186.699 E-.13878
G1 X97.101 Y186.152 E-.1263
G1 X96.676 Y185.727 E-.13878
G1 X96.676 Y185.18 E-.1263
G1 X97.101 Y185.604 E-.13862
G1 X97.101 Y185.558 E-.01056
;WIPE_END
G1 Z.4 F720
G1 X85.087 Y22.5 F10800
G1 Z.2 F720
G1 E1 F2100
M204 S800
;TYPE:Perimeter
;WIDTH:0.591684
G1 F1200
G1 X86.271 Y22.5 E.05403
M204 S1000
G1 X86.937 Y22.037 F10800
M204 S800
;WIDTH:0.419999
G1 F1200
G1 X86.734 Y22.279 E.0099
G1 X86.734 Y22.963 E.02145
G1 X84.625 Y22.963 E.06613
G1 X84.625 Y22.037 E.02903
G1 X86.877 Y22.037 E.07061
M204 S1000
;WIPE_START
G1 F8640
G1 X86.937 Y22.037 E-.01385
G1 X86.734 Y22.279 E-.07293
G1 X86.734 Y22.963 E-.15794
G1 X84.625 Y22.963 E-.48697
G1 X84.625 Y22.037 E-.21382
G1 X84.861 Y22.037 E-.05449
;WIPE_END
G1 Z.4 F720
G1 X121.599 Y22.5 F10800
G1 Z.2 F720
G1 E1 F2100
M204 S800
;WIDTH:0.591684
G1 F1200
G1 X122.783 Y22.5 E.05403
M204 S1000
;WIPE_START
G1 F8640
G1 X121.599 Y22.5 E-.27339
;WIPE_END
G1 E-.72661 F2100
G1 Z.4 F720
G1 X120.895 Y22.037 F10800
G1 Z.2 F720
G1 E1 F2100
M204 S800
;WIDTH:0.419999
G1 F1200
G1 X123.246 Y22.037 E.07371
G1 X123.246 Y22.5 E.01452
G1 X123.246 Y22.963 E.01452
G1 X121.136 Y22.963 E.06616
G1 X121.136 Y22.279 E.02145
G1 X120.937 Y22.079 E.00885
M204 S1000
;WIPE_START
G1 F8640
G1 X120.895 Y22.037 E-.01371
G1 X123.246 Y22.037 E-.54285
G1 X123.246 Y22.5 E-.10691
G1 X123.246 Y22.963 E-.10691
G1 X122.252 Y22.963 E-.22962
;WIPE_END
G1 Z.4 F720
G1 X95.285 Y22.5 F10800
G1 Z.2 F720
G1 E1 F2100
M204 S800
;WIDTH:0.591684
G1 F1200
G1 X99.157 Y22.5 E.17668
M204 S1000
;WIPE_START
G1 F8640
G1 X95.285 Y22.5 E-.89406
;WIPE_END
G1 E-.10594 F2100
G1 Z.4 F720
G1 X108.061 Y22.887 F10800
G1 Z.2 F720
G1 E1 F2100
M204 S800
;WIDTH:0.419999
G1 F1200
G1 X107.844 Y23.166 E.01108
G1 X107.771 Y23.529 E.01161
G1 X107.771 Y54.778 E.97979
G1 X90.577 Y84.559 E1.07821
G1 X90.524 Y84.757 E.00643
G1 X82.779 Y84.757 E.24284
G1 X82.779 Y82.722 E.06381
G1 X100.028 Y52.83 E1.08209
G1 X100.099 Y52.47 E.0115
G1 X100.099 Y23.529 E.90742
G1 X100.027 Y23.166 E.0116
G1 X99.722 Y22.774 E.01557
;WIDTH:0.462921
G1 X99.581 Y22.706 E.00547
;WIDTH:0.505842
G1 X99.439 Y22.637 E.00608
;WIDTH:0.548763
G1 X99.298 Y22.569 E.00658
;WIDTH:0.591684
G1 X99.157 Y22.5 E.00716
G1 X99.328 Y22.479 E.00786
;WIDTH:0.548763
G1 X99.499 Y22.457 E.00725
;WIDTH:0.505842
G1 X99.671 Y22.436 E.00667
;WIDTH:0.462921
G1 X99.842 Y22.414 E.00602
;WIDTH:0.419999
G1 X108.028 Y22.414 E.25667
;WIDTH:0.466817
G1 X108.155 Y22.438 E.00456
;WIDTH:0.513635
G1 X108.281 Y22.461 E.00501
;WIDTH:0.560453
G1 X108.408 Y22.484 E.00555
;WIDTH:0.60727
