; generated by PrusaSlicer 2.9.3 on 2025-09-30 at 16:00:55 UTC


;
;
; 

; external perimeters extrusion width = 0.45mm
; perimeters extrusion width = 0.45mm
; infill extrusion width = 0.45mm
; solid infill extrusion width = 0.45mm
; top infill extrusion width = 0.40mm
; support material extrusion width = 0.35mm
; first layer extrusion width = 0.42mm

M73 P0 R85
M73 Q0 S86
M201 X1000 Y1000 Z200 E5000 ; sets maximum accelerations, mm/sec^2
M203 X200 Y200 Z12 E120 ; sets maximum feedrates, mm / sec
M204 S1250 T1250 ; sets acceleration (S) and retract acceleration (R), mm/sec^2
M205 X8.00 Y8.00 Z0.40 E4.50 ; sets the jerk limits, mm/sec
M205 S0 T0 ; sets the minimum extruding and travel feed rate, mm/sec

; printing object D id:0 copy 0
; stop printing object D id:0 copy 0

;TYPE:Custom
M862.3 P "MK3" ; printer model check
M862.1 P0.4 ; nozzle diameter check
M115 U3.14.1 ; tell printer latest fw version
G90 ; use absolute coordinates
M83 ; extruder relative mode
M104 S250 ; set extruder temp
M140 S85 ; set bed temp
M190 S85 ; wait for bed temp
M109 S250 ; wait for extruder temp
G28 W ; home all without mesh bed level
G80 X70.866 Y21.3729 W109.947 H167.254 ; mesh bed levelling

G1 Z0.2 F720
G1 Y-3 F1000 ; go outside print area
G92 E0
G1 X60 E9 F1000 ; intro line
G1 X100 E12.5 F1000 ; intro line

G92 E0
M221 S95

; Don't change E values below. Excessive value can damage the printer.
M907 E430 ; set extruder motor current
G21 ; set units to millimeters
G90 ; use absolute coordinates
M83 ; use relative distances for extrusion

M900 K0.08 ; Filament gcode LA 1.5
M900 K45 ; Filament gcode LA 1.0




M107
;LAYER_CHANGE
;Z:0.2
;HEIGHT:0.2
G1 E-1 F2100
G1 Z.4 F720
G1 X71.445 Y22.502 F10800
G1 Z.2 F720
G1 E1 F2100
M204 S800
;TYPE:Skirt/Brim
;WIDTH:0.42
G1 F1200
G1 X72.478 Y21.699 E.04102
G1 X73.243 Y21.561 E.02437
G1 X113.628 Y21.561 E1.26624
G1 X114.876 Y21.952 E.04101
G1 X115.642 Y22.894 E.03807
G1 X180.45 Y175.394 E5.19539
G1 X180.624 Y176.25 E.02739
G1 X180.624 Y186.25 E.31354
G1 X180.233 Y187.498 E.04101
G1 X179.2 Y188.301 E.04102
G1 X178.436 Y188.439 E.02434
G1 X125.999 Y188.387 E1.64413
G1 X121.663 Y188.036 E.1364
G1 X117.806 Y187.442 E.12236
G1 X113.565 Y186.471 E.13641
G1 X109.393 Y185.175 E.13698
G1 X106.654 Y184.128 E.09194
G1 X103.568 Y182.749 E.10598
G1 X100.962 Y181.407 E.09191
G1 X98.443 Y179.943 E.09135
G1 X95.619 Y178.086 E.10597
G1 X93.277 Y176.354 E.09133
G1 X91.011 Y174.493 E.09194
G1 X88.522 Y172.207 E.10596
G1 X86.488 Y170.121 E.09135
G1 X84.551 Y167.92 E.09193
G1 X82.462 Y165.264 E.10595
G1 X80.779 Y162.863 E.09193
G1 X78.995 Y159.992 E.10598
M73 Q0 S85
G1 X77.589 Y157.425 E.09177
G1 X76.32 Y154.798 E.09147
G1 X75.02 Y151.678 E.10598
G1 X73.604 Y147.5 E.13832
G1 X72.97 Y145.181 E.07538
G1 X72.428 Y142.814 E.07614
G1 X71.988 Y140.427 E.0761
G1 X71.649 Y138.023 E.07612
G1 X71.413 Y135.607 E.07611
G1 X71.28 Y133.183 E.07612
G1 X71.055 Y23.75 E3.4312
G1 X71.427 Y22.559 E.03912
M204 S1000
;WIPE_START
G1 F8640
G1 X71.445 Y22.502 E-.0138
G1 X72.478 Y21.699 E-.30211
G1 X73.243 Y21.561 E-.17949
G1 X75.428 Y21.561 E-.5046
;WIPE_END
G1 Z.4 F720
; printing object D id:0 copy 0
G1 X97.561 Y25.387 F10800
G1 Z.2 F720
G1 E1 F2100
M204 S800
;TYPE:Perimeter
;WIDTH:0.419999
G1 F1200
G1 X97.344 Y25.666 E.01108
G1 X97.271 Y26.029 E.01161
G1 X97.271 Y57.839 E.99738
G1 X82.547 Y72.563 E.65289
G1 X82.343 Y72.869 E.01153
G1 X82.271 Y73.229 E.01151
G1 X82.271 Y131.219 E1.81823
G1 X82.324 Y133.442 E.06972
G1 X82.474 Y135.564 E.0667
G1 X82.674 Y137.333 E.05582
G1 X83.009 Y139.469 E.06779
G1 X83.351 Y141.177 E.05462
G1 X83.758 Y142.87 E.0546
G1 X84.34 Y144.915 E.06667
G1 X84.887 Y146.568 E.05459
G1 X85.654 Y148.594 E.06792
G1 X86.535 Y150.627 E.06947
G1 X87.492 Y152.575 E.06805
G1 X88.535 Y154.467 E.06774
G1 X89.204 Y155.582 E.04077
G1 X89.914 Y156.69 E.04126
G1 X91.152 Y158.473 E.06806
G1 X92.47 Y160.192 E.06792
G1 X93.281 Y161.172 E.03988
G1 X94.137 Y162.148 E.0407
G1 X95.655 Y163.755 E.06931
G1 X97.213 Y165.254 E.06779
G1 X98.185 Y166.121 E.04084
G1 X99.184 Y166.964 E.04098
G1 X100.899 Y168.302 E.0682
G1 X102.671 Y169.556 E.06806
G1 X104.5 Y170.724 E.06804
G1 X106.383 Y171.806 E.06809
G1 X108.306 Y172.794 E.06779
G1 X109.486 Y173.346 E.04085
M73 P0 R84
G1 X110.69 Y173.867 E.04113
G1 X112.699 Y174.649 E.06759
G1 X114.357 Y175.215 E.05493
G1 X116.396 Y175.816 E.06665
G1 X118.399 Y176.307 E.06466
G1 X120.67 Y176.756 E.07258
G1 X122.392 Y177.017 E.05461
G1 X124.082 Y177.208 E.05333
G1 X126.287 Y177.364 E.06931
G1 X128.435 Y177.414 E.06737
G1 X177.271 Y177.414 E1.53122
G1 X177.271 Y181.25 E.12027
G1 X177.271 Y185.086 E.12027
G1 X128.446 Y185.086 E1.53087
G1 X126.149 Y185.037 E.07204
G1 X124.328 Y184.929 E.0572
G1 X122.049 Y184.706 E.0718
G1 X120.24 Y184.458 E.05725
G1 X118.438 Y184.149 E.05733
G1 X116.647 Y183.779 E.05734
G1 X114.87 Y183.349 E.05732
G1 X113.109 Y182.858 E.05732
G1 X111.363 Y182.307 E.05741
G1 X110.07 Y181.856 E.04294
G1 X108.785 Y181.371 E.04306
G1 X107.095 Y180.675 E.05731
G1 X105.845 Y180.117 E.04292
G1 X104.607 Y179.525 E.04303
G1 X103.388 Y178.904 E.04289
G1 X101.78 Y178.024 E.05747
G1 X100.599 Y177.331 E.04293
G1 X99.435 Y176.607 E.04298
G1 X98.289 Y175.853 E.04301
G1 X97.163 Y175.071 E.04298
G1 X96.057 Y174.26 E.043
G1 X94.972 Y173.422 E.04298
G1 X93.908 Y172.556 E.04301
G1 X92.869 Y171.664 E.04294
G1 X91.514 Y170.43 E.05746
G1 X90.53 Y169.479 E.04291
G1 X89.568 Y168.501 E.04301
G1 X88.634 Y167.501 E.0429
G1 X87.423 Y166.125 E.05747
G1 X86.549 Y165.071 E.04293
G1 X85.702 Y163.993 E.04298
G1 X84.882 Y162.894 E.04299
G1 X84.09 Y161.774 E.04301
G1 X83.327 Y160.635 E.04298
G1 X82.593 Y159.476 E.04301
G1 X81.889 Y158.3 E.04297
G1 X81.215 Y157.105 E.04302
G1 X80.572 Y155.894 E.04299
G1 X79.96 Y154.669 E.04294
G1 X79.192 Y153.006 E.05743
G1 X78.656 Y151.75 E.04282
G1 X77.829 Y149.615 E.07179
G1 X77.095 Y147.451 E.07165
G1 X76.454 Y145.257 E.07167
G1 X75.906 Y143.038 E.07167
G1 X75.453 Y140.798 E.07166
G1 X75.096 Y138.541 E.07165
G1 X74.835 Y136.271 E.07164
G1 X74.669 Y133.987 E.0718
G1 X74.617 Y132.621 E.04286
G1 X74.6 Y131.243 E.04321
G1 X74.6 Y69.661 E1.93086
G1 X89.324 Y54.937 E.65289
M73 P1 R84
M73 Q1 S85
G1 X89.528 Y54.631 E.01153
G1 X89.6 Y54.271 E.01151
G1 X89.6 Y26.029 E.88551
G1 X89.527 Y25.666 E.01161
G1 X89.223 Y25.274 E.01555
;WIDTH:0.462921
G1 X89.081 Y25.206 E.0055
;WIDTH:0.505842
G1 X88.94 Y25.137 E.00604
;WIDTH:0.548763
G1 X88.798 Y25.069 E.00662
;WIDTH:0.591684
G1 X88.657 Y25 E.00716
G1 X88.828 Y24.979 E.00786
;WIDTH:0.548763
G1 X89 Y24.957 E.00729
;WIDTH:0.505842
G1 X89.171 Y24.936 E.00663
;WIDTH:0.462921
G1 X89.343 Y24.914 E.00606
;WIDTH:0.419999
G1 X97.528 Y24.914 E.25663
;WIDTH:0.466817
G1 X97.655 Y24.938 E.00456
;WIDTH:0.513635
G1 X97.782 Y24.961 E.00505
;WIDTH:0.560453
G1 X97.908 Y24.984 E.00551
;WIDTH:0.60727
G1 X98.035 Y25.008 E.00607
G1 X97.938 Y25.074 E.00551
;WIDTH:0.560453
G1 X97.842 Y25.141 E.00504
;WIDTH:0.513635
G1 X97.745 Y25.208 E.00461
;WIDTH:0.466817
G1 X97.648 Y25.274 E.00414
;WIDTH:0.419999
G1 X97.598 Y25.339 E.00257
M204 S1000
;WIPE_START
G1 F8640
G1 X97.561 Y25.387 E-.01399
G1 X97.344 Y25.666 E-.08161
G1 X97.271 Y26.029 E-.0855
G1 X97.271 Y29.575 E-.8189
;WIPE_END
G1 Z.4 F720
G1 X84.786 Y25 F10800
G1 Z.2 F720
G1 E1 F2100
M204 S800
;WIDTH:0.591684
G1 F1200
G1 X88.657 Y25 E.17663
M204 S1000
;WIPE_START
G1 F8640
G1 X84.786 Y25 E-.89382
;WIPE_END
G1 E-.10618 F2100
G1 Z.4 F720
G1 X102.086 Y25 F10800
G1 Z.2 F720
G1 E1 F2100
M204 S800
G1 F1200
G1 X98.214 Y25 E.17668
;WIDTH:0.60727
G1 X98.035 Y25.008 E.00841
M204 S1000
G1 X97.819 Y25.647 F10800
M204 S800
;WIDTH:0.419999
G1 F1200
G1 X97.692 Y25.811 E.0065
G1 X97.648 Y26.029 E.00697
G1 X97.648 Y57.995 E1.00227
G1 X82.814 Y72.829 E.65776
G1 X82.692 Y73.013 E.00692
G1 X82.648 Y73.229 E.00691
G1 X82.648 Y131.219 E1.81823
G1 X82.7 Y133.416 E.0689
G1 X82.85 Y135.537 E.06667
G1 X83.047 Y137.275 E.05484
G1 X83.375 Y139.372 E.06655
G1 X83.714 Y141.068 E.05423
G1 X84.121 Y142.766 E.05475
G1 X84.71 Y144.834 E.06742
G1 X85.253 Y146.472 E.05411
G1 X86.006 Y148.461 E.06668
G1 X86.874 Y150.461 E.06836
G1 X87.823 Y152.393 E.06749
G1 X88.858 Y154.274 E.06732
G1 X89.523 Y155.38 E.04046
G1 X90.224 Y156.475 E.04077
G1 X91.436 Y158.222 E.06667
G1 X92.748 Y159.935 E.06765
G1 X93.582 Y160.943 E.04102
G1 X94.435 Y161.916 E.04057
G1 X95.917 Y163.483 E.06763
G1 X97.46 Y164.969 E.06717
G1 X98.428 Y165.833 E.04068
G1 X99.417 Y166.667 E.04056
G1 X101.117 Y167.994 E.06762
G1 X102.875 Y169.238 E.06753
G1 X104.688 Y170.397 E.06747
G1 X106.555 Y171.471 E.06753
G1 X108.466 Y172.453 E.06737
G1 X109.636 Y173 E.0405
G1 X110.827 Y173.515 E.04068
G1 X112.823 Y174.293 E.06717
G1 X114.463 Y174.853 E.05434
G1 X116.503 Y175.455 E.06669
G1 X118.489 Y175.941 E.06411
G1 X120.727 Y176.383 E.07153
G1 X122.434 Y176.642 E.05413
G1 X124.125 Y176.834 E.05336
G1 X126.296 Y176.987 E.06824
G1 X128.435 Y177.037 E.06709
G1 X177.648 Y177.037 E1.54304
G1 X177.648 Y181.25 E.1321
G1 X177.648 Y185.463 E.1321
G1 X128.442 Y185.463 E1.54282
G1 X126.133 Y185.414 E.07241
G1 X124.298 Y185.305 E.05764
G1 X122.005 Y185.08 E.07224
G1 X120.182 Y184.831 E.05769
G1 X118.367 Y184.52 E.05774
G1 X116.564 Y184.147 E.05773
G1 X114.775 Y183.714 E.05771
G1 X113.001 Y183.219 E.05775
G1 X111.245 Y182.665 E.05773
G1 X109.942 Y182.211 E.04326
G1 X108.647 Y181.722 E.0434
G1 X106.946 Y181.022 E.05767
G1 X105.687 Y180.459 E.04324
G1 X104.441 Y179.864 E.04329
G1 X103.211 Y179.237 E.04329
G1 X101.594 Y178.352 E.0578
G1 X100.404 Y177.653 E.04327
G1 X99.232 Y176.925 E.04326
G1 X98.078 Y176.166 E.04331
G1 X96.944 Y175.378 E.0433
G1 X95.83 Y174.562 E.0433
G1 X94.737 Y173.717 E.04332
G1 X93.667 Y172.845 E.04328
G1 X92.619 Y171.947 E.04327
G1 X91.256 Y170.705 E.05782
G1 X90.264 Y169.747 E.04324
G1 X89.296 Y168.762 E.0433
G1 X88.354 Y167.754 E.04326
G1 X87.136 Y166.37 E.05781
G1 X86.256 Y165.308 E.04324
G1 X85.402 Y164.222 E.04332
G1 X84.576 Y163.116 E.04328
G1 X83.779 Y161.988 E.04331
G1 X83.011 Y160.841 E.04328
G1 X82.272 Y159.674 E.04331
G1 X81.563 Y158.489 E.0433
G1 X80.884 Y157.287 E.04329
G1 X80.236 Y156.067 E.04331
G1 X79.621 Y154.832 E.04326
G1 X78.847 Y153.159 E.0578
G1 X78.306 Y151.892 E.0432
G1 X77.475 Y149.744 E.07221
G1 X76.736 Y147.564 E.07217
G1 X76.09 Y145.355 E.07216
G1 X75.538 Y143.121 E.07215
G1 X75.082 Y140.865 E.07217
G1 X74.722 Y138.592 E.07216
G1 X74.459 Y136.306 E.07215
G1 X74.293 Y134.008 E.07224
G1 X74.24 Y132.631 E.04321
G1 X74.223 Y131.246 E.04343
G1 X74.223 Y69.505 E1.93584
G1 X89.057 Y54.671 E.65776
G1 X89.18 Y54.487 E.00694
G1 X89.223 Y54.271 E.00691
G1 X89.223 Y26.029 E.88551
G1 X89.179 Y25.811 E.00697
G1 X88.996 Y25.576 E.00934
G1 X88.657 Y25.463 E.0112
G1 X84.323 Y25.463 E.13589
G1 X84.323 Y24.779 E.02145
G1 X84.081 Y24.537 E.01073
G1 X102.751 Y24.537 E.58538
G1 X102.548 Y24.779 E.0099
G1 X102.548 Y25.463 E.02145
G1 X98.214 Y25.463 E.13589
M73 Q1 S84
G1 X97.875 Y25.576 E.0112
G1 X97.856 Y25.6 E.00096
M204 S1000
;WIPE_START
G1 F8640
G1 X97.819 Y25.647 E-.01381
G1 X97.692 Y25.811 E-.04789
G1 X97.648 Y26.029 E-.05135
G1 X97.648 Y29.87 E-.88695
;WIPE_END
G1 Z.4 F720
G1 X74.868 Y25 F10800
G1 Z.2 F720
G1 E1 F2100
M204 S800
;WIDTH:0.591684
G1 F1200
G1 X75.772 Y25 E.04125
M204 S1000
G1 X76.437 Y24.537 F10800
M204 S800
;WIDTH:0.419999
G1 F1200
G1 X76.234 Y24.779 E.0099
G1 X76.234 Y25.463 E.02145
G1 X74.405 Y25.463 E.05735
G1 X74.405 Y24.537 E.02903
G1 X76.377 Y24.537 E.06183
M204 S1000
;WIPE_START
G1 F8640
G1 X76.437 Y24.537 E-.01385
G1 X76.234 Y24.779 E-.07293
G1 X76.234 Y25.463 E-.15794
G1 X74.405 Y25.463 E-.42232
G1 X74.405 Y24.537 E-.21382
G1 X74.921 Y24.537 E-.11914
;WIPE_END
G1 Z.4 F720
G1 X112.003 Y25 F10800
G1 Z.2 F720
G1 E1 F2100
M204 S800
;WIDTH:0.591684
G1 F1200
G1 X111.1 Y25 E.0412
M204 S1000
G1 X110.395 Y24.537 F10800
M204 S800
;WIDTH:0.419999
G1 F1200
G1 X112.466 Y24.537 E.06493
G1 X112.466 Y25.463 E.02903
G1 X110.637 Y25.463 E.05735
G1 X110.637 Y24.779 E.02145
G1 X110.438 Y24.579 E.00885
M204 S1000
;WIPE_START
G1 F8640
G1 X110.395 Y24.537 E-.01388
G1 X112.466 Y24.537 E-.4782
G1 X112.466 Y25.463 E-.21382
G1 X111.192 Y25.463 E-.2941
;WIPE_END
G1 Z.4 F720
G1 X98.077 Y25.926 F10800
G1 Z.2 F720
G1 E1 F2100
M204 S800
;TYPE:External perimeter
G1 F1200
G1 X98.026 Y26.029 E.0036
G1 X98.026 Y58.151 E1.00716
G1 X83.081 Y73.096 E.66269
G1 X83.026 Y73.229 E.00451
G1 X83.026 Y131.253 E1.8193
G1 X83.076 Y133.389 E.06699
G1 X83.226 Y135.511 E.0667
G1 X83.419 Y137.217 E.05383
G1 X83.749 Y139.321 E.06678
G1 X84.085 Y141.001 E.05372
G1 X84.481 Y142.655 E.05333
G1 X85.066 Y144.708 E.06693
G1 X85.606 Y146.339 E.05387
G1 X86.362 Y148.335 E.06692
G1 X87.212 Y150.294 E.06696
G1 X88.152 Y152.209 E.06689
G1 X89.18 Y154.078 E.06688
G1 X89.841 Y155.178 E.04024
G1 X90.532 Y156.257 E.04017
G1 X91.75 Y158.012 E.06698
G1 X93.051 Y159.711 E.0671
G1 X93.866 Y160.695 E.04006
G1 X94.709 Y161.657 E.04011
G1 X96.178 Y163.211 E.06705
G1 X97.714 Y164.69 E.06686
G1 X98.671 Y165.545 E.04024
G1 X99.649 Y166.369 E.0401
G1 X101.332 Y167.685 E.06699
G1 X103.07 Y168.915 E.06676
G1 X104.877 Y170.071 E.06726
G1 X106.728 Y171.135 E.06694
G1 X108.625 Y172.111 E.06689
G1 X109.784 Y172.653 E.04012
G1 X110.964 Y173.164 E.04032
G1 X112.947 Y173.937 E.06673
G1 X114.57 Y174.491 E.05377
G1 X116.61 Y175.093 E.06669
G1 X118.578 Y175.575 E.06353
G1 X120.783 Y176.011 E.07047
G1 X122.476 Y176.267 E.05369
G1 X124.167 Y176.459 E.05336
G1 X126.305 Y176.61 E.0672
G1 X128.435 Y176.66 E.0668
G1 X178.026 Y176.66 E1.55489
G1 X178.026 Y181.25 E.14392
G1 X178.026 Y185.84 E.14392
G1 X128.438 Y185.84 E1.55479
G1 X126.118 Y185.791 E.07276
M73 P1 R83
G1 X124.269 Y185.681 E.05808
G1 X121.961 Y185.455 E.07271
G1 X120.125 Y185.204 E.0581
G1 X118.297 Y184.89 E.05815
G1 X116.482 Y184.515 E.05811
G1 X114.68 Y184.079 E.05813
G1 X112.894 Y183.581 E.05813
G1 X111.126 Y183.023 E.05813
G1 X109.813 Y182.565 E.0436
G1 X108.508 Y182.073 E.04373
G1 X106.797 Y181.368 E.05802
G1 X105.528 Y180.801 E.04358
G1 X104.274 Y180.202 E.04357
G1 X103.035 Y179.571 E.0436
G1 X101.408 Y178.68 E.05816
G1 X100.209 Y177.976 E.04359
G1 X99.028 Y177.242 E.0436
G1 X97.867 Y176.478 E.04358
G1 X96.725 Y175.685 E.04359
G1 X95.603 Y174.863 E.04361
G1 X94.503 Y174.013 E.04359
G1 X93.425 Y173.135 E.04359
G1 X92.37 Y172.229 E.0436
G1 X90.998 Y170.981 E.05815
G1 X89.999 Y170.014 E.04359
M73 P2 R83
G1 X89.024 Y169.023 E.04359
G1 X88.075 Y168.007 E.04359
G1 X86.85 Y166.615 E.05814
G1 X85.963 Y165.545 E.04358
G1 X85.103 Y164.452 E.04361
G1 X84.271 Y163.337 E.04362
G1 X83.468 Y162.202 E.04359
G1 X82.695 Y161.046 E.0436
G1 X81.951 Y159.872 E.04358
G1 X81.237 Y158.679 E.04359
M73 Q2 S84
G1 X80.553 Y157.468 E.04361
G1 X79.901 Y156.24 E.04359
G1 X79.281 Y154.996 E.04358
G1 X78.502 Y153.312 E.05818
G1 X77.957 Y152.034 E.04356
G1 X77.12 Y149.872 E.07269
G1 X76.376 Y147.678 E.07264
G1 X75.726 Y145.454 E.07265
G1 X75.17 Y143.204 E.07267
G1 X74.711 Y140.932 E.07268
G1 X74.349 Y138.643 E.07266
G1 X74.084 Y136.341 E.07265
G1 X73.916 Y134.029 E.07268
G1 X73.863 Y132.64 E.04358
G1 X73.846 Y131.248 E.04365
G1 X73.846 Y69.349 E1.9408
G1 X88.79 Y54.404 E.66266
G1 X88.846 Y54.271 E.00452
G1 X88.846 Y26.029 E.88551
G1 X88.77 Y25.878 E.0053
G1 X88.657 Y25.84 E.00374
G1 X83.946 Y25.84 E.14771
G1 X83.946 Y24.779 E.03327
;WIDTH:0.44646
G1 X83.757 Y24.577 E.00928
G1 X76.8 Y24.577 E.23344
G1 X76.612 Y24.779 E.00926
;WIDTH:0.419999
G1 X76.612 Y25.84 E.03327
G1 X74.028 Y25.84 E.08102
G1 X74.028 Y24.16 E.05268
G1 X75.993 Y24.16 E.06161
;WIDTH:0.44646
G1 X76.8 Y24.173 E.02708
G1 X84.564 Y24.16 E.26052
;WIDTH:0.419999
G1 X102.307 Y24.16 E.55632
;WIDTH:0.44646
G1 X103.114 Y24.173 E.02708
G1 X110.878 Y24.16 E.26052
;WIDTH:0.419999
G1 X112.843 Y24.16 E.06161
G1 X112.843 Y25.84 E.05268
G1 X110.259 Y25.84 E.08102
G1 X110.259 Y24.779 E.03327
;WIDTH:0.44646
G1 X110.071 Y24.577 E.00926
G1 X103.114 Y24.577 E.23344
G1 X102.926 Y24.779 E.00926
;WIDTH:0.419999
G1 X102.926 Y25.84 E.03327
G1 X98.214 Y25.84 E.14774
G1 X98.107 Y25.876 E.00354
M204 S1000
G1 X97.303 Y25.484 F10800
M204 S800
;TYPE:Solid infill
;WIDTH:0.421168
G1 F1200
G1 X97.053 Y25.235 E.0111
G1 X96.518 Y25.235 E.01683
G1 X97.009 Y25.725 E.02182
G1 X96.951 Y26.015 E.0093
